;FLAVOR:Marlin
;TIME:1231
;Filament used: 2.87876m
;Layer height: 0.4
;Generated with Cura_SteamEngine 3.2.1
M190 S50
M104 S200
M109 S200
M82 ;absolute extrusion mode

;LAYER_COUNT:46
;LAYER:0
M107
G0 F3600 X73.617 Y120.654 Z0.2
;TYPE:SKIRT
G1 F1800 X74.11 Y120.378 E0.02091
G1 X74.638 Y120.174 E0.04186
G1 X75.188 Y120.047 E0.06275
G1 X75.806 Y119.998 E0.08569
G1 X83.489 Y119.989 E0.37002
G1 X83.826 Y120.003 E0.3825
G1 X89.267 Y120.457 E0.58456
G1 X94.7 Y120.685 E0.7858
G1 X100.15 Y120.605 E0.98752
G1 X105.614 Y120.214 E1.19025
G1 X107.377 Y120.022 E1.25588
G1 X107.811 Y119.998 E1.27196
G1 X116.192 Y119.999 E1.58213
G1 X116.756 Y120.039 E1.60305
G1 X117.309 Y120.158 E1.62399
G1 X117.839 Y120.354 E1.6449
G1 X118.337 Y120.623 E1.66585
G1 X118.791 Y120.959 E1.68675
G1 X119.194 Y121.356 E1.70768
G1 X119.537 Y121.805 E1.72859
G1 X119.813 Y122.299 E1.74954
G1 X120.016 Y122.826 E1.77044
G1 X120.143 Y123.377 E1.79136
G1 X120.192 Y124.001 E1.81453
G1 X120.191 Y125.951 E1.88669
G1 X120.151 Y126.515 E1.90762
G1 X120.031 Y127.068 E1.92856
G1 X119.835 Y127.598 E1.94947
G1 X119.567 Y128.095 E1.97037
G1 X119.13 Y128.662 E1.99686
G1 X119.058 Y128.74 E2.00079
G1 X118.91 Y128.892 E2.00864
G1 X118.754 Y129.044 E2.0167
G1 X118.323 Y129.409 E2.0376
G1 X117.844 Y129.709 E2.05852
G1 X117.327 Y129.939 E2.07946
G1 X116.784 Y130.094 E2.10036
G1 X115.961 Y130.179 E2.13098
G1 X107.999 Y130.176 E2.42563
G1 X107.567 Y130.152 E2.44164
G1 X105.459 Y129.922 E2.52012
G1 X100.011 Y129.54 E2.72223
G1 X94.56 Y129.466 E2.92398
G1 X89.136 Y129.7 E3.1249
G1 X84.19 Y130.166 E3.30875
G1 X83.811 Y130.184 E3.32279
G1 X76.037 Y130.179 E3.61049
G1 X75.474 Y130.139 E3.63138
G1 X74.921 Y130.019 E3.65232
G1 X74.391 Y129.823 E3.67323
G1 X73.893 Y129.554 E3.69418
G1 X73.439 Y129.218 E3.71508
G1 X73.212 Y129.007 E3.72655
G1 X72.983 Y128.778 E3.73854
G1 X72.612 Y128.351 E3.75947
G1 X72.305 Y127.876 E3.7804
G1 X72.069 Y127.363 E3.8013
G1 X71.907 Y126.821 E3.82224
G1 X71.823 Y126.262 E3.84316
G1 X71.811 Y125.95 E3.85471
G1 X71.811 Y123.998 E3.92695
G1 X71.851 Y123.434 E3.94788
G1 X71.97 Y122.881 E3.96881
G1 X72.166 Y122.351 E3.98972
G1 X72.434 Y121.854 E4.01062
G1 X72.77 Y121.399 E4.03155
G1 X73.167 Y120.996 E4.05249
G1 X73.617 Y120.654 E4.0734
G0 F3600 X74 Y120.887
G1 F1800 X74.483 Y120.652 E4.09328
G1 X74.994 Y120.492 E4.1131
G1 X75.524 Y120.409 E4.13295
G1 X75.807 Y120.398 E4.14343
G1 X83.49 Y120.389 E4.42776
G1 X83.793 Y120.401 E4.43899
G1 X89.242 Y120.855 E4.64134
G1 X94.706 Y121.085 E4.84373
G1 X100.167 Y121.004 E5.04585
G1 X105.634 Y120.614 E5.24869
G1 X107.421 Y120.419 E5.31521
G1 X107.811 Y120.398 E5.32967
G1 X116.192 Y120.399 E5.63983
G1 X116.727 Y120.439 E5.65969
G1 X117.25 Y120.558 E5.67954
G1 X117.75 Y120.753 E5.6994
G1 X118.214 Y121.021 E5.71923
G1 X118.634 Y121.354 E5.73906
G1 X119 Y121.746 E5.75891
G1 X119.304 Y122.189 E5.77879
G1 X119.538 Y122.671 E5.79862
G1 X119.698 Y123.183 E5.81848
G1 X119.781 Y123.713 E5.83833
G1 X119.792 Y124.001 E5.84899
G1 X119.791 Y125.951 E5.92116
G1 X119.751 Y126.486 E5.94101
G1 X119.632 Y127.008 E5.96083
G1 X119.436 Y127.508 E5.9807
G1 X119.168 Y127.973 E6.00057
G1 X118.836 Y128.391 E6.02032
G1 X118.764 Y128.469 E6.02425
G1 X118.631 Y128.605 E6.03129
G1 X118.475 Y128.757 E6.03935
G1 X118.064 Y129.102 E6.05921
G1 X117.607 Y129.382 E6.07904
G1 X117.113 Y129.59 E6.09888
G1 X116.593 Y129.723 E6.11874
G1 X115.962 Y129.779 E6.14219
G1 X108 Y129.776 E6.43684
G1 X107.61 Y129.755 E6.4513
G1 X105.478 Y129.522 E6.53067
G1 X100.026 Y129.14 E6.73293
G1 X94.567 Y129.066 E6.93497
G1 X89.1 Y129.301 E7.13748
G1 X84.152 Y129.768 E7.32141
G1 X83.812 Y129.784 E7.33401
G1 X76.038 Y129.779 E7.62171
G1 X75.503 Y129.739 E7.64156
G1 X74.98 Y129.619 E7.66142
G1 X74.481 Y129.424 E7.68125
G1 X74.016 Y129.156 E7.70111
G1 X73.494 Y128.725 E7.72616
G1 X73.265 Y128.496 E7.73815
G1 X72.916 Y128.089 E7.75799
G1 X72.63 Y127.635 E7.77785
G1 X72.415 Y127.144 E7.79768
G1 X72.275 Y126.626 E7.81754
G1 X72.211 Y125.95 E7.84267
G1 X72.211 Y123.998 E7.91491
G1 X72.251 Y123.463 E7.93476
G1 X72.37 Y122.94 E7.95461
G1 X72.565 Y122.441 E7.97444
G1 X72.833 Y121.976 E7.9943
G1 X73.166 Y121.556 E8.01414
G1 X73.558 Y121.19 E8.03399
G1 X74 Y120.887 E8.05382
G0 F3600 X73.947 Y121.397
G1 F1800 X74.38 Y121.136 E8.07253
G1 X74.848 Y120.946 E8.09122
G1 X75.341 Y120.833 E8.10994
G1 X75.807 Y120.798 E8.12723
G1 X83.49 Y120.789 E8.41156
G1 X83.76 Y120.8 E8.42156
G1 X89.217 Y121.255 E8.62422
G1 X94.695 Y121.485 E8.82713
G1 X100.183 Y121.404 E9.03025
G1 X105.678 Y121.012 E9.23412
G1 X107.464 Y120.817 E9.30061
G1 X107.811 Y120.798 E9.31347
G1 X116.192 Y120.799 E9.62363
G1 X116.696 Y120.839 E9.64235
G1 X117.188 Y120.958 E9.66108
G1 X117.654 Y121.153 E9.67977
G1 X118.084 Y121.418 E9.69847
G1 X118.467 Y121.749 E9.7172
G1 X118.793 Y122.135 E9.7359
G1 X119.054 Y122.568 E9.75461
G1 X119.244 Y123.037 E9.77333
G1 X119.357 Y123.529 E9.79202
G1 X119.392 Y124.001 E9.80953
G1 X119.391 Y125.951 E9.8817
G1 X119.351 Y126.455 E9.90041
G1 X119.232 Y126.946 E9.91911
G1 X119.037 Y127.412 E9.9378
G1 X118.771 Y127.842 E9.95651
G1 X118.542 Y128.119 E9.96981
G1 X118.47 Y128.197 E9.97374
G1 X118.352 Y128.319 E9.98002
G1 X118.196 Y128.471 E9.98808
G1 X117.807 Y128.794 E10.0068
G1 X117.372 Y129.052 E10.02551
G1 X116.902 Y129.238 E10.04422
G1 X116.409 Y129.348 E10.06291
G1 X115.962 Y129.379 E10.07949
G1 X108 Y129.376 E10.37415
G1 X107.654 Y129.357 E10.38697
G1 X105.525 Y129.125 E10.46623
G1 X100.042 Y128.74 E10.66964
G1 X94.554 Y128.666 E10.87276
G1 X89.084 Y128.901 E11.07538
G1 X84.114 Y129.37 E11.26013
G1 X83.812 Y129.384 E11.27132
G1 X76.038 Y129.379 E11.55902
G1 X75.534 Y129.339 E11.57773
G1 X75.043 Y129.22 E11.59642
G1 X74.576 Y129.025 E11.61515
G1 X74.146 Y128.759 E11.63387
G1 X73.777 Y128.442 E11.65187
G1 X73.548 Y128.213 E11.66385
G1 X73.22 Y127.828 E11.68257
G1 X72.957 Y127.397 E11.70126
G1 X72.764 Y126.929 E11.71999
G1 X72.648 Y126.437 E11.7387
G1 X72.611 Y125.95 E11.75677
G1 X72.611 Y123.998 E11.82901
G1 X72.651 Y123.494 E11.84772
G1 X72.77 Y123.003 E11.86642
G1 X72.964 Y122.536 E11.88513
G1 X73.23 Y122.106 E11.90385
G1 X73.56 Y121.723 E11.92256
G1 X73.947 Y121.397 E11.94128
G0 F3600 X76.001 Y124.189
;TYPE:SUPPORT
G1 F1800 X84.001 Y124.189 E12.23735
G1 X84.001 Y125.873 E12.29967
G1 X83.885 Y125.989 E12.30574
G1 X76.117 Y125.989 E12.59322
G1 X76.001 Y125.873 E12.59929
G1 X76.001 Y124.189 E12.66161
G0 F3600 X76.16 Y125.302
G1 F1800 X83.84 Y125.302 E12.94583
G0 F3600 X82.646 Y125.829
G1 F1800 X82.646 Y124.349 E13.0006
G0 F3600 X79.98 Y124.349
G1 F1800 X79.98 Y125.829 E13.05537
G0 F3600 X77.314 Y125.829
G1 F1800 X77.314 Y124.349 E13.11014
G0 F3600 X108.001 Y124.189
G1 F1800 X116.001 Y124.189 E13.40621
G1 X116.001 Y125.873 E13.46853
G1 X115.885 Y125.989 E13.4746
G1 X108.117 Y125.989 E13.76208
G1 X108.001 Y125.873 E13.76815
G1 X108.001 Y124.189 E13.83047
G0 F3600 X108.16 Y125.302
G1 F1800 X115.84 Y125.302 E14.11469
G0 F3600 X114.638 Y125.829
G1 F1800 X114.638 Y124.349 E14.16946
G0 F3600 X111.972 Y124.349
G1 F1800 X111.972 Y125.829 E14.22423
G0 F3600 X109.306 Y125.829
G1 F1800 X109.306 Y124.349 E14.279
G0 F3600 X76.001 Y124.189
;TIME_ELAPSED:16.783777
;LAYER:1
M140 S50
M106 S255
G0 F5400 X76.001 Y124.189 Z0.6
;TYPE:SUPPORT
G1 F2700 X76.001 Y125.873 E14.40365
G1 X76.117 Y125.989 E14.41579
G1 X77.314 Y125.989 E14.50439
G1 X79.98 Y125.989 E14.70171
G1 X79.98 Y124.189 E14.83494
G1 X82.646 Y124.189 E15.03227
G1 X84.001 Y124.189 E15.13256
G1 X84.001 Y125.873 E15.2572
G1 X83.885 Y125.989 E15.26934
G1 X82.646 Y125.989 E15.36105
G1 X82.646 Y124.189 E15.49428
G0 F5400 X77.314 Y125.989
G1 F2700 X77.314 Y124.189 E15.6275
G1 X76.001 Y124.189 E15.72469
G0 F5400 X108.001 Y124.189
G1 F2700 X108.001 Y125.873 E15.84933
G1 X108.117 Y125.989 E15.86147
G1 X109.306 Y125.989 E15.94948
G1 X111.972 Y125.989 E16.1468
G1 X111.972 Y124.189 E16.28003
G1 X114.638 Y124.189 E16.47736
G1 X116.001 Y124.189 E16.57824
G1 X116.001 Y125.873 E16.70288
G1 X115.885 Y125.989 E16.71503
G1 X114.638 Y125.989 E16.80732
G1 X114.638 Y124.189 E16.94055
G0 F5400 X109.306 Y125.989
G1 F2700 X109.306 Y124.189 E17.07378
G1 X108.001 Y124.189 E17.17037
G1 F1500 E10.67037
G0 F5400 X108.001 Y122.654
G0 X108.001 Y121.369
G0 X108.038 Y116.931
G0 X108 Y116.839
;TYPE:WALL-INNER
G1 F1500 E17.17037
G1 F2700 X116.583 Y108.258 E18.06868
G1 X116.753 Y105.979 E18.23783
G1 X116.933 Y105.027 E18.30955
G1 X117.359 Y103.577 E18.4214
G1 X117.925 Y102.184 E18.53269
G1 X118.393 Y101.299 E18.60679
G1 X119.504 Y99.669 E18.7528
G1 X120.177 Y98.88 E18.82956
G1 X121.64 Y97.521 E18.97735
G1 X122.868 Y96.659 E19.0884
G1 X124.188 Y95.918 E19.20044
G1 X125.607 Y95.343 E19.31377
G1 X127.048 Y94.922 E19.42488
G1 X128.026 Y94.74 E19.49851
G1 X129.535 Y94.611 E19.61061
G1 X131.002 Y94.629 E19.7192
G1 X132.497 Y94.836 E19.83091
G1 X133.972 Y95.195 E19.94327
G1 X134.925 Y95.533 E20.01811
G1 X136.283 Y96.169 E20.1291
G1 X137.575 Y96.941 E20.2405
G1 X138.754 Y97.862 E20.35123
G1 X139.822 Y98.879 E20.46039
G1 X141.075 Y100.45 E20.60912
G1 X141.613 Y101.31 E20.68421
G1 X142.072 Y102.175 E20.75669
G1 X142.631 Y103.55 E20.86655
G1 X143.064 Y105.016 E20.97969
G1 X143.249 Y105.992 E21.05321
G1 X143.359 Y106.977 E21.12657
G1 X143.379 Y108.478 E21.23768
G1 X143.251 Y109.975 E21.34889
G1 X142.933 Y111.452 E21.46071
G1 X142.476 Y112.877 E21.57148
G1 X142.071 Y113.808 E21.64662
G1 X141.067 Y115.541 E21.79486
G1 X139.815 Y117.109 E21.94338
G1 X138.738 Y118.138 E22.05363
G1 X137.547 Y119.06 E22.16511
G1 X136.257 Y119.828 E22.27623
G1 X134.898 Y120.46 E22.38716
G1 X132.987 Y121.051 E22.53521
G1 X131.034 Y121.344 E22.68138
G1 X130.02 Y121.381 E22.75649
G1 X129.963 Y121.389 E22.76075
G1 X76.601 Y121.389 E26.71038
G1 X76.601 Y116.839 E27.04715
G1 X108 Y116.839 E29.37117
G0 F5400 X108.038 Y116.931
G0 X116.619 Y108.274
G0 X122.329 Y100.317
G0 X122.399 Y100.387
G1 F2700 X122.399 Y105.763 E29.76908
G1 X122.399 Y105.764 E29.76915
G1 X122.399 Y106.122 E29.79565
G1 X122.094 Y105.933 E29.8106
G1 X121.939 Y105.836 E29.82413
G1 X121.029 Y105.642 E29.893
G1 X120.288 Y105.748 E29.9484
G1 X119.817 Y105.961 E29.98666
G1 X119.408 Y106.258 E30.02408
G1 X118.97 Y106.822 E30.07693
G1 X118.693 Y107.506 E30.13155
G1 X118.67 Y108.263 E30.18761
G1 X118.957 Y109.144 E30.25619
G1 X119.437 Y109.756 E30.31376
G1 X120.279 Y110.241 E30.38568
G1 X121.241 Y110.34 E30.45726
G1 X121.957 Y110.135 E30.51238
G1 X122.094 Y110.049 E30.52435
G1 X122.399 Y109.859 E30.55095
G1 X122.399 Y110.218 E30.5659
G1 X122.399 Y110.219 E30.56598
G1 X122.399 Y115.591 E30.96359
G1 X137.601 Y115.591 E32.08878
G1 X137.601 Y110.221 E32.48624
G1 X137.601 Y110.035 E32.50001
G1 X137.601 Y109.918 E32.50867
G1 X137.74 Y110.035
G1 X137.914 Y110.098 E32.51871
G1 X138.453 Y110.293 E32.56113
G1 X139.383 Y110.295 E32.62997
G1 X140.104 Y110.032 E32.68677
G1 X140.685 Y109.544 E32.74293
G1 X141.148 Y108.741 E32.81154
G1 X141.279 Y107.986 E32.86825
G1 X141.149 Y107.241 E32.92423
G1 X140.685 Y106.436 E32.993
G1 X140.093 Y105.944 E33.04997
G1 X139.384 Y105.688 E33.10577
G1 X138.459 Y105.687 E33.17423
G1 X137.911 Y105.885 E33.21736
G1 X137.731 Y105.95 E33.23152
G1 X137.601 Y106.067 E33.24447
G1 X137.601 Y105.95
G1 X137.601 Y105.758 E33.25477
G1 X137.601 Y100.387 E33.65231
G1 X122.399 Y100.387 E34.7775
G0 F5400 X122.799 Y100.787
;TYPE:WALL-OUTER
G1 F1800 X122.799 Y106.602 E35.2079
G1 X122.799 Y107.02 E35.23884
G1 X122.799 Y107.3 E35.25956
G1 X122.686 Y107.02
G1 X122.43 Y106.69 E35.27997
G1 X122.311 Y106.538 E35.29426
G1 X121.787 Y106.213 E35.3399
G1 X121.015 Y106.048 E35.39833
G1 X120.401 Y106.136 E35.44424
G1 X120.019 Y106.309 E35.47528
G1 X119.689 Y106.548 E35.50543
G1 X119.32 Y107.023 E35.54995
G1 X119.091 Y107.59 E35.59521
G1 X119.072 Y108.206 E35.64083
G1 X119.315 Y108.953 E35.69897
G1 X119.704 Y109.448 E35.74557
G1 X120.405 Y109.852 E35.80545
G1 X121.205 Y109.934 E35.86498
G1 X121.793 Y109.766 E35.91024
G1 X122.311 Y109.442 E35.95546
G1 X122.43 Y109.289 E35.96981
G1 X122.686 Y108.962 E36.00055
G1 X122.799 Y108.682 E36.02289
G1 X122.799 Y108.962
G1 X122.799 Y109.378 E36.04326
G1 X122.799 Y115.191 E36.47352
G1 X137.201 Y115.191 E37.53949
G1 X137.201 Y109.424 E37.96634
G1 X137.201 Y109.29 E37.97626
G1 X137.201 Y108.878 E38.00675
G1 X137.476 Y109.29 E38.02232
G1 X137.578 Y109.376 E38.03079
G1 X137.943 Y109.683 E38.06609
G1 X138.524 Y109.893 E38.11182
G1 X139.313 Y109.895 E38.17022
G1 X139.901 Y109.68 E38.21656
G1 X140.374 Y109.283 E38.26227
G1 X140.766 Y108.603 E38.32036
G1 X140.873 Y107.986 E38.36671
G1 X140.767 Y107.38 E38.41224
G1 X140.374 Y106.698 E38.4705
G1 X139.891 Y106.296 E38.51702
G1 X139.314 Y106.088 E38.56241
G1 X138.529 Y106.087 E38.62052
G1 X137.94 Y106.3 E38.66687
G1 X137.557 Y106.644 E38.70498
G1 X137.342 Y106.838 E38.72641
G1 X137.201 Y107.128 E38.75028
G1 X137.201 Y106.838
G1 X137.201 Y106.548 E38.76541
G1 X137.201 Y100.787 E39.19181
G1 X122.799 Y100.787 E40.25779
G0 F5400 X122.799 Y100.987
G0 X122.299 Y100.987
G0 X116.619 Y108.274
G0 X108.015 Y116.875
G0 X107.834 Y116.939
G0 X107.834 Y116.439
G1 F1800 X116.195 Y108.08 E41.13286
G1 X116.356 Y105.929 E41.29251
G1 X116.544 Y104.93 E41.36775
G1 X116.981 Y103.442 E41.48254
G1 X117.561 Y102.016 E41.59648
G1 X118.048 Y101.095 E41.6736
G1 X119.184 Y99.427 E41.82297
G1 X119.886 Y98.604 E41.90303
G1 X121.388 Y97.209 E42.05476
G1 X122.659 Y96.317 E42.16968
G1 X124.014 Y95.557 E42.28467
G1 X125.474 Y94.965 E42.40128
G1 X126.952 Y94.533 E42.51526
G1 X127.98 Y94.342 E42.59265
G1 X129.516 Y94.211 E42.70675
G1 X131.03 Y94.229 E42.81882
G1 X132.578 Y94.444 E42.93449
G1 X134.083 Y94.81 E43.04913
G1 X135.075 Y95.162 E43.12704
G1 X136.468 Y95.814 E43.24088
G1 X137.802 Y96.611 E43.3559
G1 X139.021 Y97.563 E43.47038
G1 X140.116 Y98.606 E43.58231
G1 X141.401 Y100.218 E43.73489
G1 X141.96 Y101.111 E43.81287
G1 X142.438 Y102.011 E43.88829
G1 X143.009 Y103.415 E44.00048
G1 X143.453 Y104.92 E44.11662
G1 X143.646 Y105.938 E44.19331
G1 X143.759 Y106.947 E44.26846
G1 X143.779 Y108.497 E44.38319
G1 X143.648 Y110.03 E44.49707
G1 X143.32 Y111.557 E44.61267
G1 X142.85 Y113.021 E44.72648
G1 X142.431 Y113.983 E44.80414
G1 X141.395 Y115.773 E44.95722
G1 X140.116 Y117.374 E45.10889
G1 X138.997 Y118.443 E45.22343
G1 X137.772 Y119.392 E45.33813
G1 X136.44 Y120.184 E45.45283
G1 X135.046 Y120.833 E45.56664
G1 X133.073 Y121.443 E45.71949
G1 X131.072 Y121.743 E45.86925
G1 X130.055 Y121.78 E45.94458
G1 X129.99 Y121.789 E45.94943
G1 X76.201 Y121.789 E49.93067
G1 X76.201 Y116.439 E50.32665
G1 X107.834 Y116.439 E52.66799
G0 F5400 X107.975 Y116.298
G0 X108.327 Y116.652
G0 X108.162 Y117.229
;TYPE:SKIN
G1 F1800 X116.961 Y108.431 E53.58897
G1 X117.138 Y106.046 E53.76598
G1 X117.315 Y105.111 E53.83642
G1 X117.728 Y103.705 E53.94488
G1 X118.279 Y102.349 E54.05321
G1 X118.729 Y101.498 E54.12446
G1 X119.813 Y99.908 E54.2669
G1 X120.46 Y99.148 E54.34077
G1 X121.882 Y97.828 E54.48438
G1 X123.082 Y96.986 E54.59288
G1 X124.361 Y96.268 E54.70145
G1 X125.733 Y95.712 E54.81102
G1 X127.127 Y95.305 E54.9185
G1 X128.091 Y95.126 E54.99107
G1 X129.543 Y95.001 E55.09894
G1 X130.976 Y95.019 E55.20501
G1 X132.421 Y95.219 E55.31299
G1 X133.863 Y95.57 E55.42283
G1 X134.773 Y95.893 E55.49431
G1 X136.099 Y96.514 E55.60268
G1 X137.352 Y97.262 E55.71069
G1 X138.498 Y98.158 E55.81836
G1 X139.535 Y99.146 E55.92437
G1 X140.754 Y100.673 E56.06899
G1 X141.274 Y101.503 E56.14149
G1 X141.722 Y102.349 E56.21234
G1 X142.261 Y103.673 E56.31815
G1 X142.683 Y105.103 E56.4285
G1 X142.865 Y106.064 E56.5009
G1 X142.969 Y107.004 E56.5709
G1 X142.989 Y108.471 E56.67949
G1 X142.866 Y109.907 E56.78616
G1 X142.553 Y111.362 E56.89632
G1 X142.111 Y112.74 E57.00343
G1 X141.722 Y113.634 E57.0756
G1 X140.746 Y115.318 E57.21966
G1 X139.526 Y116.846 E57.36438
G1 X138.48 Y117.846 E57.47149
G1 X137.33 Y118.736 E57.57912
G1 X136.071 Y119.485 E57.68755
G1 X134.766 Y120.092 E57.79408
G1 X132.9 Y120.669 E57.93864
G1 X130.997 Y120.954 E58.08107
G1 X129.986 Y120.992 E58.15595
G1 X129.939 Y120.999 E58.15947
G1 X76.991 Y120.999 E62.07845
G1 X76.991 Y117.229 E62.35749
G1 X108.162 Y117.229 E64.66464
G0 F5400 X118.608 Y109.331
G1 F1800 X119.177 Y110.056 E64.73285
G1 X120.156 Y110.621 E64.81652
G1 X121.276 Y110.736 E64.89985
G1 X122.009 Y110.526 E64.95629
G1 X122.009 Y115.981 E65.36004
G1 X137.991 Y115.981 E66.54296
G1 X137.991 Y110.541 E66.94561
G1 X138.385 Y110.683 E66.97661
G1 X139.451 Y110.685 E67.05551
G1 X140.303 Y110.375 E67.12261
G1 X140.989 Y109.798 E67.18896
G1 X141.52 Y108.876 E67.26771
G1 X141.675 Y107.986 E67.33458
G1 X141.521 Y107.106 E67.4007
G1 X140.988 Y106.181 E67.47972
G1 X140.29 Y105.601 E67.54689
G1 X139.452 Y105.298 E67.61285
G1 X138.391 Y105.297 E67.69138
G1 X137.991 Y105.441 E67.72284
G1 X137.991 Y99.997 E68.12578
G1 X122.009 Y99.997 E69.3087
G1 X122.009 Y105.452 E69.71246
G1 X121.043 Y105.246 E69.78557
G1 X120.178 Y105.37 E69.85025
G1 X119.62 Y105.622 E69.89556
G1 X119.133 Y105.975 E69.94008
G1 X118.629 Y106.625 E70.00096
G1 X118.305 Y107.424 E70.06478
G1 X118.278 Y108.319 E70.13105
G1 X118.608 Y109.331 E70.20984
G0 F5400 X122.371 Y115.619
G0 X138.17 Y115.822
G1 F1800 X142.236 Y111.756 E70.63544
G1 X142.306 Y111.686
G0 F5400 X142.449 Y110.977
G1 F1800 X138.17 Y115.256 E71.08334
G1 X138.1 Y115.326
G0 F5400 X138.17 Y114.691
G1 F1800 X142.605 Y110.255 E71.54762
G1 X142.675 Y110.185
G0 F5400 X142.713 Y109.582
G1 F1800 X138.17 Y114.125 E72.02316
G1 X138.1 Y114.195
G0 F5400 X138.17 Y113.559
G1 F1800 X142.765 Y108.964 E72.50414
G1 X142.835 Y108.894
G0 F5400 X142.805 Y108.358
G1 F1800 X138.17 Y112.994 E72.98935
G1 X138.1 Y113.064
G0 F5400 X138.17 Y112.428
G1 F1800 X139.877 Y110.72 E73.16808
G1 X139.947 Y110.65
G0 F5400 X139.168 Y110.864
G1 F1800 X138.17 Y111.862 E73.27255
G1 X138.1 Y111.932
G0 F5400 X138.17 Y111.297
G1 F1800 X138.604 Y110.863 E73.31798
G0 F5400 X139.972 Y110.146
G0 X141.697 Y108.9
G1 F1800 X142.798 Y107.799 E73.43322
G1 X142.868 Y107.729
G0 F5400 X142.791 Y107.241
G1 F1800 X141.816 Y108.216 E73.53528
G1 X141.746 Y108.286
G0 F5400 X141.801 Y107.666
G1 F1800 X142.754 Y106.713 E73.63504
G1 X142.824 Y106.643
G0 F5400 X142.699 Y106.202
G1 F1800 X141.716 Y107.184 E73.73788
G1 X141.646 Y107.254
G0 F5400 X141.545 Y106.79
G1 F1800 X142.615 Y105.72 E73.84988
G1 X142.685 Y105.65
G0 F5400 X142.525 Y105.245
G1 F1800 X141.339 Y106.43 E73.97397
G1 X141.269 Y106.5
G0 F5400 X141.132 Y106.071
G1 F1800 X142.404 Y104.8 E74.10706
G1 X142.474 Y104.73
G0 F5400 X142.275 Y104.363
G1 F1800 X140.825 Y105.812 E74.25879
G1 X140.755 Y105.882
G0 F5400 X140.516 Y105.556
G1 F1800 X142.146 Y103.926 E74.42941
G1 X142.216 Y103.856
G0 F5400 X141.999 Y103.508
G1 F1800 X140.147 Y105.359 E74.62321
G1 X140.077 Y105.429
G0 F5400 X139.732 Y105.209
G1 F1800 X141.835 Y103.106 E74.84334
G1 X141.905 Y103.036
G0 F5400 X141.671 Y102.704
G1 F1800 X139.257 Y105.118 E75.09602
G1 X139.187 Y105.188
G0 F5400 X138.692 Y105.117
G1 F1800 X141.497 Y102.313 E75.38958
G1 X141.567 Y102.243
G0 F5400 X141.301 Y101.943
G1 F1800 X138.17 Y105.074 E75.71732
G1 X138.1 Y105.144
G0 F5400 X138.17 Y104.508
G1 F1800 X141.104 Y101.574 E76.02443
G1 X141.174 Y101.504
G0 F5400 X140.886 Y101.226
G1 F1800 X138.17 Y103.943 E76.30878
G1 X138.1 Y104.013
G0 F5400 X138.17 Y103.377
G1 F1800 X140.668 Y100.878 E76.57031
G1 X140.738 Y100.808
G0 F5400 X140.427 Y100.554
G1 F1800 X138.17 Y102.811 E76.80656
G1 X138.1 Y102.881
G0 F5400 X138.17 Y102.246
G1 F1800 X140.176 Y100.239 E77.01658
G1 X140.246 Y100.169
G0 F5400 X139.925 Y99.924
G1 F1800 X138.17 Y101.68 E77.20034
G1 X138.1 Y101.75
G0 F5400 X138.17 Y101.114
G1 F1800 X139.674 Y99.61 E77.35777
G1 X139.744 Y99.54
G0 F5400 X139.423 Y99.295
G1 F1800 X138.17 Y100.549 E77.48898
G1 X138.1 Y100.619
G0 F5400 X138.17 Y99.983
G1 F1800 X139.137 Y99.016 E77.5902
G1 X139.207 Y98.946
G0 F5400 X138.848 Y98.739
G1 F1800 X137.77 Y99.817 E77.70304
G1 X137.7 Y99.887
G0 F5400 X137.204 Y99.817
G1 F1800 X138.558 Y98.463 E77.84477
G1 X138.628 Y98.393
G0 F5400 X138.257 Y98.198
G1 F1800 X136.639 Y99.817 E78.01418
G1 X136.569 Y99.887
G0 F5400 X136.073 Y99.817
G1 F1800 X137.94 Y97.95 E78.20961
G1 X138.01 Y97.88
G0 F5400 X137.622 Y97.702
G1 F1800 X135.507 Y99.817 E78.43099
G1 X135.437 Y99.887
G0 F5400 X134.942 Y99.817
G1 F1800 X137.305 Y97.454 E78.67834
G1 X137.375 Y97.384
G0 F5400 X136.957 Y97.236
G1 F1800 X134.376 Y99.817 E78.9485
G1 X134.306 Y99.887
G0 F5400 X133.81 Y99.817
G1 F1800 X136.603 Y97.024 E79.24086
G1 X136.673 Y96.954
G0 F5400 X136.248 Y96.813
G1 F1800 X133.245 Y99.817 E79.55525
G1 X133.175 Y99.887
G0 F5400 X132.679 Y99.817
G1 F1800 X135.884 Y96.611 E79.89078
G1 X135.954 Y96.541
G0 F5400 X135.499 Y96.431
G1 F1800 X132.113 Y99.817 E80.24521
G1 X132.043 Y99.887
G0 F5400 X131.548 Y99.817
G1 F1800 X135.113 Y96.251 E80.61842
G1 X135.183 Y96.181
G0 F5400 X134.728 Y96.071
G1 F1800 X130.982 Y99.817 E81.01053
G1 X130.912 Y99.887
G0 F5400 X130.416 Y99.817
G1 F1800 X134.313 Y95.92 E81.41845
G1 X134.383 Y95.85
G0 F5400 X133.895 Y95.772
G1 F1800 X129.85 Y99.817 E81.84185
G1 X129.78 Y99.887
G0 F5400 X129.285 Y99.817
G1 F1800 X133.448 Y95.653 E82.27766
G1 X133.518 Y95.583
G0 F5400 X132.993 Y95.543
G1 F1800 X128.719 Y99.817 E82.72504
G1 X128.649 Y99.887
G0 F5400 X128.153 Y99.817
G1 F1800 X132.538 Y95.432 E83.18404
G1 X132.608 Y95.362
G0 F5400 X132.055 Y95.349
G1 F1800 X127.588 Y99.817 E83.65167
G1 X127.518 Y99.887
G0 F5400 X127.022 Y99.817
G1 F1800 X131.558 Y95.281 E84.12647
G1 X131.628 Y95.211
G0 F5400 X131.061 Y95.212
G1 F1800 X126.456 Y99.817 E84.60849
G1 X126.386 Y99.887
G0 F5400 X125.891 Y99.817
G1 F1800 X130.515 Y95.192 E85.09256
G1 X130.585 Y95.122
G0 F5400 X129.957 Y95.185
G1 F1800 X125.325 Y99.817 E85.57741
G1 X125.255 Y99.887
G0 F5400 X124.759 Y99.817
G1 F1800 X129.382 Y95.194 E86.06132
G1 X129.452 Y95.124
G0 F5400 X128.762 Y95.248
G1 F1800 X124.194 Y99.817 E86.53952
G1 X124.124 Y99.887
G0 F5400 X123.628 Y99.817
G1 F1800 X128.143 Y95.302 E87.01213
G1 X128.213 Y95.232
G0 F5400 X127.451 Y95.428
G1 F1800 X123.062 Y99.817 E87.47154
G1 X122.992 Y99.887
G0 F5400 X122.497 Y99.817
G1 F1800 X126.696 Y95.617 E87.91112
G1 X126.766 Y95.547
G0 F5400 X125.898 Y95.85
G1 F1800 X121.931 Y99.817 E88.32636
G1 X121.861 Y99.887
G0 F5400 X121.828 Y99.92
G1 F1800 X117.86 Y103.888 E88.74171
G1 X117.79 Y103.958
G0 F5400 X117.625 Y104.688
G1 F1800 X121.828 Y100.486 E89.1816
G1 X121.898 Y100.416
G0 F5400 X121.828 Y101.051
G1 F1800 X117.434 Y105.445 E89.64154
G1 X117.364 Y105.515
G0 F5400 X117.311 Y106.134
G1 F1800 X121.828 Y101.617 E90.11435
G1 X121.898 Y101.547
G0 F5400 X121.828 Y102.183
G1 F1800 X117.265 Y106.745 E90.59193
G1 X117.195 Y106.815
G0 F5400 X117.22 Y107.356
G1 F1800 X121.828 Y102.748 E91.07427
G1 X121.898 Y102.678
G0 F5400 X121.828 Y103.314
G1 F1800 X119.8 Y105.342 E91.28654
G1 X119.73 Y105.412
G0 F5400 X120.577 Y105.131
G1 F1800 X121.828 Y103.88 E91.41749
G1 X121.898 Y103.81
G0 F5400 X121.828 Y104.446
G1 F1800 X121.181 Y105.092 E91.48516
G1 X121.111 Y105.162
G0 F5400 X121.647 Y105.192
G1 F1800 X121.828 Y105.011 E91.50411
G0 F5400 X120.184 Y105.752
G0 X118.377 Y106.765
G1 F1800 X117.175 Y107.967 E91.62993
G1 X117.105 Y108.037
G0 F5400 X118.1 Y108.173
G1 F1800 X105.455 Y120.819 E92.95358
G1 X105.385 Y120.889
G0 F5400 X106.02 Y120.819
G1 F1800 X118.194 Y108.645 E94.22789
G1 X118.264 Y108.575
G0 F5400 X118.333 Y109.071
G1 F1800 X106.586 Y120.819 E95.45755
G1 X106.516 Y120.889
G0 F5400 X107.152 Y120.819
G1 F1800 X118.493 Y109.477 E96.64471
G1 X118.563 Y109.407
G0 F5400 X118.742 Y109.794
G1 F1800 X107.717 Y120.819 E97.79874
G1 X107.647 Y120.889
G0 F5400 X108.283 Y120.819
G1 F1800 X118.991 Y110.111 E98.91959
G1 X119.061 Y110.041
G0 F5400 X119.321 Y110.346
G1 F1800 X108.849 Y120.819 E100.01579
G1 X108.779 Y120.889
G0 F5400 X109.414 Y120.819
G1 F1800 X119.679 Y110.554 E101.09027
G1 X119.749 Y110.484
G0 F5400 X120.038 Y110.761
G1 F1800 X109.98 Y120.819 E102.14308
G1 X109.91 Y120.889
G0 F5400 X110.546 Y120.819
G1 F1800 X120.525 Y110.839 E103.18768
G1 X120.595 Y110.769
G0 F5400 X121.038 Y110.892
G1 F1800 X111.111 Y120.819 E104.22678
G1 X111.041 Y120.889
G0 F5400 X111.677 Y120.819
G1 F1800 X121.693 Y110.802 E105.27525
G1 X121.763 Y110.732
G0 F5400 X121.828 Y111.234
G1 F1800 X112.243 Y120.819 E106.27855
G1 X112.173 Y120.889
G0 F5400 X112.808 Y120.819
G1 F1800 X121.828 Y111.799 E107.22271
G1 X121.898 Y111.729
G0 F5400 X121.828 Y112.365
G1 F1800 X113.374 Y120.819 E108.10762
G1 X113.304 Y120.889
G0 F5400 X113.94 Y120.819
G1 F1800 X121.828 Y112.931 E108.93329
G1 X121.898 Y112.861
G0 F5400 X121.828 Y113.497
G1 F1800 X114.506 Y120.819 E109.69972
G1 X114.436 Y120.889
G0 F5400 X115.071 Y120.819
G1 F1800 X121.828 Y114.062 E110.407
G1 X121.898 Y113.992
G0 F5400 X121.828 Y114.628
G1 F1800 X115.637 Y120.819 E111.05504
G1 X115.567 Y120.889
G0 F5400 X116.203 Y120.819
G1 F1800 X121.828 Y115.194 E111.64383
G1 X121.898 Y115.124
G0 F5400 X121.828 Y115.759
G1 F1800 X116.768 Y120.819 E112.17348
G1 X116.698 Y120.889
G0 F5400 X117.334 Y120.819
G1 F1800 X121.992 Y116.16 E112.6611
G1 X122.062 Y116.09
G0 F5400 X122.558 Y116.16
G1 F1800 X117.9 Y120.819 E113.14873
G1 X117.83 Y120.889
G0 F5400 X118.465 Y120.819
G1 F1800 X123.124 Y116.16 E113.6364
G1 X123.194 Y116.09
G0 F5400 X123.689 Y116.16
G1 F1800 X119.031 Y120.819 E114.12403
G1 X118.961 Y120.889
G0 F5400 X119.597 Y120.819
G1 F1800 X124.255 Y116.16 E114.61165
G1 X124.325 Y116.09
G0 F5400 X124.821 Y116.16
G1 F1800 X120.162 Y120.819 E115.09933
G1 X120.092 Y120.889
G0 F5400 X120.728 Y120.819
G1 F1800 X125.387 Y116.16 E115.58701
G1 X125.457 Y116.09
G0 F5400 X125.952 Y116.16
G1 F1800 X121.294 Y120.819 E116.07463
G1 X121.224 Y120.889
G0 F5400 X121.859 Y120.819
G1 F1800 X126.518 Y116.16 E116.56231
G1 X126.588 Y116.09
G0 F5400 X127.084 Y116.16
G1 F1800 X122.425 Y120.819 E117.04998
G1 X122.355 Y120.889
G0 F5400 X122.991 Y120.819
G1 F1800 X127.649 Y116.16 E117.53761
G1 X127.719 Y116.09
G0 F5400 X128.215 Y116.16
G1 F1800 X123.557 Y120.819 E118.02523
G1 X123.487 Y120.889
G0 F5400 X124.122 Y120.819
G1 F1800 X128.781 Y116.16 E118.51291
G1 X128.851 Y116.09
G0 F5400 X129.346 Y116.16
G1 F1800 X124.688 Y120.819 E119.00053
G1 X124.618 Y120.889
G0 F5400 X125.254 Y120.819
G1 F1800 X129.912 Y116.16 E119.48816
G1 X129.982 Y116.09
G0 F5400 X130.478 Y116.16
G1 F1800 X125.819 Y120.819 E119.97584
G1 X125.749 Y120.889
G0 F5400 X126.385 Y120.819
G1 F1800 X131.043 Y116.16 E120.46346
G1 X131.113 Y116.09
G0 F5400 X131.609 Y116.16
G1 F1800 X126.951 Y120.819 E120.95108
G1 X126.881 Y120.889
G0 F5400 X127.516 Y120.819
G1 F1800 X132.175 Y116.16 E121.43876
G1 X132.245 Y116.09
G0 F5400 X132.74 Y116.16
G1 F1800 X128.082 Y120.819 E121.92638
G1 X128.012 Y120.889
G0 F5400 X128.648 Y120.819
G1 F1800 X133.306 Y116.16 E122.41401
G1 X133.376 Y116.09
G0 F5400 X133.872 Y116.16
G1 F1800 X129.213 Y120.819 E122.90169
G1 X129.143 Y120.889
G0 F5400 X129.779 Y120.819
G1 F1800 X134.437 Y116.16 E123.38931
G1 X134.507 Y116.09
G0 F5400 X135.003 Y116.16
G1 F1800 X130.366 Y120.797 E123.87468
G1 X130.296 Y120.867
G0 F5400 X130.954 Y120.775
G1 F1800 X135.569 Y116.16 E124.35776
G1 X135.639 Y116.09
G0 F5400 X136.135 Y116.16
G1 F1800 X131.616 Y120.679 E124.83078
G1 X131.546 Y120.749
G0 F5400 X132.281 Y120.58
G1 F1800 X136.7 Y116.16 E125.29338
G1 X136.77 Y116.09
G0 F5400 X137.266 Y116.16
G1 F1800 X132.965 Y120.461 E125.74359
G1 X132.895 Y120.531
G0 F5400 X133.785 Y120.207
G1 F1800 X137.832 Y116.16 E126.1672
G1 X137.902 Y116.09
G0 F5400 X136.918 Y118.771
G1 F1800 X140.766 Y114.923 E126.56999
G1 X140.836 Y114.853
G0 F5400 X141.545 Y113.579
G1 F1800 X135.632 Y119.491 E127.18888
G1 X135.562 Y119.561
G0 F5400 X134.604 Y119.954
G1 F1800 X141.97 Y112.587 E127.95996
G1 X142.04 Y112.517
G0 F5400 X141.186 Y107.228
G0 X137.629 Y100.359
G0 X124.968 Y96.214
G1 F1800 X118.224 Y102.958 E128.66588
G1 X118.154 Y103.028
G0 F5400 X118.721 Y101.895
G1 F1800 X123.866 Y96.75 E129.20443
G1 X123.936 Y96.68
G0 F5400 X122.292 Y97.758
G1 F1800 X119.789 Y100.262 E129.46648
G1 X119.719 Y100.332
G0 F5400 X118.118 Y107.589
G1 F1800 X104.889 Y120.819 E130.85127
G1 X104.819 Y120.889
G0 F5400 X104.323 Y120.819
G1 F1800 X107.734 Y117.408 E131.20831
G1 X107.804 Y117.338
G0 F5400 X107.169 Y117.408
G1 F1800 X103.758 Y120.819 E131.56535
G1 X103.688 Y120.889
G0 F5400 X103.192 Y120.819
G1 F1800 X106.603 Y117.408 E131.9224
G1 X106.673 Y117.338
G0 F5400 X106.037 Y117.408
G1 F1800 X102.626 Y120.819 E132.27944
G1 X102.556 Y120.889
G0 F5400 X102.06 Y120.819
G1 F1800 X105.472 Y117.408 E132.63654
G1 X105.542 Y117.338
G0 F5400 X104.906 Y117.408
G1 F1800 X101.495 Y120.819 E132.99358
G1 X101.425 Y120.889
G0 F5400 X100.929 Y120.819
G1 F1800 X104.34 Y117.408 E133.35062
G1 X104.41 Y117.338
G0 F5400 X103.774 Y117.408
G1 F1800 X100.363 Y120.819 E133.70767
G1 X100.293 Y120.889
G0 F5400 X99.798 Y120.819
G1 F1800 X103.209 Y117.408 E134.06471
G1 X103.279 Y117.338
G0 F5400 X102.643 Y117.408
G1 F1800 X99.232 Y120.819 E134.42175
G1 X99.162 Y120.889
G0 F5400 X98.666 Y120.819
G1 F1800 X102.077 Y117.408 E134.7788
G1 X102.147 Y117.338
G0 F5400 X101.512 Y117.408
G1 F1800 X98.101 Y120.819 E135.13584
G1 X98.031 Y120.889
G0 F5400 X97.535 Y120.819
G1 F1800 X100.946 Y117.408 E135.49288
G1 X101.016 Y117.338
G0 F5400 X100.38 Y117.408
G1 F1800 X96.969 Y120.819 E135.84993
G1 X96.899 Y120.889
G0 F5400 X96.404 Y120.819
G1 F1800 X99.815 Y117.408 E136.20697
G1 X99.885 Y117.338
G0 F5400 X99.249 Y117.408
G1 F1800 X95.838 Y120.819 E136.56401
G1 X95.768 Y120.889
G0 F5400 X95.272 Y120.819
G1 F1800 X98.683 Y117.408 E136.92106
G1 X98.753 Y117.338
G0 F5400 X98.118 Y117.408
G1 F1800 X94.707 Y120.819 E137.2781
G1 X94.637 Y120.889
G0 F5400 X94.141 Y120.819
G1 F1800 X97.552 Y117.408 E137.63514
G1 X97.622 Y117.338
G0 F5400 X96.986 Y117.408
G1 F1800 X93.575 Y120.819 E137.99219
G1 X93.505 Y120.889
G0 F5400 X93.009 Y120.819
G1 F1800 X96.421 Y117.408 E138.34928
G1 X96.491 Y117.338
G0 F5400 X95.855 Y117.408
G1 F1800 X92.444 Y120.819 E138.70633
G1 X92.374 Y120.889
G0 F5400 X91.878 Y120.819
G1 F1800 X95.289 Y117.408 E139.06337
G1 X95.359 Y117.338
G0 F5400 X94.724 Y117.408
G1 F1800 X91.312 Y120.819 E139.42046
G1 X91.242 Y120.889
G0 F5400 X90.747 Y120.819
G1 F1800 X94.158 Y117.408 E139.77751
G1 X94.228 Y117.338
G0 F5400 X93.592 Y117.408
G1 F1800 X90.181 Y120.819 E140.13455
G1 X90.111 Y120.889
G0 F5400 X89.615 Y120.819
G1 F1800 X93.026 Y117.408 E140.49159
G1 X93.096 Y117.338
G0 F5400 X92.461 Y117.408
G1 F1800 X89.05 Y120.819 E140.84864
G1 X88.98 Y120.889
G0 F5400 X88.484 Y120.819
G1 F1800 X91.895 Y117.408 E141.20568
G1 X91.965 Y117.338
G0 F5400 X91.329 Y117.408
G1 F1800 X87.918 Y120.819 E141.56273
G1 X87.848 Y120.889
G0 F5400 X87.353 Y120.819
G1 F1800 X90.764 Y117.408 E141.91977
G1 X90.834 Y117.338
G0 F5400 X90.198 Y117.408
G1 F1800 X86.787 Y120.819 E142.27681
G1 X86.717 Y120.889
G0 F5400 X86.221 Y120.819
G1 F1800 X89.632 Y117.408 E142.63386
G1 X89.702 Y117.338
G0 F5400 X89.067 Y117.408
G1 F1800 X85.656 Y120.819 E142.9909
G1 X85.586 Y120.889
G0 F5400 X85.09 Y120.819
G1 F1800 X88.501 Y117.408 E143.34794
G1 X88.571 Y117.338
G0 F5400 X87.935 Y117.408
G1 F1800 X84.524 Y120.819 E143.70499
G1 X84.454 Y120.889
G0 F5400 X83.959 Y120.819
G1 F1800 X87.37 Y117.408 E144.06203
G1 X87.44 Y117.338
G0 F5400 X86.804 Y117.408
G1 F1800 X83.393 Y120.819 E144.41907
G1 X83.323 Y120.889
G0 F5400 X82.827 Y120.819
G1 F1800 X86.238 Y117.408 E144.77612
G1 X86.308 Y117.338
G0 F5400 X85.673 Y117.408
G1 F1800 X82.261 Y120.819 E145.13321
G1 X82.191 Y120.889
G0 F5400 X81.696 Y120.819
G1 F1800 X85.107 Y117.408 E145.49025
G1 X85.177 Y117.338
G0 F5400 X84.541 Y117.408
G1 F1800 X81.13 Y120.819 E145.8473
G1 X81.06 Y120.889
G0 F5400 X80.564 Y120.819
G1 F1800 X83.976 Y117.408 E146.20439
G1 X84.046 Y117.338
G0 F5400 X83.41 Y117.408
G1 F1800 X79.999 Y120.819 E146.56144
G1 X79.929 Y120.889
G0 F5400 X79.433 Y120.819
G1 F1800 X82.844 Y117.408 E146.91848
G1 X82.914 Y117.338
G0 F5400 X82.278 Y117.408
G1 F1800 X78.867 Y120.819 E147.27552
G1 X78.797 Y120.889
G0 F5400 X78.302 Y120.819
G1 F1800 X81.713 Y117.408 E147.63257
G1 X81.783 Y117.338
G0 F5400 X81.147 Y117.408
G1 F1800 X77.736 Y120.819 E147.98961
G1 X77.666 Y120.889
G0 F5400 X77.171 Y120.818
G1 F1800 X80.581 Y117.408 E148.34655
G1 X80.651 Y117.338
G0 F5400 X80.016 Y117.408
G1 F1800 X77.171 Y120.252 E148.6443
G1 X77.101 Y120.322
G0 F5400 X77.171 Y119.687
G1 F1800 X79.45 Y117.408 E148.88285
G1 X79.52 Y117.338
G0 F5400 X78.884 Y117.408
G1 F1800 X77.171 Y119.121 E149.06215
G1 X77.101 Y119.191
G0 F5400 X77.171 Y118.555
G1 F1800 X78.319 Y117.408 E149.18227
G1 X78.389 Y117.338
G0 F5400 X77.753 Y117.408
G1 F1800 X77.171 Y117.989 E149.24314
G1 X77.101 Y118.059
G1 F1500 E142.74314
G0 F5400 X76.615 Y121.375
G0 X76.615 Y122.654
G0 X76.001 Y124.189
;TIME_ELAPSED:82.061655
;LAYER:2
G0 F7200 X76.001 Y124.189 Z1
;TYPE:SUPPORT
G1 F1500 E149.24314
G1 F3600 X76.001 Y125.873 E149.36778
G1 X76.117 Y125.989 E149.37992
G1 X77.314 Y125.989 E149.46852
G1 X79.98 Y125.989 E149.66584
G1 X79.98 Y124.189 E149.79907
G1 X82.646 Y124.189 E149.9964
G1 X84.001 Y124.189 E150.09669
G1 X84.001 Y125.873 E150.22133
G1 X83.885 Y125.989 E150.23347
G1 X82.646 Y125.989 E150.32518
G1 X82.646 Y124.189 E150.45841
G0 F7200 X77.314 Y125.989
G1 F3600 X77.314 Y124.189 E150.59164
G1 X76.001 Y124.189 E150.68882
G0 F7200 X108.001 Y124.189
G1 F3600 X108.001 Y125.873 E150.81346
G1 X108.117 Y125.989 E150.8256
G1 X109.306 Y125.989 E150.91361
G1 X111.972 Y125.989 E151.11093
G1 X111.972 Y124.189 E151.24416
G1 X114.638 Y124.189 E151.44149
G1 X116.001 Y124.189 E151.54237
G1 X116.001 Y125.873 E151.66702
G1 X115.885 Y125.989 E151.67916
G1 X114.638 Y125.989 E151.77146
G1 X114.638 Y124.189 E151.90468
G0 F7200 X109.306 Y125.989
G1 F3600 X109.306 Y124.189 E152.03791
G1 X108.001 Y124.189 E152.1345
G1 F1500 E145.6345
G0 F7200 X108.001 Y122.654
G0 X108.001 Y121.369
G0 X108.038 Y116.931
G0 X108 Y116.839
;TYPE:WALL-INNER
G1 F1500 E152.1345
G1 F3600 X116.583 Y108.258 E153.03282
G1 X116.755 Y105.967 E153.20286
G1 X116.931 Y105.035 E153.27306
G1 X117.354 Y103.59 E153.38451
G1 X117.921 Y102.193 E153.4961
G1 X118.392 Y101.301 E153.57076
G1 X119.481 Y99.702 E153.71395
G1 X120.121 Y98.957 E153.78665
G1 X120.188 Y98.868 E153.79489
G1 X121.627 Y97.53 E153.94033
G1 X122.858 Y96.664 E154.05173
G1 X124.191 Y95.917 E154.16483
G1 X125.569 Y95.355 E154.27498
G1 X127.028 Y94.925 E154.38756
G1 X127.995 Y94.742 E154.4604
G1 X129.502 Y94.611 E154.57236
G1 X131.002 Y94.629 E154.6834
G1 X132.511 Y94.839 E154.79616
G1 X133.908 Y95.175 E154.90251
G1 X134.892 Y95.517 E154.97962
G1 X136.257 Y96.153 E155.09108
G1 X137.547 Y96.918 E155.20208
G1 X138.737 Y97.844 E155.31369
G1 X139.819 Y98.875 E155.42431
G1 X141.075 Y100.45 E155.57341
G1 X141.618 Y101.32 E155.64932
G1 X142.077 Y102.183 E155.72167
G1 X142.625 Y103.53 E155.8293
G1 X143.061 Y105.005 E155.94314
G1 X143.251 Y106.004 E156.01841
G1 X143.357 Y106.964 E156.0899
G1 X143.38 Y108.468 E156.20123
G1 X143.253 Y109.963 E156.31228
G1 X142.936 Y111.442 E156.42424
G1 X142.48 Y112.866 E156.53491
G1 X142.066 Y113.815 E156.61154
G1 X141.058 Y115.553 E156.76025
G1 X139.815 Y117.109 E156.90766
G1 X138.738 Y118.138 E157.01791
G1 X137.547 Y119.06 E157.12939
G1 X136.257 Y119.828 E157.24051
G1 X134.898 Y120.46 E157.35144
G1 X132.987 Y121.051 E157.49949
G1 X131.08 Y121.337 E157.64222
G1 X130.092 Y121.373 E157.7154
G1 X129.961 Y121.389 E157.72516
G1 X76.601 Y121.389 E161.67465
G1 X76.601 Y116.839 E162.01142
G1 X108 Y116.839 E164.33544
G0 F7200 X108.038 Y116.931
G0 X116.619 Y108.274
G0 X122.329 Y100.317
G0 X122.399 Y100.387
G1 F3600 X122.399 Y105.763 E164.73335
G1 X122.399 Y105.764 E164.73342
G1 X122.399 Y106.122 E164.75992
G1 X122.094 Y105.933 E164.77487
G1 X121.939 Y105.836 E164.7884
G1 X121.033 Y105.642 E164.85698
G1 X120.288 Y105.749 E164.91269
G1 X119.837 Y105.948 E164.94917
G1 X119.405 Y106.261 E164.98866
G1 X118.968 Y106.827 E165.04159
G1 X118.692 Y107.512 E165.09625
G1 X118.671 Y108.268 E165.15222
G1 X118.955 Y109.14 E165.2201
G1 X119.442 Y109.759 E165.2784
G1 X120.284 Y110.242 E165.35025
G1 X121.241 Y110.34 E165.42145
G1 X121.957 Y110.135 E165.47657
G1 X122.094 Y110.049 E165.48855
G1 X122.399 Y109.859 E165.51514
G1 X122.399 Y110.218 E165.53009
G1 X122.399 Y110.219 E165.53017
G1 X122.399 Y115.591 E165.92778
G1 X137.601 Y115.591 E167.05297
G1 X137.601 Y110.221 E167.45043
G1 X137.601 Y110.035 E167.4642
G1 X137.601 Y109.918 E167.47286
G1 X137.74 Y110.035
G1 X137.914 Y110.098 E167.4829
G1 X138.453 Y110.293 E167.52532
G1 X139.379 Y110.296 E167.59386
G1 X140.109 Y110.028 E167.65142
G1 X140.687 Y109.54 E167.70741
G1 X141.147 Y108.745 E167.77539
G1 X141.278 Y107.981 E167.83277
G1 X141.148 Y107.237 E167.88867
G1 X140.687 Y106.439 E167.95688
G1 X140.09 Y105.942 E168.01438
G1 X139.38 Y105.687 E168.07021
G1 X138.463 Y105.686 E168.13809
G1 X137.911 Y105.885 E168.18152
G1 X137.731 Y105.95 E168.19568
G1 X137.601 Y106.067 E168.20863
G1 X137.601 Y105.95
G1 X137.601 Y105.758 E168.21893
G1 X137.601 Y100.387 E168.61647
G1 X122.399 Y100.387 E169.74165
G0 F7200 X122.799 Y100.787
;TYPE:WALL-OUTER
G1 F1800 X122.799 Y106.602 E170.17206
G1 X122.799 Y107.02 E170.20299
G1 X122.799 Y107.3 E170.22372
G1 X122.686 Y107.02
G1 X122.43 Y106.69 E170.24413
G1 X122.311 Y106.538 E170.25842
G1 X121.787 Y106.213 E170.30405
G1 X121.019 Y106.048 E170.3622
G1 X120.399 Y106.137 E170.40856
G1 X120.037 Y106.297 E170.43785
G1 X119.686 Y106.551 E170.46992
G1 X119.318 Y107.028 E170.51451
G1 X119.09 Y107.595 E170.55974
G1 X119.073 Y108.21 E170.60528
G1 X119.313 Y108.949 E170.66279
G1 X119.708 Y109.451 E170.71007
G1 X120.409 Y109.853 E170.76988
G1 X121.205 Y109.934 E170.8291
G1 X121.793 Y109.766 E170.87436
G1 X122.311 Y109.442 E170.91959
G1 X122.43 Y109.289 E170.93393
G1 X122.686 Y108.962 E170.96467
G1 X122.799 Y108.682 E170.98702
G1 X122.799 Y108.962
G1 X122.799 Y109.378 E171.00739
G1 X122.799 Y115.191 E171.43764
G1 X137.201 Y115.191 E172.50362
G1 X137.201 Y109.423 E172.93054
G1 X137.201 Y109.289 E172.94046
G1 X137.201 Y108.875 E172.9711
G1 X137.476 Y109.289 E172.98671
G1 X137.578 Y109.375 E172.99518
G1 X137.943 Y109.683 E173.03053
G1 X138.524 Y109.893 E173.07625
G1 X139.309 Y109.896 E173.13436
G1 X139.905 Y109.677 E173.18135
G1 X140.376 Y109.279 E173.227
G1 X140.765 Y108.607 E173.28447
G1 X140.872 Y107.982 E173.3314
G1 X140.766 Y107.376 E173.37693
G1 X140.376 Y106.701 E173.43463
G1 X139.888 Y106.295 E173.48162
G1 X139.31 Y106.087 E173.52709
G1 X138.533 Y106.086 E173.5846
G1 X137.94 Y106.3 E173.63126
G1 X137.557 Y106.644 E173.66936
G1 X137.342 Y106.838 E173.6908
G1 X137.201 Y107.128 E173.71466
G1 X137.201 Y106.838
G1 X137.201 Y106.548 E173.72979
G1 X137.201 Y100.787 E174.1562
G1 X122.799 Y100.787 E175.22217
G0 F7200 X122.799 Y100.987
G0 X122.299 Y100.987
G0 X116.619 Y108.274
G0 X108.015 Y116.875
G0 X107.834 Y116.939
G0 X107.834 Y116.439
G1 F1800 X116.195 Y108.08 E176.09725
G1 X116.358 Y105.917 E176.2578
G1 X116.542 Y104.941 E176.33131
G1 X116.977 Y103.453 E176.44605
G1 X117.557 Y102.026 E176.56006
G1 X118.048 Y101.095 E176.63797
G1 X119.161 Y99.461 E176.7843
G1 X119.809 Y98.707 E176.85789
G1 X119.889 Y98.6 E176.86778
G1 X121.375 Y97.219 E177.01793
G1 X122.649 Y96.323 E177.13321
G1 X124.012 Y95.558 E177.2489
G1 X125.443 Y94.975 E177.36327
G1 X126.93 Y94.536 E177.47802
G1 X127.947 Y94.344 E177.55463
G1 X129.482 Y94.211 E177.66867
G1 X131.03 Y94.229 E177.78325
G1 X132.59 Y94.446 E177.89983
G1 X134.019 Y94.79 E178.00862
G1 X135.046 Y95.147 E178.08909
G1 X136.44 Y95.796 E178.20291
G1 X137.772 Y96.587 E178.31757
G1 X138.997 Y97.539 E178.4324
G1 X140.116 Y98.606 E178.54684
G1 X141.401 Y100.218 E178.69942
G1 X141.968 Y101.126 E178.77866
G1 X142.438 Y102.011 E178.85282
G1 X143.005 Y103.404 E178.96414
G1 X143.45 Y104.909 E179.0803
G1 X143.648 Y105.949 E179.15866
G1 X143.757 Y106.935 E179.23209
G1 X143.78 Y108.486 E179.3469
G1 X143.65 Y110.018 E179.4607
G1 X143.323 Y111.546 E179.57635
G1 X142.854 Y113.01 E179.69014
G1 X142.425 Y113.994 E179.76959
G1 X141.388 Y115.782 E179.92258
G1 X140.116 Y117.374 E180.0734
G1 X138.997 Y118.443 E180.18795
G1 X137.772 Y119.392 E180.30264
G1 X136.44 Y120.184 E180.41734
G1 X135.046 Y120.833 E180.53115
G1 X133.073 Y121.443 E180.68401
G1 X131.118 Y121.736 E180.83032
G1 X130.124 Y121.772 E180.90394
G1 X129.985 Y121.789 E180.91431
G1 X76.201 Y121.789 E184.89517
G1 X76.201 Y116.439 E185.29116
G1 X107.834 Y116.439 E187.6325
G0 F7200 X107.975 Y116.298
G0 X108.327 Y116.652
G0 X108.162 Y117.229
;TYPE:SKIN
G1 F1800 X116.961 Y108.431 E188.55347
G1 X117.139 Y106.039 E188.73101
G1 X117.314 Y105.112 E188.80083
G1 X117.723 Y103.717 E188.90843
G1 X118.272 Y102.363 E189.01657
G1 X118.727 Y101.502 E189.08865
G1 X119.791 Y99.94 E189.22854
G1 X120.425 Y99.201 E189.30061
G1 X120.484 Y99.124 E189.30779
G1 X121.869 Y97.836 E189.44778
G1 X123.063 Y96.996 E189.55583
G1 X124.36 Y96.269 E189.66588
G1 X125.699 Y95.723 E189.77291
G1 X127.114 Y95.306 E189.8821
G1 X128.061 Y95.127 E189.95343
G1 X129.511 Y95.001 E190.06116
G1 X130.974 Y95.019 E190.16945
G1 X132.438 Y95.222 E190.27885
G1 X133.8 Y95.549 E190.38252
G1 X134.749 Y95.88 E190.45691
G1 X136.071 Y96.496 E190.56486
G1 X137.321 Y97.238 E190.67245
G1 X138.49 Y98.146 E190.78201
G1 X139.529 Y99.138 E190.88834
G1 X140.754 Y100.673 E191.0337
G1 X141.276 Y101.508 E191.10658
G1 X141.727 Y102.357 E191.17774
G1 X142.254 Y103.652 E191.28122
G1 X142.683 Y105.103 E191.39321
G1 X142.865 Y106.061 E191.46539
G1 X142.967 Y106.992 E191.53471
G1 X142.99 Y108.461 E191.64345
G1 X142.868 Y109.895 E191.74997
G1 X142.556 Y111.352 E191.86026
G1 X142.115 Y112.729 E191.96728
G1 X141.717 Y113.641 E192.04093
G1 X140.737 Y115.329 E192.1854
G1 X139.526 Y116.846 E192.32907
G1 X138.48 Y117.846 E192.43618
G1 X137.33 Y118.736 E192.54381
G1 X136.071 Y119.485 E192.65224
G1 X134.766 Y120.092 E192.75877
G1 X132.9 Y120.669 E192.90333
G1 X131.043 Y120.947 E193.04231
G1 X130.061 Y120.983 E193.11504
G1 X129.93 Y120.999 E193.12481
G1 X76.991 Y120.999 E197.04313
G1 X76.991 Y117.229 E197.32217
G1 X108.162 Y117.229 E199.62932
G0 F7200 X118.606 Y109.327
G1 F1800 X119.182 Y110.059 E199.69826
G1 X120.161 Y110.622 E199.78185
G1 X121.276 Y110.736 E199.86481
G1 X122.009 Y110.526 E199.92124
G1 X122.009 Y115.981 E200.325
G1 X137.991 Y115.981 E201.50792
G1 X137.991 Y110.541 E201.91056
G1 X138.384 Y110.683 E201.94149
G1 X139.447 Y110.686 E202.02017
G1 X140.308 Y110.371 E202.08803
G1 X140.991 Y109.794 E202.15421
G1 X141.52 Y108.88 E202.23237
G1 X141.674 Y107.981 E202.29988
G1 X141.52 Y107.102 E202.36593
G1 X140.99 Y106.184 E202.44439
G1 X140.287 Y105.599 E202.51208
G1 X139.448 Y105.297 E202.57808
G1 X138.395 Y105.296 E202.65602
G1 X137.991 Y105.442 E202.68782
G1 X137.991 Y99.997 E203.09083
G1 X122.009 Y99.997 E204.27375
G1 X122.009 Y105.452 E204.67751
G1 X121.047 Y105.246 E204.75033
G1 X120.179 Y105.371 E204.81523
G1 X119.642 Y105.608 E204.85868
G1 X119.13 Y105.978 E204.90544
G1 X118.627 Y106.632 E204.9665
G1 X118.304 Y107.432 E205.03036
G1 X118.279 Y108.325 E205.09648
G1 X118.606 Y109.327 E205.1745
G0 F7200 X118.653 Y107.504
G0 X118.934 Y106.808
G0 X122.371 Y100.359
G0 X138.17 Y100.269
G1 F1800 X142.28 Y104.379 E205.60471
G1 X142.35 Y104.449
G0 F7200 X142.513 Y105.178
G1 F1800 X138.17 Y100.834 E206.05936
G1 X138.1 Y100.764
G0 F7200 X138.17 Y101.4
G1 F1800 X142.647 Y105.877 E206.52798
G1 X142.717 Y105.947
G0 F7200 X142.735 Y106.531
G1 F1800 X138.17 Y101.966 E207.00582
G1 X138.1 Y101.896
G0 F7200 X138.17 Y102.531
G1 F1800 X142.788 Y107.15 E207.48926
G1 X142.858 Y107.22
G0 F7200 X142.798 Y107.725
G1 F1800 X138.17 Y103.097 E207.97369
G1 X138.1 Y103.027
G0 F7200 X138.17 Y103.663
G1 F1800 X139.705 Y105.198 E208.13437
G1 X139.775 Y105.268
G0 F7200 X139.057 Y105.116
G1 F1800 X138.17 Y104.228 E208.22726
G1 X138.1 Y104.158
G0 F7200 X138.17 Y104.794
G1 F1800 X138.491 Y105.116 E208.26092
G0 F7200 X139.947 Y105.828
G0 X141.72 Y107.213
G1 F1800 X142.807 Y108.3 E208.3747
G1 X142.877 Y108.37
G0 F7200 X142.777 Y108.836
G1 F1800 X141.84 Y107.899 E208.47278
G1 X141.77 Y107.829
G0 F7200 X141.781 Y108.406
G1 F1800 X142.733 Y109.357 E208.57237
G1 X142.803 Y109.427
G0 F7200 X142.687 Y109.877
G1 F1800 X141.699 Y108.889 E208.67579
G1 X141.629 Y108.819
G0 F7200 X141.506 Y109.262
G1 F1800 X142.587 Y110.343 E208.78894
G1 X142.657 Y110.413
G0 F7200 X142.487 Y110.809
G1 F1800 X141.299 Y109.62 E208.91335
G1 X141.229 Y109.55
G0 F7200 X141.073 Y109.96
G1 F1800 X142.387 Y111.275 E209.05094
G1 X142.457 Y111.345
G0 F7200 X142.253 Y111.706
G1 F1800 X140.767 Y110.22 E209.20649
G1 X140.697 Y110.15
G0 F7200 X140.46 Y110.479
G1 F1800 X142.116 Y112.135 E209.37983
G1 X142.186 Y112.205
G0 F7200 X141.979 Y112.563
G1 F1800 X140.067 Y110.651 E209.57997
G1 X139.997 Y110.581
G0 F7200 X139.652 Y110.802
G1 F1800 X141.815 Y112.965 E209.80638
G1 X141.885 Y113.035
G0 F7200 X141.644 Y113.359
G1 F1800 X139.149 Y110.865 E210.06749
G1 X139.079 Y110.795
G0 F7200 X138.582 Y110.863
G1 F1800 X141.454 Y113.736 E210.36816
G1 X141.524 Y113.806
G0 F7200 X141.246 Y114.093
G1 F1800 X138.17 Y111.017 E210.69014
G1 X138.1 Y110.947
G0 F7200 X138.17 Y111.582
G1 F1800 X141.038 Y114.451 E210.9904
G1 X141.108 Y114.521
G0 F7200 X140.83 Y114.809
G1 F1800 X138.17 Y112.148 E211.26888
G1 X138.1 Y112.078
G0 F7200 X138.17 Y112.714
G1 F1800 X140.623 Y115.167 E211.52565
G1 X140.693 Y115.237
G0 F7200 X140.379 Y115.488
G1 F1800 X138.17 Y113.279 E211.75687
G1 X138.1 Y113.209
G0 F7200 X138.17 Y113.845
G1 F1800 X140.128 Y115.803 E211.96183
G1 X140.198 Y115.873
G0 F7200 X139.877 Y116.118
G1 F1800 X138.17 Y114.411 E212.14051
G1 X138.1 Y114.341
G0 F7200 X138.17 Y114.976
G1 F1800 X139.626 Y116.432 E212.29291
G1 X139.696 Y116.502
G0 F7200 X139.371 Y116.744
G1 F1800 X138.17 Y115.542 E212.41868
G1 X138.1 Y115.472
G0 F7200 X138.17 Y116.108
G1 F1800 X139.082 Y117.02 E212.51414
G1 X139.152 Y117.09
G0 F7200 X138.792 Y117.296
G1 F1800 X137.657 Y116.161 E212.63294
G1 X137.587 Y116.091
G0 F7200 X137.091 Y116.161
G1 F1800 X138.503 Y117.572 E212.78069
G1 X138.573 Y117.642
G0 F7200 X138.199 Y117.834
G1 F1800 X136.526 Y116.161 E212.95581
G1 X136.456 Y116.091
G0 F7200 X135.96 Y116.161
G1 F1800 X137.88 Y118.081 E213.15679
G1 X137.95 Y118.151
G0 F7200 X137.561 Y118.327
G1 F1800 X135.394 Y116.161 E213.38356
G1 X135.324 Y116.091
G0 F7200 X134.828 Y116.161
G1 F1800 X137.243 Y118.575 E213.6363
G1 X137.313 Y118.645
G0 F7200 X136.889 Y118.787
G1 F1800 X134.263 Y116.161 E213.91117
G1 X134.193 Y116.091
G0 F7200 X133.697 Y116.161
G1 F1800 X136.535 Y118.999 E214.20824
G1 X136.605 Y119.069
G0 F7200 X136.18 Y119.209
G1 F1800 X133.131 Y116.161 E214.52734
G1 X133.061 Y116.091
G0 F7200 X132.566 Y116.161
G1 F1800 X135.811 Y119.407 E214.86706
G1 X135.881 Y119.477
G0 F7200 X135.425 Y119.586
G1 F1800 X132 Y116.161 E215.22557
G1 X131.93 Y116.091
G0 F7200 X131.434 Y116.161
G1 F1800 X135.039 Y119.766 E215.60292
G1 X135.109 Y119.836
G0 F7200 X134.647 Y119.94
G1 F1800 X130.869 Y116.161 E215.99843
G1 X130.799 Y116.091
G0 F7200 X130.303 Y116.161
G1 F1800 X134.215 Y120.073 E216.40791
G1 X134.285 Y120.143
G0 F7200 X133.783 Y120.207
G1 F1800 X129.737 Y116.161 E216.83142
G1 X129.667 Y116.091
G0 F7200 X129.172 Y116.161
G1 F1800 X133.351 Y120.341 E217.26891
G1 X133.421 Y120.411
G0 F7200 X132.919 Y120.474
G1 F1800 X128.606 Y116.161 E217.72037
G1 X128.536 Y116.091
G0 F7200 X128.04 Y116.161
G1 F1800 X132.435 Y120.556 E218.18041
G1 X132.505 Y120.626
G0 F7200 X131.943 Y120.629
G1 F1800 X127.475 Y116.161 E218.64809
G1 X127.405 Y116.091
G0 F7200 X126.909 Y116.161
G1 F1800 X131.451 Y120.703 E219.12352
G1 X131.521 Y120.773
G0 F7200 X130.951 Y120.768
G1 F1800 X126.343 Y116.161 E219.60581
G1 X126.273 Y116.091
G0 F7200 X125.778 Y116.161
G1 F1800 X130.406 Y120.789 E220.09024
G1 X130.476 Y120.859
G0 F7200 X129.869 Y120.818
G1 F1800 X125.212 Y116.161 E220.57771
G1 X125.142 Y116.091
G0 F7200 X124.646 Y116.161
G1 F1800 X129.303 Y120.818 E221.06518
G1 X129.373 Y120.888
G0 F7200 X128.737 Y120.818
G1 F1800 X124.08 Y116.161 E221.55264
G1 X124.01 Y116.091
G0 F7200 X123.515 Y116.161
G1 F1800 X128.172 Y120.818 E222.04011
G1 X128.242 Y120.888
G0 F7200 X127.606 Y120.818
G1 F1800 X122.949 Y116.161 E222.52758
G1 X122.879 Y116.091
G0 F7200 X122.383 Y116.161
G1 F1800 X127.04 Y120.818 E223.01505
G1 X127.11 Y120.888
G0 F7200 X126.475 Y120.818
G1 F1800 X115.651 Y109.994 E224.14804
G1 X115.581 Y109.924
G0 F7200 X115.934 Y109.711
G1 F1800 X121.828 Y115.606 E224.76504
G1 X121.898 Y115.676
G0 F7200 X121.828 Y115.04
G1 F1800 X116.217 Y109.429 E225.35237
G1 X116.147 Y109.359
G0 F7200 X116.5 Y109.146
G1 F1800 X121.828 Y114.474 E225.91007
G1 X121.898 Y114.544
G0 F7200 X121.828 Y113.909
G1 F1800 X116.782 Y108.863 E226.43826
G1 X116.712 Y108.793
G0 F7200 X117.065 Y108.58
G1 F1800 X121.828 Y113.343 E226.93682
G1 X121.898 Y113.413
G0 F7200 X121.828 Y112.777
G1 F1800 X119.502 Y110.451 E227.18029
G1 X119.432 Y110.381
G0 F7200 X120.449 Y110.832
G1 F1800 X121.828 Y112.212 E227.32469
G1 X121.898 Y112.282
G0 F7200 X121.828 Y111.646
G1 F1800 X121.08 Y110.897 E227.40304
G1 X121.01 Y110.827
G0 F7200 X121.583 Y110.835
G1 F1800 X121.828 Y111.08 E227.42868
G0 F7200 X118.434 Y109.383
G1 F1800 X117.164 Y108.113 E227.56162
G1 X117.094 Y108.043
G0 F7200 X117.202 Y107.586
G1 F1800 X118.161 Y108.544 E227.66195
G1 X118.231 Y108.614
G0 F7200 X118.109 Y107.927
G1 F1800 X117.241 Y107.059 E227.75281
G1 X117.171 Y106.989
G0 F7200 X117.28 Y106.532
G1 F1800 X118.129 Y107.381 E227.84167
G1 X118.199 Y107.451
G0 F7200 X118.292 Y106.978
G1 F1800 X117.325 Y106.012 E227.94284
G1 X117.255 Y105.942
G0 F7200 X117.416 Y105.537
G1 F1800 X118.455 Y106.575 E228.05155
G1 X118.525 Y106.645
G0 F7200 X118.694 Y106.249
G1 F1800 X117.514 Y105.068 E228.17511
G1 X117.444 Y104.998
G0 F7200 X117.641 Y104.63
G1 F1800 X118.939 Y105.928 E228.31098
G1 X119.009 Y105.998
G0 F7200 X119.246 Y105.67
G1 F1800 X117.769 Y104.192 E228.46564
G1 X117.699 Y104.122
G0 F7200 X117.898 Y103.756
G1 F1800 X119.58 Y105.438 E228.6417
G1 X119.65 Y105.508
G0 F7200 X119.971 Y105.264
G1 F1800 X118.062 Y103.354 E228.84157
G1 X117.992 Y103.284
G0 F7200 X118.225 Y102.951
G1 F1800 X120.426 Y105.153 E229.07201
G1 X120.496 Y105.223
G0 F7200 X120.921 Y105.082
G1 F1800 X118.388 Y102.549 E229.33715
G1 X118.318 Y102.479
G0 F7200 X118.575 Y102.17
G1 F1800 X121.581 Y105.176 E229.6518
G1 X121.651 Y105.246
G0 F7200 X121.828 Y104.857
G1 F1800 X118.771 Y101.8 E229.97179
G1 X118.701 Y101.73
G0 F7200 X118.982 Y101.445
G1 F1800 X121.828 Y104.291 E230.2697
G1 X121.898 Y104.361
G0 F7200 X121.828 Y103.726
G1 F1800 X119.211 Y101.109 E230.54363
G1 X119.141 Y101.039
G0 F7200 X119.44 Y100.772
G1 F1800 X121.828 Y103.16 E230.79359
G1 X121.898 Y103.23
G0 F7200 X121.828 Y102.594
G1 F1800 X119.67 Y100.436 E231.01948
G1 X119.6 Y100.366
G0 F7200 X119.899 Y100.1
G1 F1800 X121.828 Y102.029 E231.22139
G1 X121.898 Y102.099
G0 F7200 X121.828 Y101.463
G1 F1800 X120.155 Y99.79 E231.39651
G1 X120.085 Y99.72
G0 F7200 X120.416 Y99.485
G1 F1800 X121.828 Y100.897 E231.54431
G1 X121.898 Y100.967
G0 F7200 X121.828 Y100.332
G1 F1800 X120.681 Y99.185 E231.66437
G1 X120.611 Y99.115
G0 F7200 X120.974 Y98.912
G1 F1800 X121.878 Y99.816 E231.759
G1 X121.948 Y99.886
G0 F7200 X122.444 Y99.816
G1 F1800 X121.267 Y98.639 E231.8822
G1 X121.197 Y98.569
G0 F7200 X121.56 Y98.367
G1 F1800 X123.009 Y99.816 E232.03387
G1 X123.079 Y99.886
G0 F7200 X123.575 Y99.816
G1 F1800 X121.853 Y98.094 E232.21412
G1 X121.783 Y98.024
G0 F7200 X122.169 Y97.845
G1 F1800 X124.141 Y99.816 E232.42049
G1 X124.211 Y99.886
G0 F7200 X124.706 Y99.816
G1 F1800 X122.501 Y97.611 E232.65129
G1 X122.431 Y97.541
G0 F7200 X122.832 Y97.377
G1 F1800 X125.272 Y99.816 E232.90665
G1 X125.342 Y99.886
G0 F7200 X125.838 Y99.816
G1 F1800 X123.165 Y97.143 E233.18644
G1 X123.095 Y97.073
G0 F7200 X123.528 Y96.94
G1 F1800 X126.403 Y99.816 E233.48743
G1 X126.473 Y99.886
G0 F7200 X126.969 Y99.816
G1 F1800 X123.89 Y96.737 E233.80972
G1 X123.82 Y96.667
G0 F7200 X124.253 Y96.534
G1 F1800 X127.535 Y99.816 E234.15326
G1 X127.605 Y99.886
G0 F7200 X128.1 Y99.816
G1 F1800 X124.635 Y96.351 E234.51596
G1 X124.565 Y96.281
G0 F7200 X125.037 Y96.187
G1 F1800 X128.666 Y99.816 E234.89582
G1 X128.736 Y99.886
G0 F7200 X129.232 Y99.816
G1 F1800 X125.439 Y96.023 E235.29285
G1 X125.369 Y95.953
G0 F7200 X125.848 Y95.867
G1 F1800 X129.797 Y99.816 E235.70621
G1 X129.867 Y99.886
G0 F7200 X130.363 Y99.816
G1 F1800 X126.285 Y95.738 E236.13307
G1 X126.215 Y95.668
G0 F7200 X126.722 Y95.609
G1 F1800 X130.929 Y99.816 E236.57343
G1 X130.999 Y99.886
G0 F7200 X131.494 Y99.816
G1 F1800 X127.159 Y95.481 E237.02719
G1 X127.089 Y95.411
G0 F7200 X127.634 Y95.39
G1 F1800 X132.06 Y99.816 E237.49048
G1 X132.13 Y99.886
G0 F7200 X132.626 Y99.816
G1 F1800 X128.112 Y95.302 E237.96298
G1 X128.042 Y95.232
G0 F7200 X128.633 Y95.257
G1 F1800 X133.192 Y99.816 E238.44019
G1 X133.262 Y99.886
G0 F7200 X133.757 Y99.816
G1 F1800 X129.153 Y95.212 E238.92211
G1 X129.083 Y95.142
G0 F7200 X129.69 Y95.183
G1 F1800 X134.323 Y99.816 E239.40706
G1 X134.393 Y99.886
G0 F7200 X134.889 Y99.816
G1 F1800 X130.263 Y95.19 E239.89129
G1 X130.193 Y95.12
G0 F7200 X130.835 Y95.197
G1 F1800 X135.454 Y99.816 E240.37478
G1 X135.524 Y99.886
G0 F7200 X136.02 Y99.816
G1 F1800 X131.473 Y95.269 E240.85073
G1 X131.403 Y95.199
G0 F7200 X132.13 Y95.361
G1 F1800 X136.586 Y99.816 E241.31711
G1 X136.656 Y99.886
G0 F7200 X137.151 Y99.816
G1 F1800 X132.838 Y95.503 E241.76857
G1 X132.768 Y95.433
G0 F7200 X133.582 Y95.681
G1 F1800 X137.717 Y99.816 E242.20139
G1 X137.787 Y99.886
G0 F7200 X136.644 Y97.046
G1 F1800 X140.991 Y101.393 E242.65641
G1 X141.061 Y101.463
G0 F7200 X141.63 Y102.598
G1 F1800 X135.426 Y96.394 E243.30581
G1 X135.356 Y96.324
G0 F7200 X134.424 Y95.957
G1 F1800 X142.02 Y103.553 E244.10091
G1 X142.09 Y103.623
G0 F7200 X141.184 Y108.758
G0 X137.629 Y115.619
G0 X125.909 Y120.818
G1 F1800 X115.368 Y110.277 E245.20428
G1 X115.298 Y110.207
G0 F7200 X115.085 Y110.56
G1 F1800 X125.343 Y120.818 E246.27803
G1 X125.413 Y120.888
G0 F7200 X124.778 Y120.818
G1 F1800 X114.803 Y110.843 E247.32216
G1 X114.733 Y110.773
G0 F7200 X114.52 Y111.126
G1 F1800 X124.212 Y120.818 E248.33666
G1 X124.282 Y120.888
G0 F7200 X123.646 Y120.818
G1 F1800 X114.237 Y111.408 E249.32159
G1 X114.167 Y111.338
G0 F7200 X113.954 Y111.691
G1 F1800 X123.081 Y120.818 E250.27695
G1 X123.151 Y120.888
G0 F7200 X122.515 Y120.818
G1 F1800 X113.671 Y111.974 E251.20269
G1 X113.601 Y111.904
G0 F7200 X113.388 Y112.257
G1 F1800 X121.949 Y120.818 E252.0988
G1 X122.019 Y120.888
G0 F7200 X121.384 Y120.818
G1 F1800 X113.105 Y112.54 E252.96535
G1 X113.035 Y112.47
G0 F7200 X112.823 Y112.823
G1 F1800 X120.818 Y120.818 E253.80222
G1 X120.888 Y120.888
G0 F7200 X120.252 Y120.818
G1 F1800 X112.54 Y113.105 E254.60951
G1 X112.47 Y113.035
G0 F7200 X112.257 Y113.388
G1 F1800 X119.687 Y120.818 E255.38724
G1 X119.757 Y120.888
G0 F7200 X119.121 Y120.818
G1 F1800 X111.974 Y113.671 E256.13535
G1 X111.904 Y113.601
G0 F7200 X111.691 Y113.954
G1 F1800 X118.555 Y120.818 E256.85383
G1 X118.625 Y120.888
G0 F7200 X117.989 Y120.818
G1 F1800 X111.408 Y114.237 E257.54269
G1 X111.338 Y114.167
G0 F7200 X111.126 Y114.52
G1 F1800 X117.424 Y120.818 E258.20193
G1 X117.494 Y120.888
G0 F7200 X116.858 Y120.818
G1 F1800 X110.843 Y114.803 E258.83154
G1 X110.773 Y114.733
G0 F7200 X110.56 Y115.085
G1 F1800 X116.292 Y120.818 E259.43159
G1 X116.362 Y120.888
G0 F7200 X115.727 Y120.818
G1 F1800 X110.277 Y115.368 E260.00206
G1 X110.207 Y115.298
G0 F7200 X109.994 Y115.651
G1 F1800 X115.161 Y120.818 E260.54291
G1 X115.231 Y120.888
G0 F7200 X114.595 Y120.818
G1 F1800 X109.711 Y115.934 E261.05414
G1 X109.641 Y115.864
G0 F7200 X109.429 Y116.217
G1 F1800 X114.03 Y120.818 E261.53575
G1 X114.1 Y120.888
G0 F7200 X113.464 Y120.818
G1 F1800 X109.146 Y116.5 E261.98773
G1 X109.076 Y116.43
G0 F7200 X108.863 Y116.782
G1 F1800 X112.898 Y120.818 E262.41014
G1 X112.968 Y120.888
G0 F7200 X112.333 Y120.818
G1 F1800 X108.58 Y117.065 E262.80299
G1 X108.51 Y116.995
G0 F7200 X108.297 Y117.348
G1 F1800 X111.767 Y120.818 E263.1662
G1 X111.837 Y120.888
G0 F7200 X111.201 Y120.818
G1 F1800 X107.791 Y117.408 E263.52314
G1 X107.721 Y117.338
G0 F7200 X107.225 Y117.408
G1 F1800 X110.636 Y120.818 E263.88013
G1 X110.706 Y120.888
G0 F7200 X110.07 Y120.818
G1 F1800 X106.659 Y117.408 E264.23713
G1 X106.589 Y117.338
G0 F7200 X106.094 Y117.408
G1 F1800 X109.504 Y120.818 E264.59406
G1 X109.574 Y120.888
G0 F7200 X108.938 Y120.818
G1 F1800 X105.528 Y117.408 E264.951
G1 X105.458 Y117.338
G0 F7200 X104.962 Y117.408
G1 F1800 X108.373 Y120.818 E265.30799
G1 X108.443 Y120.888
G0 F7200 X107.807 Y120.818
G1 F1800 X104.397 Y117.408 E265.66493
G1 X104.327 Y117.338
G0 F7200 X103.831 Y117.408
G1 F1800 X107.241 Y120.818 E266.02187
G1 X107.311 Y120.888
G0 F7200 X106.676 Y120.818
G1 F1800 X103.265 Y117.408 E266.37886
G1 X103.195 Y117.338
G0 F7200 X102.7 Y117.408
G1 F1800 X106.11 Y120.818 E266.7358
G1 X106.18 Y120.888
G0 F7200 X105.544 Y120.818
G1 F1800 X102.134 Y117.408 E267.09274
G1 X102.064 Y117.338
G0 F7200 X101.568 Y117.408
G1 F1800 X104.979 Y120.818 E267.44973
G1 X105.049 Y120.888
G0 F7200 X104.413 Y120.818
G1 F1800 X101.003 Y117.408 E267.80667
G1 X100.933 Y117.338
G0 F7200 X100.437 Y117.408
G1 F1800 X103.847 Y120.818 E268.16361
G1 X103.917 Y120.888
G0 F7200 X103.282 Y120.818
G1 F1800 X99.871 Y117.408 E268.5206
G1 X99.801 Y117.338
G0 F7200 X99.306 Y117.408
G1 F1800 X102.716 Y120.818 E268.87754
G1 X102.786 Y120.888
G0 F7200 X102.15 Y120.818
G1 F1800 X98.74 Y117.408 E269.23448
G1 X98.67 Y117.338
G0 F7200 X98.174 Y117.408
G1 F1800 X101.585 Y120.818 E269.59147
G1 X101.655 Y120.888
G0 F7200 X101.019 Y120.818
G1 F1800 X97.609 Y117.408 E269.94841
G1 X97.539 Y117.338
G0 F7200 X97.043 Y117.408
G1 F1800 X100.453 Y120.818 E270.30535
G1 X100.523 Y120.888
G0 F7200 X99.888 Y120.818
G1 F1800 X96.477 Y117.408 E270.66234
G1 X96.407 Y117.338
G0 F7200 X95.911 Y117.408
G1 F1800 X99.322 Y120.818 E271.01933
G1 X99.392 Y120.888
G0 F7200 X98.756 Y120.818
G1 F1800 X95.346 Y117.408 E271.37627
G1 X95.276 Y117.338
G0 F7200 X94.78 Y117.408
G1 F1800 X98.19 Y120.818 E271.7332
G1 X98.26 Y120.888
G0 F7200 X97.625 Y120.818
G1 F1800 X94.214 Y117.408 E272.0902
G1 X94.144 Y117.338
G0 F7200 X93.649 Y117.408
G1 F1800 X97.059 Y120.818 E272.44713
G1 X97.129 Y120.888
G0 F7200 X96.493 Y120.818
G1 F1800 X93.083 Y117.408 E272.80407
G1 X93.013 Y117.338
G0 F7200 X92.517 Y117.408
G1 F1800 X95.928 Y120.818 E273.16106
G1 X95.998 Y120.888
G0 F7200 X95.362 Y120.818
G1 F1800 X91.952 Y117.408 E273.518
G1 X91.882 Y117.338
G0 F7200 X91.386 Y117.408
G1 F1800 X94.796 Y120.818 E273.87494
G1 X94.866 Y120.888
G0 F7200 X94.231 Y120.818
G1 F1800 X90.82 Y117.408 E274.23193
G1 X90.75 Y117.338
G0 F7200 X90.255 Y117.408
G1 F1800 X93.665 Y120.818 E274.58887
G1 X93.735 Y120.888
G0 F7200 X93.099 Y120.818
G1 F1800 X89.689 Y117.408 E274.94581
G1 X89.619 Y117.338
G0 F7200 X89.123 Y117.408
G1 F1800 X92.534 Y120.818 E275.3028
G1 X92.604 Y120.888
G0 F7200 X91.968 Y120.818
G1 F1800 X88.558 Y117.408 E275.65974
G1 X88.488 Y117.338
G0 F7200 X87.992 Y117.408
G1 F1800 X91.402 Y120.818 E276.01668
G1 X91.472 Y120.888
G0 F7200 X90.837 Y120.818
G1 F1800 X87.426 Y117.408 E276.37367
G1 X87.356 Y117.338
G0 F7200 X86.86 Y117.408
G1 F1800 X90.271 Y120.818 E276.73066
G1 X90.341 Y120.888
G0 F7200 X89.705 Y120.818
G1 F1800 X86.295 Y117.408 E277.0876
G1 X86.225 Y117.338
G0 F7200 X85.729 Y117.408
G1 F1800 X89.14 Y120.818 E277.44459
G1 X89.21 Y120.888
G0 F7200 X88.574 Y120.818
G1 F1800 X85.163 Y117.408 E277.80158
G1 X85.093 Y117.338
G0 F7200 X84.598 Y117.408
G1 F1800 X88.008 Y120.818 E278.15852
G1 X88.078 Y120.888
G0 F7200 X87.442 Y120.818
G1 F1800 X84.032 Y117.408 E278.51546
G1 X83.962 Y117.338
G0 F7200 X83.466 Y117.408
G1 F1800 X86.877 Y120.818 E278.87245
G1 X86.947 Y120.888
G0 F7200 X86.311 Y120.818
G1 F1800 X82.901 Y117.408 E279.22939
G1 X82.831 Y117.338
G0 F7200 X82.335 Y117.408
G1 F1800 X85.745 Y120.818 E279.58633
G1 X85.815 Y120.888
G0 F7200 X85.18 Y120.818
G1 F1800 X81.769 Y117.408 E279.94332
G1 X81.699 Y117.338
G0 F7200 X81.204 Y117.408
G1 F1800 X84.614 Y120.818 E280.30026
G1 X84.684 Y120.888
G0 F7200 X84.048 Y120.818
G1 F1800 X80.638 Y117.408 E280.6572
G1 X80.568 Y117.338
G0 F7200 X80.072 Y117.408
G1 F1800 X83.483 Y120.818 E281.01419
G1 X83.553 Y120.888
G0 F7200 X82.917 Y120.818
G1 F1800 X79.507 Y117.408 E281.37113
G1 X79.437 Y117.338
G0 F7200 X78.941 Y117.408
G1 F1800 X82.351 Y120.818 E281.72806
G1 X82.421 Y120.888
G0 F7200 X81.786 Y120.818
G1 F1800 X78.375 Y117.408 E282.08506
G1 X78.305 Y117.338
G0 F7200 X77.81 Y117.408
G1 F1800 X81.22 Y120.818 E282.44199
G1 X81.29 Y120.888
G0 F7200 X80.654 Y120.818
G1 F1800 X77.244 Y117.408 E282.79893
G1 X77.174 Y117.338
G0 F7200 X77.17 Y117.9
G1 F1800 X80.089 Y120.818 E283.10442
G1 X80.159 Y120.888
G0 F7200 X79.523 Y120.818
G1 F1800 X77.17 Y118.465 E283.35072
G1 X77.1 Y118.395
G0 F7200 X77.17 Y119.031
G1 F1800 X78.957 Y120.818 E283.53778
G1 X79.027 Y120.888
G0 F7200 X78.391 Y120.818
G1 F1800 X77.17 Y119.597 E283.66558
G1 X77.1 Y119.527
G0 F7200 X77.17 Y120.162
G1 F1800 X77.826 Y120.818 E283.73425
G1 X77.896 Y120.888
G0 F7200 X77.26 Y120.818
G1 F1800 X77.17 Y120.728 E283.74367
G1 F1500 E277.24367
G0 F7200 X76.615 Y121.375
G0 X76.615 Y122.654
G0 X76.001 Y124.189
;TIME_ELAPSED:146.235460
;LAYER:3
G0 X76.001 Y124.189 Z1.4
;TYPE:SUPPORT
G1 F1500 E283.74367
G1 F3600 X76.001 Y125.873 E283.86831
G1 X76.117 Y125.989 E283.88045
G1 X77.314 Y125.989 E283.96905
G1 X79.98 Y125.989 E284.16638
G1 X79.98 Y124.189 E284.29961
G1 X82.646 Y124.189 E284.49693
G1 X84.001 Y124.189 E284.59722
G1 X84.001 Y125.873 E284.72187
G1 X83.885 Y125.989 E284.73401
G1 X82.646 Y125.989 E284.82571
G1 X82.646 Y124.189 E284.95894
G0 F7200 X77.314 Y125.989
G1 F3600 X77.314 Y124.189 E285.09217
G1 X76.001 Y124.189 E285.18935
G0 F7200 X108.001 Y124.189
G1 F3600 X108.001 Y125.873 E285.314
G1 X108.117 Y125.989 E285.32614
G1 X109.306 Y125.989 E285.41414
G1 X111.972 Y125.989 E285.61147
G1 X111.972 Y124.189 E285.7447
G1 X114.638 Y124.189 E285.94202
G1 X116.001 Y124.189 E286.04291
G1 X116.001 Y125.873 E286.16755
G1 X115.885 Y125.989 E286.17969
G1 X114.638 Y125.989 E286.27199
G1 X114.638 Y124.189 E286.40522
G0 F7200 X109.306 Y125.989
G1 F3600 X109.306 Y124.189 E286.53845
G1 X108.001 Y124.189 E286.63504
G1 F1500 E280.13504
G0 F7200 X108.001 Y122.654
G0 X108.001 Y121.369
G0 X108.195 Y121.229
;TYPE:FILL
G1 F1500 E286.63504
G1 F3600 X119.463 Y109.961 E287.8145
G1 X119.533 Y109.891
G0 F7200 X119.52 Y109.92
G0 X118.689 Y108.849
G1 F3600 X106.31 Y121.229 E289.11032
G1 X106.24 Y121.299
G0 F7200 X106.24 Y121.289
G0 X104.425 Y121.229
G1 F3600 X118.769 Y106.884 E290.61182
G1 X118.839 Y106.814
G0 F7200 X119.919 Y105.735
G1 F3600 X122.238 Y103.416 E290.85455
G1 X122.308 Y103.346
G0 F7200 X122.299 Y103.346
G0 X122.238 Y101.531
G1 F3600 X116.844 Y106.925 E291.41917
G1 X116.774 Y106.995
G0 F7200 X116.778 Y106.995
G0 X117.2 Y104.683
G1 F3600 X126.694 Y95.19 E292.41289
G1 X126.764 Y95.12
G0 F7200 X128.95 Y94.818
G1 F3600 X123.542 Y100.227 E292.97902
G1 X123.472 Y100.297
G0 F7200 X123.472 Y100.287
G0 X125.427 Y100.227
G1 F3600 X130.867 Y94.786 E293.5485
G1 X130.937 Y94.716
G0 F7200 X130.937 Y94.728
G0 X132.53 Y95.008
G1 F3600 X127.312 Y100.227 E294.09474
G1 X127.242 Y100.297
G0 F7200 X127.242 Y100.287
G0 X129.197 Y100.227
G1 F3600 X134.034 Y95.39 E294.60105
G1 X134.104 Y95.32
G0 F7200 X134.095 Y95.346
G0 X135.386 Y95.923
G1 F3600 X131.082 Y100.227 E295.05157
G1 X131.012 Y100.297
G0 F7200 X131.012 Y100.287
G0 X132.967 Y100.227
G1 F3600 X136.633 Y96.561 E295.4353
G1 X136.703 Y96.491
G0 F7200 X136.684 Y96.522
G0 X137.779 Y97.301
G1 F3600 X134.853 Y100.227 E295.74158
G1 X134.783 Y100.297
G0 F7200 X134.783 Y100.287
G0 X136.738 Y100.227
G1 F3600 X138.82 Y98.145 E295.95951
G1 X138.89 Y98.075
G0 F7200 X138.863 Y98.102
G0 X139.774 Y99.076
G1 F3600 X137.76 Y101.09 E296.17032
G1 X137.69 Y101.16
G0 F7200 X137.701 Y101.16
G0 X137.76 Y102.975
G1 F3600 X140.611 Y100.124 E296.46875
G1 X140.681 Y100.054
G0 F7200 X140.65 Y100.078
G0 X141.378 Y101.242
G1 F3600 X137.76 Y104.86 E296.84746
G1 X137.69 Y104.93
G0 F7200 X137.701 Y104.93
G0 X138.98 Y105.525
G1 F3600 X142.024 Y102.481 E297.16609
G1 X142.094 Y102.411
G0 F7200 X142.066 Y102.42
G0 X142.549 Y103.842
G1 F3600 X140.398 Y105.993 E297.39124
G1 X140.328 Y106.063
G0 F7200 X140.353 Y106.034
G0 X141.225 Y107.051
G1 F3600 X142.956 Y105.32 E297.57243
G1 X143.026 Y105.25
G0 F7200 X143.005 Y105.252
G0 X143.195 Y106.966
G1 F3600 X141.216 Y108.945 E297.77958
G1 X141.146 Y109.015
G0 F7200 X140.802 Y109.457
G0 X139.882 Y110.278
G1 F3600 X137.76 Y112.4 E298.0017
G1 X137.69 Y112.47
G0 F7200 X137.701 Y112.47
G0 X137.76 Y110.515
G1 F3600 X137.983 Y110.293 E298.02499
G0 F7200 X137.76 Y114.286
G1 F3600 X143.183 Y108.863 E298.59264
G1 X143.253 Y108.793
G0 F7200 X143.252 Y108.792
G0 X142.851 Y111.08
G1 F3600 X133.074 Y120.857 E299.61604
G1 X133.004 Y120.927
G0 F7200 X130.867 Y121.179
G1 F3600 X136.295 Y115.751 E300.18421
G1 X136.365 Y115.681
G0 F7200 X136.365 Y115.691
G0 X134.41 Y115.751
G1 F3600 X128.932 Y121.229 E300.75762
G1 X128.862 Y121.299
G0 F7200 X128.862 Y121.289
G0 X127.047 Y121.229
G1 F3600 X132.525 Y115.751 E301.33102
G1 X132.595 Y115.681
G0 F7200 X132.595 Y115.691
G0 X130.64 Y115.751
G1 F3600 X125.162 Y121.229 E301.90442
G1 X125.092 Y121.299
G0 F7200 X125.092 Y121.289
G0 X123.276 Y121.229
G1 F3600 X128.754 Y115.751 E302.47783
G1 X128.824 Y115.681
G0 F7200 X128.824 Y115.691
G0 X126.869 Y115.751
G1 F3600 X121.391 Y121.229 E303.05123
G1 X121.321 Y121.299
G0 F7200 X121.321 Y121.289
G0 X119.506 Y121.229
G1 F3600 X124.984 Y115.751 E303.62464
G1 X125.054 Y115.681
G0 F7200 X125.054 Y115.691
G0 X123.099 Y115.751
G1 F3600 X117.621 Y121.229 E304.19804
G1 X117.551 Y121.299
G0 F7200 X117.551 Y121.289
G0 X115.736 Y121.229
G1 F3600 X122.238 Y114.727 E304.87864
G1 X122.308 Y114.657
G0 F7200 X122.299 Y114.657
G0 X122.238 Y112.842
G1 F3600 X113.851 Y121.229 E305.75654
G1 X113.781 Y121.299
G0 F7200 X113.781 Y121.289
G0 X111.966 Y121.229
G1 F3600 X122.238 Y110.957 E306.83175
G1 X122.308 Y110.887
G0 F7200 X122.299 Y110.887
G0 X120.85 Y110.459
G1 F3600 X110.08 Y121.229 E307.95909
G1 X110.01 Y121.299
G0 F7200 X110.01 Y121.289
G0 X106.771 Y116.998
G1 F3600 X102.54 Y121.229 E308.40197
G1 X102.47 Y121.299
G0 F7200 X102.47 Y121.289
G0 X100.655 Y121.229
G1 F3600 X104.885 Y116.998 E308.84479
G1 X104.955 Y116.928
G0 F7200 X104.955 Y116.939
G0 X103 Y116.998
G1 F3600 X98.77 Y121.229 E309.28761
G1 X98.7 Y121.299
G0 F7200 X98.7 Y121.289
G0 X96.884 Y121.229
G1 F3600 X101.115 Y116.998 E309.73049
G1 X101.185 Y116.928
G0 F7200 X101.185 Y116.939
G0 X99.23 Y116.998
G1 F3600 X94.999 Y121.229 E310.17337
G1 X94.929 Y121.299
G0 F7200 X94.929 Y121.289
G0 X93.114 Y121.229
G1 F3600 X97.345 Y116.998 E310.61624
G1 X97.415 Y116.928
G0 F7200 X97.415 Y116.939
G0 X95.46 Y116.998
G1 F3600 X91.229 Y121.229 E311.05912
G1 X91.159 Y121.299
G0 F7200 X91.159 Y121.289
G0 X89.344 Y121.229
G1 F3600 X93.574 Y116.998 E311.50194
G1 X93.644 Y116.928
G0 F7200 X93.644 Y116.939
G0 X91.689 Y116.998
G1 F3600 X87.459 Y121.229 E311.94477
G1 X87.389 Y121.299
G0 F7200 X87.389 Y121.289
G0 X85.574 Y121.229
G1 F3600 X89.804 Y116.998 E312.38759
G1 X89.874 Y116.928
G0 F7200 X89.874 Y116.939
G0 X87.919 Y116.998
G1 F3600 X83.688 Y121.229 E312.83047
G1 X83.618 Y121.299
G0 F7200 X83.618 Y121.289
G0 X81.803 Y121.229
G1 F3600 X86.034 Y116.998 E313.27334
G1 X86.104 Y116.928
G0 F7200 X86.104 Y116.939
G0 X84.149 Y116.998
G1 F3600 X79.918 Y121.229 E313.71622
G1 X79.848 Y121.299
G0 F7200 X79.848 Y121.289
G0 X78.033 Y121.229
G1 F3600 X82.264 Y116.998 E314.15909
G1 X82.334 Y116.928
G0 F7200 X82.334 Y116.939
G0 X80.378 Y116.998
G1 F3600 X76.761 Y120.616 E314.53775
G1 X76.691 Y120.686
G0 F7200 X76.701 Y120.686
G0 X76.761 Y118.731
G1 F3600 X78.493 Y116.998 E314.7191
G1 X78.563 Y116.928
G0 F7200 X78.563 Y116.939
G0 X108.015 Y116.875
G0 X116.619 Y108.274
G0 X118.43 Y101.568
G1 F3600 X123.52 Y96.478 E315.25189
G1 X123.59 Y96.408
G0 F7200 X122.371 Y100.359
G0 X122.238 Y105.301
G1 F3600 X121.878 Y105.661 E315.28957
G0 F7200 X121.038 Y105.603
G0 X120.274 Y105.713
G0 X119.822 Y105.911
G0 X119.374 Y106.236
G0 X118.93 Y106.813
G0 X118.653 Y107.509
G0 X118.632 Y108.277
G0 X118.918 Y109.155
G0 X122.371 Y115.619
G0 X136.088 Y119.728
G1 F3600 X141.714 Y114.102 E315.87847
G1 X141.784 Y114.032
G0 F7200 X141.318 Y107.973
G0 X141.182 Y107.219
G0 X137.629 Y100.359
G0 X122.329 Y100.317
G0 X122.399 Y100.387
;TYPE:WALL-INNER
G1 F3600 X122.399 Y105.763 E316.27638
G1 X122.399 Y105.764 E316.27645
G1 X122.399 Y106.122 E316.30295
G1 X122.094 Y105.933 E316.3179
G1 X121.939 Y105.837 E316.33139
G1 X121.037 Y105.642 E316.3997
G1 X120.284 Y105.751 E316.45601
G1 X119.841 Y105.945 E316.49181
G1 X119.401 Y106.264 E316.53203
G1 X118.964 Y106.832 E316.58508
G1 X118.692 Y107.517 E316.63963
G1 X118.671 Y108.272 E316.69553
G1 X118.953 Y109.137 E316.76287
G1 X119.465 Y109.787 E316.82412
G1 X119.617 Y109.855 E316.83644
G1 X120.287 Y110.243 E316.89375
G1 X121.241 Y110.34 E316.96472
G1 X121.957 Y110.135 E317.01985
G1 X122.094 Y110.049 E317.03182
G1 X122.399 Y109.859 E317.05842
G1 X122.399 Y110.218 E317.07337
G1 X122.399 Y110.219 E317.07344
G1 X122.399 Y115.591 E317.47105
G1 X137.601 Y115.591 E318.59624
G1 X137.601 Y110.221 E318.99371
G1 X137.601 Y110.035 E319.00747
G1 X137.601 Y109.918 E319.01613
G1 X137.74 Y110.035
G1 X137.914 Y110.098 E319.02617
G1 X138.452 Y110.293 E319.06853
G1 X139.376 Y110.297 E319.13692
G1 X140.113 Y110.025 E319.19506
G1 X140.69 Y109.537 E319.251
G1 X141.119 Y108.795 E319.31444
G1 X141.164 Y108.666 E319.32455
G1 X141.278 Y107.973 E319.37653
G1 X141.145 Y107.232 E319.43225
G1 X140.69 Y106.442 E319.49973
G1 X140.085 Y105.94 E319.55792
G1 X139.376 Y105.686 E319.61366
G1 X138.467 Y105.685 E319.68094
G1 X137.911 Y105.885 E319.72467
G1 X137.731 Y105.95 E319.73884
G1 X137.601 Y106.067 E319.75178
G1 X137.601 Y105.95
G1 X137.601 Y105.758 E319.76209
G1 X137.601 Y100.387 E320.15962
G1 X122.399 Y100.387 E321.28481
G0 F7200 X122.329 Y100.317
G0 X116.619 Y108.274
G0 X108.038 Y116.931
G0 X108 Y116.839
G1 F3600 X116.583 Y108.258 E322.18313
G1 X116.758 Y105.956 E322.354
G1 X116.929 Y105.046 E322.42254
G1 X117.352 Y103.597 E322.53426
G1 X117.917 Y102.203 E322.64559
G1 X118.39 Y101.303 E322.72084
G1 X119.455 Y99.741 E322.86077
G1 X120.081 Y99.013 E322.93184
G1 X120.188 Y98.869 E322.94512
G1 X121.628 Y97.531 E323.09061
G1 X122.843 Y96.675 E323.20061
G1 X124.191 Y95.917 E323.31508
G1 X125.569 Y95.355 E323.42523
G1 X127.028 Y94.925 E323.53781
G1 X127.995 Y94.742 E323.61065
G1 X129.502 Y94.611 E323.72262
G1 X131.002 Y94.629 E323.83365
G1 X132.522 Y94.841 E323.94724
G1 X133.889 Y95.17 E324.05131
G1 X134.89 Y95.516 E324.1297
G1 X136.257 Y96.153 E324.24133
G1 X137.547 Y96.918 E324.35233
G1 X138.737 Y97.844 E324.46394
G1 X139.819 Y98.875 E324.57456
G1 X141.073 Y100.448 E324.72345
G1 X141.634 Y101.349 E324.80201
G1 X142.077 Y102.183 E324.87191
G1 X142.624 Y103.526 E324.97924
G1 X143.057 Y104.987 E325.09203
G1 X143.252 Y106.016 E325.16955
G1 X143.356 Y106.952 E325.23925
G1 X143.379 Y108.464 E325.35118
G1 X143.254 Y109.953 E325.46177
G1 X142.941 Y111.426 E325.57323
G1 X142.484 Y112.855 E325.68428
G1 X142.061 Y113.825 E325.7626
G1 X141.053 Y115.561 E325.91118
G1 X139.82 Y117.105 E326.05743
G1 X138.738 Y118.138 E326.16815
G1 X137.547 Y119.06 E326.27964
G1 X136.257 Y119.828 E326.39076
G1 X134.898 Y120.46 E326.50169
G1 X132.987 Y121.051 E326.64974
G1 X131.126 Y121.33 E326.78902
G1 X130.164 Y121.366 E326.86028
G1 X129.967 Y121.389 E326.87496
G1 X76.601 Y121.389 E330.82488
G1 X76.601 Y116.839 E331.16166
G1 X108 Y116.839 E333.48568
G0 F7200 X107.834 Y116.439
;TYPE:WALL-OUTER
G1 F1800 X116.195 Y108.08 E334.36075
G1 X116.361 Y105.906 E334.52213
G1 X116.54 Y104.952 E334.59397
G1 X116.974 Y103.464 E334.7087
G1 X117.552 Y102.037 E334.82265
G1 X118.048 Y101.094 E334.90152
G1 X119.135 Y99.499 E335.04438
G1 X119.768 Y98.763 E335.11623
G1 X119.887 Y98.603 E335.13099
G1 X121.376 Y97.22 E335.28141
G1 X122.633 Y96.334 E335.39523
G1 X124.012 Y95.558 E335.51235
G1 X125.443 Y94.975 E335.62672
G1 X126.93 Y94.536 E335.74148
G1 X127.947 Y94.344 E335.81808
G1 X129.482 Y94.211 E335.93212
G1 X131.03 Y94.229 E336.04671
G1 X132.601 Y94.448 E336.16411
G1 X134 Y94.785 E336.27062
G1 X135.043 Y95.146 E336.35231
G1 X136.44 Y95.796 E336.46636
G1 X137.772 Y96.587 E336.58102
G1 X138.997 Y97.539 E336.69585
G1 X140.116 Y98.606 E336.81029
G1 X141.401 Y100.218 E336.96287
G1 X141.979 Y101.147 E337.04386
G1 X142.438 Y102.011 E337.11627
G1 X143.001 Y103.393 E337.22672
G1 X143.447 Y104.897 E337.34283
G1 X143.649 Y105.961 E337.42299
G1 X143.756 Y106.923 E337.49463
G1 X143.779 Y108.481 E337.60996
G1 X143.651 Y110.006 E337.72323
G1 X143.327 Y111.532 E337.8387
G1 X142.858 Y112.999 E337.9527
G1 X142.42 Y114.004 E338.03384
G1 X141.385 Y115.786 E338.18637
G1 X140.116 Y117.374 E338.33682
G1 X138.997 Y118.443 E338.45137
G1 X137.772 Y119.392 E338.56606
G1 X136.44 Y120.184 E338.68076
G1 X135.046 Y120.833 E338.79457
G1 X133.073 Y121.443 E338.94743
G1 X131.164 Y121.729 E339.0903
G1 X130.194 Y121.765 E339.16215
G1 X129.987 Y121.789 E339.17757
G1 X76.201 Y121.789 E343.15858
G1 X76.201 Y116.439 E343.55457
G1 X107.834 Y116.439 E345.89591
G0 F7200 X107.975 Y116.298
G0 X108.327 Y116.652
G0 X116.619 Y108.274
G0 X122.371 Y100.359
G0 X122.799 Y100.287
G0 X122.799 Y100.787
G1 F1800 X122.799 Y106.602 E346.32631
G1 X122.799 Y107.02 E346.35725
G1 X122.799 Y107.3 E346.37797
G1 X122.686 Y107.02
G1 X122.43 Y106.69 E346.39838
G1 X122.311 Y106.538 E346.41267
G1 X121.787 Y106.213 E346.45831
G1 X121.023 Y106.048 E346.51616
G1 X120.395 Y106.139 E346.56313
G1 X120.041 Y106.294 E346.59173
G1 X119.683 Y106.554 E346.62448
G1 X119.315 Y107.032 E346.66913
G1 X119.09 Y107.599 E346.71428
G1 X119.073 Y108.214 E346.75981
G1 X119.311 Y108.945 E346.81672
G1 X119.718 Y109.462 E346.86542
G1 X119.799 Y109.498 E346.87198
G1 X120.413 Y109.854 E346.92451
G1 X121.205 Y109.934 E346.98343
G1 X121.793 Y109.766 E347.02869
G1 X122.311 Y109.442 E347.07391
G1 X122.43 Y109.289 E347.08826
G1 X122.686 Y108.962 E347.119
G1 X122.799 Y108.682 E347.14135
G1 X122.799 Y108.962
G1 X122.799 Y109.378 E347.16171
G1 X122.799 Y115.191 E347.59197
G1 X137.201 Y115.191 E348.65794
G1 X137.201 Y109.423 E349.08487
G1 X137.201 Y109.29 E349.09471
G1 X137.201 Y108.881 E349.12498
G1 X137.477 Y109.29 E349.14057
G1 X137.578 Y109.375 E349.14896
G1 X137.943 Y109.683 E349.18431
G1 X138.523 Y109.893 E349.22997
G1 X139.305 Y109.897 E349.28785
G1 X139.908 Y109.674 E349.33543
G1 X140.379 Y109.276 E349.38107
G1 X140.754 Y108.627 E349.43655
G1 X140.775 Y108.567 E349.44126
G1 X140.872 Y107.976 E349.48559
G1 X140.764 Y107.371 E349.53107
G1 X140.379 Y106.704 E349.58808
G1 X139.884 Y106.293 E349.6357
G1 X139.306 Y106.086 E349.68114
G1 X138.537 Y106.085 E349.73806
G1 X137.94 Y106.3 E349.78502
G1 X137.557 Y106.644 E349.82313
G1 X137.342 Y106.838 E349.84456
G1 X137.201 Y107.128 E349.86843
G1 X137.201 Y106.838
G1 X137.201 Y106.548 E349.88355
G1 X137.201 Y100.787 E350.30996
G1 X122.799 Y100.787 E351.37593
G0 F7200 X122.799 Y100.987
G0 X121.999 Y100.987
G1 F1500 E344.87593
G0 F7200 X116.619 Y108.274
G0 X108.015 Y116.875
G0 X76.615 Y121.375
G0 X76.615 Y122.654
G0 X76.001 Y124.189
;TIME_ELAPSED:171.941703
;LAYER:4
G0 X76.001 Y124.189 Z1.8
;TYPE:SUPPORT
G1 F1500 E351.37593
G1 F3600 X76.001 Y125.873 E351.50058
G1 X76.117 Y125.989 E351.51272
G1 X77.314 Y125.989 E351.60132
G1 X79.98 Y125.989 E351.79864
G1 X79.98 Y124.189 E351.93187
G1 X82.646 Y124.189 E352.1292
G1 X84.001 Y124.189 E352.22949
G1 X84.001 Y125.873 E352.35413
G1 X83.885 Y125.989 E352.36627
G1 X82.646 Y125.989 E352.45798
G1 X82.646 Y124.189 E352.59121
G0 F7200 X77.314 Y125.989
G1 F3600 X77.314 Y124.189 E352.72443
G1 X76.001 Y124.189 E352.82162
G0 F7200 X108.001 Y124.189
G1 F3600 X108.001 Y125.873 E352.94626
G1 X108.117 Y125.989 E352.9584
G1 X109.306 Y125.989 E353.04641
G1 X111.972 Y125.989 E353.24373
G1 X111.972 Y124.189 E353.37696
G1 X114.638 Y124.189 E353.57429
G1 X116.001 Y124.189 E353.67517
G1 X116.001 Y125.873 E353.79981
G1 X115.885 Y125.989 E353.81196
G1 X114.638 Y125.989 E353.90425
G1 X114.638 Y124.189 E354.03748
G0 F7200 X109.306 Y125.989
G1 F3600 X109.306 Y124.189 E354.17071
G1 X108.001 Y124.189 E354.2673
G1 F1500 E347.7673
G0 F7200 X108.001 Y122.654
G0 X108.001 Y121.369
G0 X108.032 Y121.228
;TYPE:FILL
G1 F1500 E354.2673
G1 F3600 X103.802 Y116.998 E354.71007
G1 X103.732 Y116.928
G0 F7200 X103.732 Y116.939
G0 X101.917 Y116.998
G1 F3600 X106.147 Y121.228 E355.15284
G1 X106.217 Y121.298
G0 F7200 X106.217 Y121.289
G0 X104.262 Y121.228
G1 F3600 X100.032 Y116.998 E355.59562
G1 X99.962 Y116.928
G0 F7200 X99.962 Y116.939
G0 X98.147 Y116.998
G1 F3600 X102.377 Y121.228 E356.03839
G1 X102.447 Y121.298
G0 F7200 X102.447 Y121.289
G0 X100.491 Y121.228
G1 F3600 X96.261 Y116.998 E356.48116
G1 X96.191 Y116.928
G0 F7200 X96.191 Y116.939
G0 X94.376 Y116.998
G1 F3600 X98.606 Y121.228 E356.92393
G1 X98.676 Y121.298
G0 F7200 X98.676 Y121.289
G0 X96.721 Y121.228
G1 F3600 X92.491 Y116.998 E357.3667
G1 X92.421 Y116.928
G0 F7200 X92.421 Y116.939
G0 X90.606 Y116.998
G1 F3600 X94.836 Y121.228 E357.80947
G1 X94.906 Y121.298
G0 F7200 X94.906 Y121.289
G0 X92.951 Y121.228
G1 F3600 X88.721 Y116.998 E358.25224
G1 X88.651 Y116.928
G0 F7200 X88.651 Y116.939
G0 X86.836 Y116.998
G1 F3600 X91.066 Y121.228 E358.69502
G1 X91.136 Y121.298
G0 F7200 X91.136 Y121.289
G0 X89.181 Y121.228
G1 F3600 X84.951 Y116.998 E359.13779
G1 X84.881 Y116.928
G0 F7200 X84.881 Y116.939
G0 X83.065 Y116.998
G1 F3600 X87.295 Y121.228 E359.58056
G1 X87.365 Y121.298
G0 F7200 X87.365 Y121.289
G0 X85.41 Y121.228
G1 F3600 X81.18 Y116.998 E360.02333
G1 X81.11 Y116.928
G0 F7200 X81.11 Y116.939
G0 X79.295 Y116.998
G1 F3600 X83.525 Y121.228 E360.4661
G1 X83.595 Y121.298
G0 F7200 X83.595 Y121.289
G0 X81.64 Y121.228
G1 F3600 X77.41 Y116.998 E360.90887
G1 X77.34 Y116.928
G0 F7200 X77.34 Y116.939
G0 X76.761 Y118.234
G1 F3600 X79.755 Y121.228 E361.22227
G1 X79.825 Y121.298
G0 F7200 X79.825 Y121.289
G0 X77.87 Y121.228
G1 F3600 X76.761 Y120.119 E361.33835
G1 X76.691 Y120.049
G0 F7200 X76.701 Y120.049
G0 X105.687 Y116.998
G1 F3600 X109.917 Y121.228 E361.78112
G1 X109.987 Y121.298
G0 F7200 X109.987 Y121.289
G0 X111.802 Y121.228
G1 F3600 X107.572 Y116.998 E362.22389
G1 X107.502 Y116.928
G0 F7200 X107.502 Y116.939
G0 X107.963 Y116.882
G0 X108.762 Y116.303
G1 F3600 X113.687 Y121.228 E362.73941
G1 X113.757 Y121.298
G0 F7200 X113.757 Y121.289
G0 X115.573 Y121.228
G1 F3600 X109.705 Y115.36 E363.35364
G1 X109.635 Y115.29
G0 F7200 X109.661 Y115.318
G0 X110.648 Y114.418
G1 F3600 X117.458 Y121.228 E364.06647
G1 X117.528 Y121.298
G0 F7200 X117.528 Y121.289
G0 X119.343 Y121.228
G1 F3600 X111.59 Y113.475 E364.87801
G1 X111.52 Y113.405
G0 F7200 X111.547 Y113.433
G0 X112.533 Y112.533
G1 F3600 X121.228 Y121.228 E365.78815
G1 X121.298 Y121.298
G0 F7200 X121.298 Y121.289
G0 X123.113 Y121.228
G1 F3600 X113.475 Y111.59 E366.797
G1 X113.405 Y111.52
G0 F7200 X113.432 Y111.548
G0 X114.418 Y110.648
G1 F3600 X124.998 Y121.228 E367.90445
G1 X125.068 Y121.298
G0 F7200 X125.068 Y121.289
G0 X126.883 Y121.228
G1 F3600 X115.36 Y109.705 E369.11061
G1 X115.29 Y109.635
G0 F7200 X115.316 Y109.663
G0 X116.303 Y108.762
G1 F3600 X122.238 Y114.698 E369.73191
G1 X122.308 Y114.768
G0 F7200 X122.299 Y114.768
G0 X122.371 Y115.619
G0 X123.291 Y115.751
G1 F3600 X128.769 Y121.228 E370.30526
G1 X128.839 Y121.298
G0 F7200 X128.839 Y121.289
G0 X130.609 Y121.183
G1 F3600 X125.176 Y115.751 E370.8739
G1 X125.106 Y115.681
G0 F7200 X125.106 Y115.691
G0 X127.062 Y115.751
G1 F3600 X132.302 Y120.991 E371.42239
G1 X132.372 Y121.061
G0 F7200 X132.371 Y121.043
G0 X133.821 Y120.625
G1 F3600 X128.947 Y115.751 E371.93257
G1 X128.877 Y115.681
G0 F7200 X128.877 Y115.691
G0 X130.832 Y115.751
G1 F3600 X135.215 Y120.133 E372.39131
G1 X135.285 Y120.203
G0 F7200 X135.272 Y120.176
G0 X136.475 Y119.509
G1 F3600 X132.717 Y115.751 E372.78467
G1 X132.647 Y115.681
G0 F7200 X132.647 Y115.691
G0 X134.602 Y115.751
G1 F3600 X137.638 Y118.786 E373.10241
G1 X137.708 Y118.856
G0 F7200 X137.686 Y118.826
G0 X138.694 Y117.957
G1 F3600 X136.487 Y115.751 E373.33338
G1 X136.417 Y115.681
G0 F7200 X136.417 Y115.691
G0 X137.629 Y115.619
G0 X137.76 Y115.138
G1 F3600 X139.658 Y117.036 E373.53205
G1 X139.728 Y117.106
G0 F7200 X139.703 Y117.079
G0 X140.501 Y115.994
G1 F3600 X137.76 Y113.253 E373.81896
G1 X137.69 Y113.183
G0 F7200 X137.701 Y113.183
G0 X137.76 Y111.368
G1 F3600 X141.269 Y114.877 E374.18626
G1 X141.339 Y114.947
G0 F7200 X141.309 Y114.93
G0 X141.95 Y113.673
G1 F3600 X138.732 Y110.455 E374.5231
G1 X138.662 Y110.385
G0 F7200 X138.662 Y110.393
G0 X139.147 Y110.34
G0 X140.265 Y110.102
G1 F3600 X142.484 Y112.322 E374.75543
G1 X142.554 Y112.392
G0 F7200 X142.53 Y112.385
G0 X142.895 Y110.848
G1 F3600 X141.134 Y109.086 E374.93981
G1 X141.064 Y109.016
G0 F7200 X141.095 Y109.035
G0 X141.274 Y108.175
G0 X141.337 Y107.404
G1 F3600 X143.154 Y109.221 E375.13
G1 X143.224 Y109.291
G0 F7200 X143.21 Y109.29
G0 X143.199 Y107.381
G1 F3600 X137.759 Y101.942 E375.69938
G1 X137.689 Y101.872
G0 F7200 X137.701 Y101.872
G0 X137.759 Y103.827
G1 F3600 X139.493 Y105.56 E375.88083
G1 X139.563 Y105.63
G0 F7200 X142.94 Y105.237
G1 F3600 X132.769 Y95.066 E376.94547
G1 X132.699 Y94.996
G0 F7200 X130.602 Y94.784
G1 F3600 X136.044 Y100.226 E377.51511
G1 X136.114 Y100.296
G0 F7200 X136.114 Y100.287
G0 X134.159 Y100.226
G1 F3600 X128.767 Y94.835 E378.07946
G1 X128.697 Y94.765
G0 F7200 X128.697 Y94.781
G0 X127.118 Y95.07
G1 F3600 X132.274 Y100.226 E378.61916
G1 X132.344 Y100.296
G0 F7200 X132.344 Y100.287
G0 X130.389 Y100.226
G1 F3600 X125.658 Y95.496 E379.11432
G1 X125.588 Y95.426
G0 F7200 X125.597 Y95.451
G0 X124.317 Y96.039
G1 F3600 X128.503 Y100.226 E379.55254
G1 X128.573 Y100.296
G0 F7200 X128.573 Y100.287
G0 X126.618 Y100.226
G1 F3600 X123.105 Y96.713 E379.92026
G1 X123.035 Y96.643
G0 F7200 X123.051 Y96.674
G0 X121.985 Y97.478
G1 F3600 X124.733 Y100.226 E380.2079
G1 X124.803 Y100.296
G0 F7200 X124.803 Y100.287
G0 X122.848 Y100.226
G1 F3600 X120.975 Y98.353 E380.40396
G1 X120.905 Y98.283
G0 F7200 X120.932 Y98.313
G0 X120.044 Y99.308
G1 F3600 X122.238 Y101.501 E380.63356
G1 X122.308 Y101.571
G0 F7200 X122.299 Y101.571
G0 X122.238 Y103.386
G1 F3600 X119.218 Y100.367 E380.94962
G1 X119.148 Y100.297
G0 F7200 X119.18 Y100.32
G0 X118.465 Y101.499
G1 F3600 X122.238 Y105.271 E381.3445
G1 X122.308 Y105.341
G0 F7200 X122.299 Y105.341
G0 X120.622 Y105.541
G1 F3600 X117.856 Y102.775 E381.63403
G1 X117.786 Y102.705
G0 F7200 X117.815 Y102.718
G0 X117.356 Y104.16
G1 F3600 X119.319 Y106.123 E381.83951
G1 X119.389 Y106.193
G0 F7200 X119.37 Y106.165
G0 X118.608 Y107.297
G1 F3600 X116.973 Y105.662 E382.01065
G1 X116.903 Y105.592
G0 F7200 X116.926 Y105.597
G0 X116.809 Y107.383
G1 F3600 X122.238 Y112.813 E382.57898
G1 X122.308 Y112.883
G0 F7200 X122.299 Y112.883
G0 X122.238 Y110.928
G1 F3600 X121.689 Y110.378 E382.6365
G0 F7200 X120.279 Y110.281
G0 X119.445 Y109.823
G0 X118.901 Y109.108
G0 X118.633 Y108.281
G0 X118.652 Y107.511
G0 X118.902 Y106.85
G0 X122.371 Y100.359
G0 X135.624 Y96.036
G1 F3600 X141.993 Y102.405 E383.30317
G1 X142.063 Y102.475
G0 F7200 X137.629 Y100.359
G0 X122.329 Y100.317
G0 X122.399 Y100.387
;TYPE:WALL-INNER
G1 F3600 X122.399 Y105.763 E383.70108
G1 X122.399 Y105.764 E383.70115
G1 X122.399 Y106.122 E383.72765
G1 X122.094 Y105.933 E383.7426
G1 X121.939 Y105.837 E383.75609
G1 X121.084 Y105.651 E383.82085
G1 X120.905 Y105.651 E383.8341
G1 X120.819 Y105.675 E383.84071
G1 X120.282 Y105.753 E383.88087
G1 X119.845 Y105.943 E383.91614
G1 X119.398 Y106.267 E383.95701
G1 X118.938 Y106.867 E384.01297
G1 X118.906 Y106.994 E384.02266
G1 X118.691 Y107.519 E384.06465
G1 X118.672 Y108.276 E384.1207
G1 X118.937 Y109.092 E384.1842
G1 X119.029 Y109.251 E384.1978
G1 X119.091 Y109.31 E384.20413
G1 X119.469 Y109.792 E384.24947
G1 X119.637 Y109.864 E384.263
G1 X120.291 Y110.243 E384.31894
G1 X121.241 Y110.34 E384.38962
G1 X121.957 Y110.135 E384.44475
G1 X122.094 Y110.049 E384.45672
G1 X122.399 Y109.859 E384.48332
G1 X122.399 Y110.218 E384.49827
G1 X122.399 Y110.219 E384.49834
G1 X122.399 Y115.591 E384.89596
G1 X137.601 Y115.591 E386.02114
G1 X137.601 Y110.221 E386.41861
G1 X137.601 Y110.035 E386.43238
G1 X137.601 Y109.918 E386.44104
G1 X137.74 Y110.035
G1 X137.914 Y110.098 E386.45107
G1 X138.452 Y110.293 E386.49343
G1 X139.326 Y110.297 E386.55812
G1 X139.506 Y110.26 E386.57172
G1 X139.581 Y110.219 E386.57805
G1 X140.115 Y110.023 E386.62015
G1 X140.694 Y109.533 E386.67629
G1 X141.117 Y108.798 E386.73906
G1 X141.178 Y108.631 E386.75222
G1 X141.183 Y108.52 E386.76044
G1 X141.277 Y107.972 E386.8016
G1 X141.144 Y107.229 E386.85746
G1 X140.714 Y106.481 E386.92132
G1 X140.592 Y106.349 E386.93463
G1 X140.522 Y106.304 E386.94079
G1 X140.08 Y105.937 E386.98331
G1 X139.37 Y105.686 E387.03905
G1 X138.472 Y105.685 E387.10551
G1 X137.911 Y105.886 E387.14962
G1 X137.732 Y105.95 E387.16369
G1 X137.601 Y106.068 E387.17674
G1 X137.601 Y105.95
G1 X137.601 Y105.759 E387.18701
G1 X137.601 Y100.387 E387.58462
G1 X122.399 Y100.387 E388.70981
G0 F7200 X122.329 Y100.317
G0 X116.618 Y108.274
G0 X108.038 Y116.931
G0 X108 Y116.839
G1 F3600 X116.582 Y108.258 E389.60807
G1 X116.761 Y105.942 E389.78
G1 X116.924 Y105.066 E389.84595
G1 X117.325 Y103.707 E389.95083
G1 X117.351 Y103.6 E389.95898
G1 X117.912 Y102.213 E390.06972
G1 X118.39 Y101.303 E390.1458
G1 X119.425 Y99.785 E390.28178
G1 X120.04 Y99.069 E390.35165
G1 X120.191 Y98.865 E390.37043
G1 X121.609 Y97.547 E390.51372
G1 X122.763 Y96.739 E390.61799
G1 X122.848 Y96.673 E390.62596
G1 X124.191 Y95.917 E390.74003
G1 X125.569 Y95.355 E390.85018
G1 X127.028 Y94.925 E390.96276
G1 X127.995 Y94.742 E391.0356
G1 X129.502 Y94.611 E391.14756
G1 X131 Y94.629 E391.25845
G1 X132.536 Y94.844 E391.37324
G1 X133.869 Y95.165 E391.47473
G1 X134.89 Y95.516 E391.55464
G1 X136.257 Y96.153 E391.66626
G1 X137.547 Y96.918 E391.77727
G1 X138.737 Y97.844 E391.88887
G1 X139.819 Y98.875 E391.9995
G1 X141.077 Y100.453 E392.14886
G1 X141.637 Y101.354 E392.22738
G1 X142.072 Y102.174 E392.29609
G1 X142.623 Y103.522 E392.40388
G1 X143.054 Y104.976 E392.51612
G1 X143.253 Y106.027 E392.5953
G1 X143.355 Y106.941 E392.66337
G1 X143.371 Y108.353 E392.76788
G1 X143.379 Y108.462 E392.77597
G1 X143.255 Y109.94 E392.88575
G1 X142.96 Y111.313 E392.98969
G1 X142.941 Y111.425 E392.9981
G1 X142.487 Y112.844 E393.10838
G1 X142.053 Y113.839 E393.18872
G1 X141.132 Y115.435 E393.32511
G1 X141.048 Y115.568 E393.33675
G1 X139.82 Y117.105 E393.48237
G1 X138.738 Y118.138 E393.59309
G1 X137.547 Y119.06 E393.70457
G1 X136.257 Y119.828 E393.81569
G1 X134.898 Y120.46 E393.92662
G1 X132.987 Y121.051 E394.07468
G1 X131.172 Y121.323 E394.21051
G1 X130.233 Y121.358 E394.28006
G1 X129.967 Y121.389 E394.29988
G1 X76.601 Y121.389 E398.24981
G1 X76.601 Y116.839 E398.58658
G1 X108 Y116.839 E400.9106
G0 F7200 X107.834 Y116.439
;TYPE:WALL-OUTER
G1 F1800 X116.195 Y108.08 E401.78568
G1 X116.363 Y105.894 E401.94795
G1 X116.536 Y104.967 E402.01775
G1 X116.939 Y103.602 E402.12309
G1 X116.971 Y103.473 E402.13293
G1 X117.547 Y102.047 E402.24676
G1 X118.048 Y101.094 E402.32645
G1 X119.105 Y99.543 E402.46538
G1 X119.727 Y98.819 E402.53602
G1 X119.889 Y98.6 E402.55619
G1 X121.358 Y97.234 E402.70466
G1 X122.526 Y96.417 E402.81016
G1 X122.629 Y96.337 E402.81981
G1 X124.012 Y95.558 E402.9373
G1 X125.443 Y94.975 E403.05167
G1 X126.93 Y94.536 E403.16643
G1 X127.947 Y94.344 E403.24303
G1 X129.482 Y94.211 E403.35707
G1 X131.03 Y94.229 E403.47165
G1 X132.613 Y94.451 E403.58997
G1 X133.976 Y94.779 E403.69373
G1 X135.046 Y95.147 E403.77748
G1 X136.44 Y95.796 E403.89129
G1 X137.772 Y96.587 E404.00596
G1 X138.997 Y97.539 E404.12079
G1 X140.116 Y98.606 E404.23523
G1 X141.406 Y100.224 E404.38839
G1 X141.9 Y101.011 E404.45716
G1 X141.99 Y101.167 E404.47049
G1 X142.435 Y102.006 E404.54079
G1 X143 Y103.389 E404.65136
G1 X143.444 Y104.886 E404.76694
G1 X143.65 Y105.972 E404.84875
G1 X143.755 Y106.912 E404.91876
G1 X143.771 Y108.335 E405.02409
G1 X143.781 Y108.465 E405.03374
G1 X143.652 Y109.995 E405.14738
G1 X143.353 Y111.39 E405.25298
G1 X143.33 Y111.521 E405.26283
G1 X142.861 Y112.988 E405.37682
G1 X142.414 Y114.014 E405.45966
G1 X141.47 Y115.649 E405.59939
G1 X141.375 Y115.799 E405.61254
G1 X140.116 Y117.374 E405.76178
G1 X138.997 Y118.443 E405.87632
G1 X137.772 Y119.392 E405.99102
G1 X136.44 Y120.184 E406.10572
G1 X135.046 Y120.833 E406.21953
G1 X133.073 Y121.443 E406.37238
G1 X131.21 Y121.722 E406.51181
G1 X130.263 Y121.757 E406.58195
G1 X129.987 Y121.789 E406.60252
G1 X76.201 Y121.789 E410.58353
G1 X76.201 Y116.439 E410.97951
G1 X107.834 Y116.439 E413.32085
G0 F7200 X107.975 Y116.298
G0 X108.327 Y116.652
G0 X116.618 Y108.274
G0 X122.371 Y100.359
G0 X122.799 Y100.287
G0 X122.799 Y100.787
G1 F1800 X122.799 Y106.602 E413.75126
G1 X122.799 Y107.02 E413.78219
G1 X122.799 Y107.3 E413.80292
G1 X122.686 Y107.02
G1 X122.43 Y106.69 E413.82333
G1 X122.311 Y106.538 E413.83762
G1 X121.787 Y106.213 E413.88325
G1 X121.041 Y106.051 E413.93976
G1 X120.96 Y106.051 E413.94575
G1 X120.899 Y106.068 E413.95044
G1 X120.392 Y106.141 E413.98835
G1 X120.045 Y106.292 E414.01636
G1 X119.68 Y106.557 E414.04975
G1 X119.305 Y107.046 E414.09536
G1 X119.286 Y107.12 E414.10101
G1 X119.089 Y107.602 E414.13955
G1 X119.074 Y108.218 E414.18516
G1 X119.304 Y108.928 E414.2404
G1 X119.346 Y109 E414.24657
G1 X119.388 Y109.04 E414.25086
G1 X119.721 Y109.465 E414.29083
G1 X119.818 Y109.507 E414.29865
G1 X120.417 Y109.854 E414.34989
G1 X121.205 Y109.934 E414.40851
G1 X121.793 Y109.766 E414.45377
G1 X122.311 Y109.442 E414.499
G1 X122.43 Y109.289 E414.51334
G1 X122.686 Y108.962 E414.54408
G1 X122.799 Y108.682 E414.56643
G1 X122.799 Y108.962
G1 X122.799 Y109.378 E414.5868
G1 X122.799 Y115.191 E415.01705
G1 X137.201 Y115.191 E416.08303
G1 X137.201 Y109.423 E416.50995
G1 X137.201 Y109.29 E416.51979
G1 X137.201 Y108.881 E416.55007
G1 X137.477 Y109.29 E416.56565
G1 X137.578 Y109.375 E416.57404
G1 X137.943 Y109.683 E416.60939
G1 X138.523 Y109.893 E416.65505
G1 X139.286 Y109.897 E416.71152
G1 X139.368 Y109.88 E416.71772
G1 X139.42 Y109.852 E416.72209
G1 X139.911 Y109.672 E416.7608
G1 X140.382 Y109.273 E416.80649
G1 X140.753 Y108.629 E416.8615
G1 X140.781 Y108.552 E416.86756
G1 X140.784 Y108.481 E416.87282
G1 X140.871 Y107.973 E416.91097
G1 X140.763 Y107.368 E416.95646
G1 X140.389 Y106.719 E417.0119
G1 X140.333 Y106.658 E417.01803
G1 X140.283 Y106.626 E417.02242
G1 X139.879 Y106.29 E417.06131
G1 X139.301 Y106.086 E417.10668
G1 X138.541 Y106.085 E417.16293
G1 X137.941 Y106.3 E417.21011
G1 X137.557 Y106.645 E417.24832
G1 X137.342 Y106.838 E417.2697
G1 X137.201 Y107.128 E417.29357
G1 X137.201 Y106.838
G1 X137.201 Y106.548 E417.30871
G1 X137.201 Y100.787 E417.73511
G1 X122.799 Y100.787 E418.80109
G0 F7200 X122.799 Y100.987
G0 X122.299 Y100.987
G0 X122.044 Y105.639
;TYPE:SKIN
G1 F1800 X122.133 Y105.728 E418.80575
G0 F7200 X120.9 Y105.612
G0 X120.272 Y105.715
G0 X119.826 Y105.909
G0 X119.371 Y106.239
G0 X118.902 Y106.85
G0 X118.652 Y107.511
G0 X118.633 Y108.281
G0 X118.998 Y109.275
G0 X119.445 Y109.823
G0 X120.279 Y110.281
G0 X121.06 Y110.36
G0 X122.133 Y110.254
G1 F1800 X122.178 Y110.299 E418.8081
G0 F7200 X122.063 Y110.521
G1 F1500 E412.3081
G0 F7200 X108.015 Y116.875
G0 X76.615 Y121.375
G0 X76.615 Y122.654
G0 X76.001 Y124.189
;TIME_ELAPSED:197.721168
;LAYER:5
G0 X76.001 Y124.189 Z2.2
;TYPE:SUPPORT
G1 F1500 E418.8081
G1 F3600 X76.001 Y125.873 E418.93274
G1 X76.117 Y125.989 E418.94489
G1 X77.314 Y125.989 E419.03348
G1 X79.98 Y125.989 E419.23081
G1 X79.98 Y124.189 E419.36404
G1 X82.646 Y124.189 E419.56136
G1 X84.001 Y124.189 E419.66165
G1 X84.001 Y125.873 E419.7863
G1 X83.885 Y125.989 E419.79844
G1 X82.646 Y125.989 E419.89014
G1 X82.646 Y124.189 E420.02337
G0 F7200 X77.314 Y125.989
G1 F3600 X77.314 Y124.189 E420.1566
G1 X76.001 Y124.189 E420.25378
G0 F7200 X108.001 Y124.189
G1 F3600 X108.001 Y125.873 E420.37843
G1 X108.117 Y125.989 E420.39057
G1 X109.306 Y125.989 E420.47857
G1 X111.972 Y125.989 E420.6759
G1 X111.972 Y124.189 E420.80913
G1 X114.638 Y124.189 E421.00645
G1 X116.001 Y124.189 E421.10734
G1 X116.001 Y125.873 E421.23198
G1 X115.885 Y125.989 E421.24412
G1 X114.638 Y125.989 E421.33642
G1 X114.638 Y124.189 E421.46965
G0 F7200 X109.306 Y125.989
G1 F3600 X109.306 Y124.189 E421.60288
G1 X108.001 Y124.189 E421.69947
G1 F1500 E415.19947
G0 F7200 X108.001 Y122.654
G0 X108.001 Y121.369
G0 X108.195 Y121.229
;TYPE:FILL
G1 F1500 E421.69947
G1 F3600 X119.461 Y109.963 E422.87873
G1 X119.531 Y109.893
G0 F7200 X119.518 Y109.922
G0 X118.688 Y108.851
G1 F3600 X106.31 Y121.229 E424.17438
G1 X106.24 Y121.299
G0 F7200 X106.24 Y121.289
G0 X104.425 Y121.229
G1 F3600 X118.765 Y106.889 E425.67541
G1 X118.835 Y106.819
G0 F7200 X119.916 Y105.738
G1 F3600 X122.238 Y103.416 E425.91846
G1 X122.308 Y103.346
G0 F7200 X122.299 Y103.346
G0 X122.238 Y101.531
G1 F3600 X116.842 Y106.927 E426.48328
G1 X116.772 Y106.997
G0 F7200 X116.776 Y106.997
G0 X117.205 Y104.678
G1 F3600 X126.694 Y95.19 E427.47648
G1 X126.764 Y95.12
G0 F7200 X128.95 Y94.818
G1 F3600 X123.542 Y100.227 E428.04261
G1 X123.472 Y100.297
G0 F7200 X123.472 Y100.287
G0 X125.427 Y100.227
G1 F3600 X130.867 Y94.786 E428.61209
G1 X130.937 Y94.716
G0 F7200 X130.937 Y94.728
G0 X132.533 Y95.006
G1 F3600 X127.312 Y100.227 E429.1586
G1 X127.242 Y100.297
G0 F7200 X127.242 Y100.287
G0 X129.197 Y100.227
G1 F3600 X134.038 Y95.386 E429.66532
G1 X134.108 Y95.316
G0 F7200 X134.097 Y95.343
G0 X135.385 Y95.924
G1 F3600 X131.082 Y100.227 E430.11574
G1 X131.012 Y100.297
G0 F7200 X131.012 Y100.287
G0 X132.967 Y100.227
G1 F3600 X136.633 Y96.561 E430.49947
G1 X136.703 Y96.491
G0 F7200 X136.684 Y96.522
G0 X137.779 Y97.301
G1 F3600 X134.853 Y100.227 E430.80575
G1 X134.783 Y100.297
G0 F7200 X134.783 Y100.287
G0 X136.738 Y100.227
G1 F3600 X138.82 Y98.145 E431.02368
G1 X138.89 Y98.075
G0 F7200 X138.863 Y98.102
G0 X139.774 Y99.076
G1 F3600 X137.76 Y101.09 E431.23449
G1 X137.69 Y101.16
G0 F7200 X137.701 Y101.16
G0 X137.76 Y102.975
G1 F3600 X140.611 Y100.124 E431.53292
G1 X140.681 Y100.054
G0 F7200 X140.65 Y100.077
G0 X141.38 Y101.24
G1 F3600 X137.76 Y104.86 E431.91184
G1 X137.69 Y104.93
G0 F7200 X137.701 Y104.93
G0 X138.981 Y105.525
G1 F3600 X142.024 Y102.481 E432.23042
G1 X142.094 Y102.411
G0 F7200 X142.065 Y102.421
G0 X142.549 Y103.841
G1 F3600 X140.396 Y105.995 E432.45583
G1 X140.326 Y106.065
G0 F7200 X140.352 Y106.036
G0 X141.226 Y107.05
G1 F3600 X142.955 Y105.321 E432.63681
G1 X143.025 Y105.251
G0 F7200 X143.004 Y105.254
G0 X143.193 Y106.968
G1 F3600 X141.219 Y108.941 E432.84339
G1 X141.149 Y109.011
G0 F7200 X140.808 Y109.451
G0 X139.886 Y110.275
G1 F3600 X137.76 Y112.4 E433.06587
G1 X137.69 Y112.47
G0 F7200 X137.701 Y112.47
G0 X137.76 Y110.515
G1 F3600 X137.983 Y110.293 E433.08916
G0 F7200 X137.76 Y114.286
G1 F3600 X143.182 Y108.864 E433.65671
G1 X143.252 Y108.794
G0 F7200 X143.251 Y108.793
G0 X142.841 Y111.09
G1 F3600 X133.074 Y120.857 E434.67906
G1 X133.004 Y120.927
G0 F7200 X130.878 Y121.168
G1 F3600 X136.295 Y115.751 E435.24608
G1 X136.365 Y115.681
G0 F7200 X136.365 Y115.691
G0 X134.41 Y115.751
G1 F3600 X128.932 Y121.229 E435.81948
G1 X128.862 Y121.299
G0 F7200 X128.862 Y121.289
G0 X127.047 Y121.229
G1 F3600 X132.525 Y115.751 E436.39289
G1 X132.595 Y115.681
G0 F7200 X132.595 Y115.691
G0 X130.64 Y115.751
G1 F3600 X125.162 Y121.229 E436.96629
G1 X125.092 Y121.299
G0 F7200 X125.092 Y121.289
G0 X123.276 Y121.229
G1 F3600 X128.754 Y115.751 E437.5397
G1 X128.824 Y115.681
G0 F7200 X128.824 Y115.691
G0 X126.869 Y115.751
G1 F3600 X121.391 Y121.229 E438.1131
G1 X121.321 Y121.299
G0 F7200 X121.321 Y121.289
G0 X119.506 Y121.229
G1 F3600 X124.984 Y115.751 E438.68651
G1 X125.054 Y115.681
G0 F7200 X125.054 Y115.691
G0 X123.099 Y115.751
G1 F3600 X117.621 Y121.229 E439.25991
G1 X117.551 Y121.299
G0 F7200 X117.551 Y121.289
G0 X115.736 Y121.229
G1 F3600 X122.238 Y114.727 E439.9405
G1 X122.308 Y114.657
G0 F7200 X122.299 Y114.657
G0 X122.238 Y112.842
G1 F3600 X113.851 Y121.229 E440.8184
G1 X113.781 Y121.299
G0 F7200 X113.781 Y121.289
G0 X111.966 Y121.229
G1 F3600 X122.238 Y110.957 E441.89362
G1 X122.308 Y110.887
G0 F7200 X122.299 Y110.887
G0 X120.85 Y110.459
G1 F3600 X110.08 Y121.229 E443.02096
G1 X110.01 Y121.299
G0 F7200 X110.01 Y121.289
G0 X106.771 Y116.998
G1 F3600 X102.54 Y121.229 E443.46383
G1 X102.47 Y121.299
G0 F7200 X102.47 Y121.289
G0 X100.655 Y121.229
G1 F3600 X104.885 Y116.998 E443.90666
G1 X104.955 Y116.928
G0 F7200 X104.955 Y116.939
G0 X103 Y116.998
G1 F3600 X98.77 Y121.229 E444.34948
G1 X98.7 Y121.299
G0 F7200 X98.7 Y121.289
G0 X96.884 Y121.229
G1 F3600 X101.115 Y116.998 E444.79236
G1 X101.185 Y116.928
G0 F7200 X101.185 Y116.939
G0 X99.23 Y116.998
G1 F3600 X94.999 Y121.229 E445.23523
G1 X94.929 Y121.299
G0 F7200 X94.929 Y121.289
G0 X93.114 Y121.229
G1 F3600 X97.345 Y116.998 E445.67811
G1 X97.415 Y116.928
G0 F7200 X97.415 Y116.939
G0 X95.46 Y116.998
G1 F3600 X91.229 Y121.229 E446.12098
G1 X91.159 Y121.299
G0 F7200 X91.159 Y121.289
G0 X89.344 Y121.229
G1 F3600 X93.574 Y116.998 E446.56381
G1 X93.644 Y116.928
G0 F7200 X93.644 Y116.939
G0 X91.689 Y116.998
G1 F3600 X87.459 Y121.229 E447.00663
G1 X87.389 Y121.299
G0 F7200 X87.389 Y121.289
G0 X85.574 Y121.229
G1 F3600 X89.804 Y116.998 E447.44946
G1 X89.874 Y116.928
G0 F7200 X89.874 Y116.939
G0 X87.919 Y116.998
G1 F3600 X83.688 Y121.229 E447.89233
G1 X83.618 Y121.299
G0 F7200 X83.618 Y121.289
G0 X81.803 Y121.229
G1 F3600 X86.034 Y116.998 E448.33521
G1 X86.104 Y116.928
G0 F7200 X86.104 Y116.939
G0 X84.149 Y116.998
G1 F3600 X79.918 Y121.229 E448.77808
G1 X79.848 Y121.299
G0 F7200 X79.848 Y121.289
G0 X78.033 Y121.229
G1 F3600 X82.264 Y116.998 E449.22096
G1 X82.334 Y116.928
G0 F7200 X82.334 Y116.939
G0 X80.378 Y116.998
