;FLAVOR:Marlin
;TIME:2219
;Filament used: 2.7118m
;Layer height: 0.2
;Generated with Cura_SteamEngine 3.2.1
M190 S50
M104 S200
M109 S200
M82 ;absolute extrusion mode

;LAYER_COUNT:147
;LAYER:0
M107
G0 F3600 X82.355 Y92.598 Z0.2
;TYPE:SKIRT
G1 F1800 X82.797 Y92.294 E0.01985
G1 X83.279 Y92.059 E0.0397
G1 X83.79 Y91.899 E0.05951
G1 X84.32 Y91.816 E0.07937
G1 X84.61 Y91.804 E0.09011
G1 X135.391 Y91.805 E1.96941
G1 X135.926 Y91.845 E1.98926
G1 X136.449 Y91.964 E2.00911
G1 X136.948 Y92.159 E2.02894
G1 X137.413 Y92.427 E2.0488
G1 X137.833 Y92.76 E2.06864
G1 X138.199 Y93.152 E2.08848
G1 X138.502 Y93.594 E2.10832
G1 X138.737 Y94.077 E2.12819
G1 X138.897 Y94.588 E2.14801
G1 X138.98 Y95.118 E2.16786
G1 X138.991 Y95.405 E2.17849
G1 X138.991 Y123.791 E3.229
G1 X138.951 Y124.326 E3.24885
G1 X138.832 Y124.849 E3.2687
G1 X138.637 Y125.348 E3.28853
G1 X138.369 Y125.813 E3.30839
G1 X138.036 Y126.233 E3.32823
G1 X137.644 Y126.599 E3.34807
G1 X137.202 Y126.902 E3.36791
G1 X136.719 Y127.137 E3.38779
G1 X136.208 Y127.297 E3.4076
G1 X135.678 Y127.38 E3.42745
G1 X135.39 Y127.391 E3.43812
G1 X84.632 Y127.382 E5.31657
G1 X84.098 Y127.342 E5.33638
G1 X83.575 Y127.223 E5.35623
G1 X83.075 Y127.028 E5.3761
G1 X82.61 Y126.76 E5.39596
G1 X82.19 Y126.427 E5.41579
G1 X81.825 Y126.034 E5.43564
G1 X81.521 Y125.592 E5.4555
G1 X81.287 Y125.11 E5.47533
G1 X81.127 Y124.598 E5.49518
G1 X81.044 Y124.068 E5.51503
G1 X81.033 Y123.785 E5.52551
G1 X81.01 Y95.407 E6.57572
G1 X81.05 Y94.872 E6.59558
G1 X81.168 Y94.349 E6.61542
G1 X81.363 Y93.849 E6.63528
G1 X81.63 Y93.384 E6.65512
G1 X81.963 Y92.964 E6.67496
G1 X82.355 Y92.598 E6.69481
G0 F3600 X82.744 Y92.805
G1 F1800 X83.176 Y92.543 E6.7135
G1 X83.645 Y92.353 E6.73223
G1 X84.137 Y92.239 E6.75092
G1 X84.61 Y92.204 E6.76847
G1 X135.391 Y92.205 E8.64777
G1 X135.895 Y92.245 E8.66648
G1 X136.386 Y92.364 E8.68518
G1 X136.853 Y92.559 E8.70391
G1 X137.283 Y92.824 E8.7226
G1 X137.666 Y93.155 E8.74133
G1 X137.992 Y93.541 E8.76003
G1 X138.253 Y93.974 E8.77874
G1 X138.443 Y94.442 E8.79744
G1 X138.556 Y94.935 E8.81615
G1 X138.591 Y95.405 E8.83359
G1 X138.591 Y123.791 E9.8841
G1 X138.551 Y124.295 E9.90281
G1 X138.432 Y124.786 E9.92151
G1 X138.238 Y125.253 E9.94022
G1 X137.972 Y125.683 E9.95894
G1 X137.642 Y126.066 E9.97764
G1 X137.255 Y126.392 E9.99637
G1 X136.822 Y126.653 E10.01508
G1 X136.354 Y126.843 E10.03377
G1 X135.861 Y126.956 E10.05249
G1 X135.39 Y126.991 E10.06997
G1 X84.632 Y126.982 E11.94842
G1 X84.128 Y126.942 E11.96713
G1 X83.637 Y126.823 E11.98582
G1 X83.171 Y126.628 E12.00452
G1 X82.741 Y126.362 E12.02323
G1 X82.358 Y126.032 E12.04194
G1 X82.032 Y125.646 E12.06064
G1 X81.771 Y125.213 E12.07935
G1 X81.581 Y124.744 E12.09808
G1 X81.468 Y124.251 E12.11679
G1 X81.433 Y123.785 E12.13409
G1 X81.41 Y95.407 E13.1843
G1 X81.45 Y94.903 E13.20301
G1 X81.568 Y94.411 E13.22173
G1 X81.762 Y93.944 E13.24045
G1 X82.028 Y93.514 E13.25916
G1 X82.358 Y93.131 E13.27787
G1 X82.744 Y92.805 E13.29657
G1 F1500 E6.79657
G0 F3600 X85.214 Y94.73
G0 X85.214 Y96.009
G0 X94.998 Y109.904
G0 X95.382 Y110.309
G0 X95.837 Y110.631
G0 X96.341 Y110.862
G0 X96.78 Y110.968
G0 X98.004 Y111
G0 X97.981 Y110.903
;TYPE:WALL-INNER
G1 F1500 E13.29657
G1 F1800 X98.501 Y110.722 E13.31694
G1 X98.975 Y110.448 E13.33721
G1 X99.39 Y110.089 E13.35751
G1 X99.73 Y109.657 E13.37786
G1 X99.981 Y109.169 E13.39817
G1 X100.137 Y108.642 E13.41851
G1 X100.189 Y108.095 E13.43884
G1 X100.137 Y107.548 E13.45918
G1 X99.981 Y107.021 E13.47952
G1 X99.73 Y106.533 E13.49982
G1 X99.39 Y106.101 E13.52017
G1 X98.975 Y105.742 E13.54048
G1 X98.501 Y105.468 E13.56074
G1 X97.981 Y105.287 E13.58112
G1 X97.438 Y105.21 E13.60141
G1 X96.889 Y105.235 E13.62175
G1 X96.354 Y105.365 E13.64213
G1 X95.856 Y105.593 E13.6624
G1 X95.408 Y105.911 E13.68273
G1 X95.029 Y106.31 E13.70309
G1 X94.732 Y106.771 E13.72339
G1 X94.528 Y107.281 E13.74372
G1 X94.424 Y107.821 E13.76407
G1 X94.424 Y108.369 E13.78435
G1 X94.528 Y108.909 E13.8047
G1 X94.732 Y109.419 E13.82503
G1 X95.029 Y109.88 E13.84532
G1 X95.408 Y110.279 E13.86569
G1 X95.856 Y110.597 E13.88602
G1 X96.354 Y110.825 E13.90629
G1 X96.889 Y110.955 E13.92666
G1 X97.438 Y110.98 E13.947
G1 X97.981 Y110.903 E13.9673
G0 F3600 X98.004 Y111
G0 X123.404 Y111
G0 X123.381 Y110.903
G1 F1800 X123.901 Y110.722 E13.98768
G1 X124.375 Y110.448 E14.00794
G1 X124.79 Y110.089 E14.02824
G1 X125.13 Y109.657 E14.04859
G1 X125.381 Y109.169 E14.0689
G1 X125.537 Y108.642 E14.08924
G1 X125.589 Y108.095 E14.10957
G1 X125.537 Y107.548 E14.12991
G1 X125.381 Y107.021 E14.15025
G1 X125.13 Y106.533 E14.17056
G1 X124.79 Y106.101 E14.1909
G1 X124.375 Y105.742 E14.21121
G1 X123.901 Y105.468 E14.23147
G1 X123.381 Y105.287 E14.25185
G1 X122.838 Y105.21 E14.27214
G1 X122.289 Y105.235 E14.29248
G1 X121.754 Y105.365 E14.31286
G1 X121.256 Y105.593 E14.33313
G1 X120.808 Y105.911 E14.35346
G1 X120.429 Y106.31 E14.37382
G1 X120.132 Y106.771 E14.39412
G1 X119.928 Y107.281 E14.41445
G1 X119.824 Y107.821 E14.4348
G1 X119.824 Y108.369 E14.45508
G1 X119.928 Y108.909 E14.47543
G1 X120.132 Y109.419 E14.49576
G1 X120.429 Y109.88 E14.51605
G1 X120.808 Y110.279 E14.53642
G1 X121.256 Y110.597 E14.55675
G1 X121.754 Y110.825 E14.57702
G1 X122.289 Y110.955 E14.59739
G1 X122.838 Y110.98 E14.61773
G1 X123.381 Y110.903 E14.63803
G0 F3600 X123.404 Y111
G0 X134.73 Y123.143
G0 X134.8 Y123.213
G1 F1800 X129.049 Y123.226 E14.85086
G1 X90.951 Y123.225 E16.26079
G1 X85.2 Y123.213 E16.47362
G1 X85.2 Y95.995 E17.4809
G1 X134.8 Y95.995 E19.31649
G1 X134.8 Y123.213 E20.32377
G0 F3600 X135.2 Y123.612
;TYPE:WALL-OUTER
G1 F1800 X129.05 Y123.626 E20.55137
G1 X90.95 Y123.625 E21.96137
G1 X84.8 Y123.612 E22.18897
G1 X84.8 Y95.595 E23.22582
G1 X135.2 Y95.595 E25.09102
G1 X135.2 Y123.612 E26.12787
G0 F3600 X135 Y123.612
G0 X134.73 Y123.143
G0 X120.398 Y109.904
G0 X120.097 Y109.437
G0 X119.89 Y108.92
G0 X119.785 Y108.372
G0 X119.785 Y107.818
G0 X119.89 Y107.27
G0 X120.057 Y106.852
G0 X120.71 Y105.871
G0 X121.071 Y106.215
G1 F1800 X120.745 Y106.558 E26.14538
G1 X120.489 Y106.955 E26.16286
G1 X120.314 Y107.394 E26.18035
G1 X120.224 Y107.859 E26.19788
G1 X120.224 Y108.331 E26.21535
G1 X120.314 Y108.796 E26.23288
G1 X120.489 Y109.235 E26.25037
G1 X120.745 Y109.632 E26.26785
G1 X121.071 Y109.975 E26.28536
G1 X121.457 Y110.249 E26.30288
G1 X121.886 Y110.445 E26.32033
G1 X122.346 Y110.557 E26.33786
G1 X122.819 Y110.579 E26.35538
G1 X123.286 Y110.512 E26.37284
G1 X123.734 Y110.357 E26.39038
G1 X124.142 Y110.121 E26.40783
G1 X124.499 Y109.812 E26.4253
G1 X124.792 Y109.44 E26.44282
G1 X125.008 Y109.02 E26.4603
G1 X125.142 Y108.566 E26.47782
G1 X125.187 Y108.095 E26.49533
G1 X125.142 Y107.624 E26.51284
G1 X125.008 Y107.17 E26.53036
G1 X124.792 Y106.75 E26.54784
G1 X124.499 Y106.378 E26.56536
G1 X124.142 Y106.069 E26.58284
G1 X123.734 Y105.833 E26.60028
G1 X123.286 Y105.678 E26.61782
G1 X122.819 Y105.611 E26.63528
G1 X122.346 Y105.633 E26.65281
G1 X121.886 Y105.745 E26.67033
G1 X121.457 Y105.941 E26.68778
G1 X121.071 Y106.215 E26.7053
G0 F3600 X120.934 Y106.36
G0 X120.572 Y106.015
G0 X97.439 Y105.171
G0 X96.884 Y105.196
G0 X96.396 Y105.314
G0 X95.31 Y105.871
G0 X95.671 Y106.215
G1 F1800 X95.345 Y106.558 E26.72281
G1 X95.089 Y106.955 E26.74029
G1 X94.914 Y107.394 E26.75778
G1 X94.824 Y107.859 E26.77531
G1 X94.824 Y108.331 E26.79278
G1 X94.914 Y108.796 E26.81031
G1 X95.089 Y109.235 E26.8278
G1 X95.345 Y109.632 E26.84528
G1 X95.671 Y109.975 E26.86279
G1 X96.057 Y110.249 E26.88031
G1 X96.486 Y110.445 E26.89776
G1 X96.946 Y110.557 E26.91529
G1 X97.419 Y110.579 E26.93281
G1 X97.886 Y110.512 E26.95027
G1 X98.334 Y110.357 E26.96781
G1 X98.742 Y110.121 E26.98526
G1 X99.099 Y109.812 E27.00273
G1 X99.392 Y109.44 E27.02025
G1 X99.608 Y109.02 E27.03773
G1 X99.742 Y108.566 E27.05525
G1 X99.787 Y108.095 E27.07276
G1 X99.742 Y107.624 E27.09027
G1 X99.608 Y107.17 E27.10779
G1 X99.392 Y106.75 E27.12527
G1 X99.099 Y106.378 E27.14279
G1 X98.742 Y106.069 E27.16026
G1 X98.334 Y105.833 E27.17771
G1 X97.886 Y105.678 E27.19525
G1 X97.419 Y105.611 E27.21271
G1 X96.946 Y105.633 E27.23024
G1 X96.486 Y105.745 E27.24776
G1 X96.057 Y105.941 E27.26521
G1 X95.671 Y106.215 E27.28273
G0 F3600 X95.534 Y106.36
G0 X95.172 Y106.015
G0 X95.151 Y105.615
;TYPE:SKIN
G1 F1800 X94.721 Y106.068 E27.30584
G1 X94.383 Y106.591 E27.32889
G1 X94.152 Y107.17 E27.35196
G1 X94.034 Y107.784 E27.3751
G1 X94.034 Y108.406 E27.39812
G1 X94.152 Y109.02 E27.42126
G1 X94.383 Y109.599 E27.44433
G1 X94.721 Y110.122 E27.46737
G1 X95.151 Y110.575 E27.49049
G1 X95.661 Y110.936 E27.51361
G1 X96.225 Y111.195 E27.53658
G1 X96.834 Y111.343 E27.55977
G1 X97.457 Y111.372 E27.58285
G1 X98.073 Y111.284 E27.60588
G1 X98.664 Y111.079 E27.62903
G1 X99.203 Y110.767 E27.65208
G1 X99.673 Y110.36 E27.67509
G1 X100.06 Y109.869 E27.69822
G1 X100.344 Y109.315 E27.72126
G1 X100.521 Y108.716 E27.74438
G1 X100.581 Y108.095 E27.76747
G1 X100.521 Y107.474 E27.79056
G1 X100.344 Y106.875 E27.81367
G1 X100.06 Y106.321 E27.83671
G1 X99.673 Y105.83 E27.85985
G1 X99.203 Y105.423 E27.88286
G1 X98.664 Y105.111 E27.9059
G1 X98.073 Y104.906 E27.92905
G1 X97.457 Y104.818 E27.95208
G1 X96.834 Y104.847 E27.97516
G1 X96.225 Y104.995 E27.99836
G1 X95.661 Y105.254 E28.02133
G1 X95.151 Y105.615 E28.04445
G0 F3600 X85.59 Y96.385
G1 F1800 X134.41 Y96.385 E29.85117
G1 X134.41 Y122.823 E30.82959
G1 X129.049 Y122.836 E31.02799
G1 X90.951 Y122.835 E32.43792
G1 X85.59 Y122.823 E32.63632
G1 X85.59 Y96.385 E33.61473
G0 F3600 X119.434 Y107.784
G1 F1800 X119.434 Y108.406 E33.63775
G1 X119.552 Y109.02 E33.66089
G1 X119.783 Y109.599 E33.68396
G1 X120.121 Y110.122 E33.707
G1 X120.551 Y110.575 E33.73012
G1 X121.061 Y110.936 E33.75324
G1 X121.625 Y111.195 E33.77621
G1 X122.234 Y111.343 E33.7994
G1 X122.857 Y111.372 E33.82248
G1 X123.473 Y111.284 E33.84551
G1 X124.064 Y111.079 E33.86866
G1 X124.603 Y110.767 E33.89171
G1 X125.073 Y110.36 E33.91472
G1 X125.46 Y109.869 E33.93786
G1 X125.744 Y109.315 E33.9609
G1 X125.921 Y108.716 E33.98401
G1 X125.981 Y108.095 E34.0071
G1 X125.921 Y107.474 E34.03019
G1 X125.744 Y106.875 E34.0533
G1 X125.46 Y106.321 E34.07634
G1 X125.073 Y105.83 E34.09948
G1 X124.603 Y105.423 E34.12249
G1 X124.064 Y105.111 E34.14554
G1 X123.473 Y104.906 E34.16869
G1 X122.857 Y104.818 E34.19172
G1 X122.234 Y104.847 E34.2148
G1 X121.625 Y104.995 E34.23799
G1 X121.061 Y105.254 E34.26096
G1 X120.551 Y105.615 E34.28408
G1 X120.121 Y106.068 E34.3072
G1 X119.783 Y106.591 E34.33024
G1 X119.552 Y107.17 E34.35331
G1 X119.434 Y107.784 E34.37645
G0 F3600 X120.398 Y106.286
G0 X120.708 Y105.959
G0 X134.229 Y96.894
G1 F1800 X133.899 Y96.564 E34.39372
G0 F3600 X133.334 Y96.564
G1 F1800 X134.229 Y97.459 E34.44056
G1 X134.299 Y97.529
G0 F3600 X134.229 Y98.025
G1 F1800 X132.768 Y96.564 E34.51703
G1 X132.698 Y96.494
G0 F3600 X132.202 Y96.564
G1 F1800 X134.229 Y98.591 E34.62311
G1 X134.299 Y98.661
G0 F3600 X134.229 Y99.156
G1 F1800 X131.637 Y96.564 E34.75877
G1 X131.567 Y96.494
G0 F3600 X131.071 Y96.564
G1 F1800 X134.229 Y99.722 E34.92405
G1 X134.299 Y99.792
G0 F3600 X134.229 Y100.288
G1 F1800 X130.505 Y96.564 E35.11896
G1 X130.435 Y96.494
G0 F3600 X129.94 Y96.564
G1 F1800 X134.229 Y100.853 E35.34343
G1 X134.299 Y100.923
G0 F3600 X134.229 Y101.419
G1 F1800 X129.374 Y96.564 E35.59753
G1 X129.304 Y96.494
G0 F3600 X128.808 Y96.564
G1 F1800 X134.229 Y101.985 E35.88125
G1 X134.299 Y102.055
G0 F3600 X134.229 Y102.55
G1 F1800 X128.243 Y96.564 E36.19453
G1 X128.173 Y96.494
G0 F3600 X127.677 Y96.564
G1 F1800 X134.229 Y103.116 E36.53745
G1 X134.299 Y103.186
G0 F3600 X134.229 Y103.682
G1 F1800 X127.111 Y96.564 E36.90998
G1 X127.041 Y96.494
G0 F3600 X126.545 Y96.564
G1 F1800 X134.229 Y104.248 E37.31214
G1 X134.299 Y104.318
G0 F3600 X134.229 Y104.813
G1 F1800 X125.98 Y96.564 E37.74387
G1 X125.91 Y96.494
G0 F3600 X125.414 Y96.564
G1 F1800 X134.229 Y105.379 E38.20522
G1 X134.299 Y105.449
G0 F3600 X134.229 Y105.945
G1 F1800 X124.848 Y96.564 E38.69619
G1 X124.778 Y96.494
G0 F3600 X124.283 Y96.564
G1 F1800 X134.229 Y106.51 E39.21674
G1 X134.299 Y106.58
G0 F3600 X134.229 Y107.076
G1 F1800 X123.717 Y96.564 E39.76691
G1 X123.647 Y96.494
G0 F3600 X123.151 Y96.564
G1 F1800 X134.229 Y107.642 E40.3467
G1 X134.299 Y107.712
G0 F3600 X134.229 Y108.207
G1 F1800 X122.586 Y96.564 E40.95606
G1 X122.516 Y96.494
G0 F3600 X122.02 Y96.564
G1 F1800 X134.229 Y108.773 E41.59504
G1 X134.299 Y108.843
G0 F3600 X134.229 Y109.339
G1 F1800 X121.454 Y96.564 E42.26364
G1 X121.384 Y96.494
G0 F3600 X120.889 Y96.564
G1 F1800 X134.229 Y109.904 E42.96182
G1 X134.299 Y109.974
G0 F3600 X134.229 Y110.47
G1 F1800 X120.323 Y96.564 E43.68962
G1 X120.253 Y96.494
G0 F3600 X119.757 Y96.564
G1 F1800 X134.229 Y111.036 E44.44704
G1 X134.299 Y111.106
G0 F3600 X134.229 Y111.601
G1 F1800 X119.192 Y96.564 E45.23403
G1 X119.122 Y96.494
G0 F3600 X118.626 Y96.564
G1 F1800 X134.229 Y112.167 E46.05065
G1 X134.299 Y112.237
G0 F3600 X134.229 Y112.733
G1 F1800 X118.06 Y96.564 E46.89689
G1 X117.99 Y96.494
G0 F3600 X117.494 Y96.564
G1 F1800 X134.229 Y113.299 E47.77275
G1 X134.299 Y113.369
G0 F3600 X134.229 Y113.864
G1 F1800 X116.929 Y96.564 E48.67818
G1 X116.859 Y96.494
G0 F3600 X116.363 Y96.564
G1 F1800 X134.229 Y114.43 E49.61323
G1 X134.299 Y114.5
G0 F3600 X134.229 Y114.996
G1 F1800 X125.774 Y106.541 E50.05574
G1 X125.704 Y106.471
G0 F3600 X126.093 Y107.425
G1 F1800 X134.229 Y115.561 E50.48156
G1 X134.299 Y115.631
G0 F3600 X134.229 Y116.127
G1 F1800 X126.157 Y108.055 E50.90402
G1 X126.087 Y107.985
G0 F3600 X126.113 Y108.577
G1 F1800 X134.229 Y116.693 E51.32879
G1 X134.299 Y116.763
G0 F3600 X134.229 Y117.258
G1 F1800 X126.011 Y109.04 E51.7589
G1 X125.941 Y108.97
G0 F3600 X125.868 Y109.463
G1 F1800 X134.229 Y117.824 E52.19649
G1 X134.299 Y117.894
G0 F3600 X134.229 Y118.39
G1 F1800 X125.677 Y109.838 E52.64407
G1 X125.607 Y109.768
G0 F3600 X125.447 Y110.174
G1 F1800 X134.229 Y118.955 E53.10367
G1 X134.299 Y119.025
G0 F3600 X134.229 Y119.521
G1 F1800 X125.198 Y110.49 E53.57633
G1 X125.128 Y110.42
G0 F3600 X124.894 Y110.752
G1 F1800 X134.229 Y120.087 E54.06489
G1 X134.299 Y120.157
G0 F3600 X134.229 Y120.652
G1 F1800 X124.571 Y110.994 E54.57036
G1 X124.501 Y110.924
G0 F3600 X124.212 Y111.201
G1 F1800 X134.229 Y121.218 E55.09462
G1 X134.299 Y121.288
G0 F3600 X134.229 Y121.784
G1 F1800 X123.804 Y111.359 E55.64024
G1 X123.734 Y111.289
G0 F3600 X123.361 Y111.481
G1 F1800 X134.229 Y122.349 E56.20904
G1 X134.299 Y122.419
G0 F3600 X133.956 Y122.642
G1 F1800 X122.866 Y111.553 E56.78943
G1 X122.796 Y111.483
G0 F3600 X122.273 Y111.525
G1 F1800 X133.392 Y122.644 E57.37136
G1 X133.462 Y122.714
G0 F3600 X132.828 Y122.646
G1 F1800 X121.533 Y111.351 E57.96251
G1 X121.463 Y111.281
G0 F3600 X119.46 Y109.278
G1 F1800 X106.746 Y96.564 E58.62792
G1 X106.676 Y96.494
G0 F3600 X106.181 Y96.564
G1 F1800 X132.264 Y122.647 E59.99303
G1 X132.334 Y122.717
G0 F3600 X131.7 Y122.649
G1 F1800 X105.615 Y96.564 E61.35824
G1 X105.545 Y96.494
G0 F3600 X105.049 Y96.564
G1 F1800 X131.135 Y122.65 E62.72351
G1 X131.205 Y122.72
G0 F3600 X130.571 Y122.651
G1 F1800 X104.484 Y96.564 E64.08883
G1 X104.414 Y96.494
G0 F3600 X103.918 Y96.564
G1 F1800 X130.007 Y122.653 E65.45425
G1 X130.077 Y122.723
G0 F3600 X129.442 Y122.654
G1 F1800 X103.352 Y96.564 E66.81972
G1 X103.282 Y96.494
G0 F3600 X102.787 Y96.564
G1 F1800 X128.877 Y122.655 E68.18522
G1 X128.947 Y122.725
G0 F3600 X128.312 Y122.655
G1 F1800 X102.221 Y96.564 E69.55075
G1 X102.151 Y96.494
G0 F3600 X101.655 Y96.564
G1 F1800 X127.746 Y122.655 E70.91627
G1 X127.816 Y122.725
G0 F3600 X127.18 Y122.655
G1 F1800 X101.09 Y96.564 E72.28177
G1 X101.02 Y96.494
G0 F3600 X100.524 Y96.564
G1 F1800 X126.615 Y122.655 E73.6473
G1 X126.685 Y122.725
G0 F3600 X126.049 Y122.655
G1 F1800 X99.958 Y96.564 E75.01282
G1 X99.888 Y96.494
G0 F3600 X99.393 Y96.564
G1 F1800 X125.483 Y122.655 E76.37832
G1 X125.553 Y122.725
G0 F3600 X124.918 Y122.655
G1 F1800 X98.827 Y96.564 E77.74385
G1 X98.757 Y96.494
G0 F3600 X98.261 Y96.564
G1 F1800 X124.352 Y122.655 E79.10938
G1 X124.422 Y122.725
G0 F3600 X123.786 Y122.655
G1 F1800 X97.695 Y96.564 E80.4749
G1 X97.625 Y96.494
G0 F3600 X97.13 Y96.564
G1 F1800 X123.221 Y122.655 E81.84043
G1 X123.291 Y122.725
G0 F3600 X122.655 Y122.655
G1 F1800 X96.564 Y96.564 E83.20596
G1 X96.494 Y96.494
G0 F3600 X95.998 Y96.564
G1 F1800 X122.089 Y122.655 E84.57148
G1 X122.159 Y122.725
G0 F3600 X121.524 Y122.655
G1 F1800 X95.433 Y96.564 E85.93701
G1 X95.363 Y96.494
G0 F3600 X94.867 Y96.564
G1 F1800 X120.958 Y122.655 E87.30253
G1 X121.028 Y122.725
G0 F3600 X120.392 Y122.655
G1 F1800 X94.301 Y96.564 E88.66806
G1 X94.231 Y96.494
G0 F3600 X93.736 Y96.564
G1 F1800 X119.827 Y122.655 E90.03359
G1 X119.897 Y122.725
G0 F3600 X119.261 Y122.655
G1 F1800 X93.17 Y96.564 E91.39911
G1 X93.1 Y96.494
G0 F3600 X92.604 Y96.564
G1 F1800 X118.695 Y122.655 E92.76464
G1 X118.765 Y122.725
G0 F3600 X118.129 Y122.655
G1 F1800 X92.039 Y96.564 E94.13014
G1 X91.969 Y96.494
G0 F3600 X91.473 Y96.564
G1 F1800 X117.564 Y122.655 E95.49566
G1 X117.634 Y122.725
G0 F3600 X116.998 Y122.655
G1 F1800 X90.907 Y96.564 E96.86119
G1 X90.837 Y96.494
G0 F3600 X90.342 Y96.564
G1 F1800 X98.714 Y104.937 E97.29938
G1 X98.784 Y105.007
G0 F3600 X97.912 Y104.7
G1 F1800 X89.776 Y96.564 E97.7252
G1 X89.706 Y96.494
G0 F3600 X89.21 Y96.564
G1 F1800 X97.29 Y104.644 E98.14808
G1 X97.36 Y104.714
G0 F3600 X96.759 Y104.678
G1 F1800 X88.645 Y96.564 E98.57274
G1 X88.575 Y96.494
G0 F3600 X88.079 Y96.564
G1 F1800 X96.304 Y104.789 E99.00322
G1 X96.374 Y104.859
G0 F3600 X95.895 Y104.946
G1 F1800 X87.513 Y96.564 E99.4419
G1 X87.443 Y96.494
G0 F3600 X86.947 Y96.564
G1 F1800 X95.517 Y105.134 E99.89043
G1 X95.587 Y105.204
G0 F3600 X95.185 Y105.368
G1 F1800 X86.382 Y96.564 E100.35118
G1 X86.312 Y96.494
G0 F3600 X85.816 Y96.564
G1 F1800 X94.885 Y105.633 E100.82583
G1 X94.955 Y105.703
G0 F3600 X94.61 Y105.923
G1 F1800 X85.769 Y97.083 E101.28851
G1 X85.699 Y97.013
G0 F3600 X85.769 Y97.649
G1 F1800 X94.381 Y106.261 E101.73924
G1 X94.451 Y106.331
G0 F3600 X94.176 Y106.621
G1 F1800 X85.769 Y98.215 E102.17921
G1 X85.699 Y98.145
G0 F3600 X85.769 Y98.78
G1 F1800 X94.015 Y107.026 E102.61078
G1 X94.085 Y107.096
G0 F3600 X93.908 Y107.485
G1 F1800 X85.769 Y99.346 E103.03675
G1 X85.699 Y99.276
G0 F3600 X85.769 Y99.912
G1 F1800 X93.854 Y107.996 E103.45987
G1 X93.924 Y108.066
G0 F3600 X93.888 Y108.596
G1 F1800 X85.769 Y100.477 E103.8848
G1 X85.699 Y100.407
G0 F3600 X85.769 Y101.043
G1 F1800 X94.098 Y109.372 E104.32071
G1 X94.168 Y109.442
G0 F3600 X96.03 Y111.303
G1 F1800 X107.381 Y122.654 E104.91479
G1 X107.451 Y122.724
G0 F3600 X107.946 Y122.654
G1 F1800 X96.814 Y111.522 E105.49741
G1 X96.744 Y111.452
G0 F3600 X97.408 Y111.55
G1 F1800 X108.512 Y122.654 E106.07856
G1 X108.582 Y122.724
G0 F3600 X109.078 Y122.654
G1 F1800 X97.911 Y111.488 E106.66298
G1 X97.841 Y111.418
G0 F3600 X98.362 Y111.373
G1 F1800 X109.643 Y122.654 E107.25339
G1 X109.713 Y122.724
G0 F3600 X110.21 Y122.655
G1 F1800 X98.777 Y111.222 E107.85176
G1 X98.707 Y111.152
G0 F3600 X99.135 Y111.015
G1 F1800 X110.776 Y122.655 E108.46099
G1 X110.846 Y122.725
G0 F3600 X111.341 Y122.655
G1 F1800 X99.465 Y110.778 E109.08257
G1 X99.395 Y110.708
G0 F3600 X99.767 Y110.515
G1 F1800 X111.907 Y122.655 E109.71795
G1 X111.977 Y122.725
G0 F3600 X112.473 Y122.655
G1 F1800 X100.023 Y110.205 E110.36954
G1 X99.953 Y110.135
G0 F3600 X100.258 Y109.875
G1 F1800 X113.038 Y122.655 E111.03841
G1 X113.108 Y122.725
G0 F3600 X113.604 Y122.655
G1 F1800 X100.45 Y109.501 E111.72685
G1 X100.38 Y109.431
G0 F3600 X100.599 Y109.084
G1 F1800 X114.17 Y122.655 E112.43712
G1 X114.24 Y122.725
G0 F3600 X114.735 Y122.655
G1 F1800 X100.708 Y108.628 E113.17125
G1 X100.638 Y108.558
G0 F3600 X100.759 Y108.113
G1 F1800 X115.301 Y122.655 E113.93233
G1 X115.371 Y122.725
G0 F3600 X115.867 Y122.655
G1 F1800 X100.703 Y107.491 E114.72597
G1 X100.633 Y107.421
G0 F3600 X100.436 Y106.659
G1 F1800 X116.432 Y122.655 E115.56316
G1 X116.502 Y122.725
G0 F3600 X106.815 Y122.654
G1 F1800 X85.769 Y101.609 E116.66462
G1 X85.699 Y101.539
G0 F3600 X85.769 Y102.174
G1 F1800 X106.249 Y122.654 E117.73648
G1 X106.319 Y122.724
G0 F3600 X105.684 Y122.654
G1 F1800 X85.769 Y102.74 E118.77875
G1 X85.699 Y102.67
G0 F3600 X85.769 Y103.306
G1 F1800 X105.118 Y122.654 E119.79139
G1 X105.188 Y122.724
G0 F3600 X104.552 Y122.654
G1 F1800 X85.769 Y103.871 E120.77444
G1 X85.699 Y103.801
G0 F3600 X85.769 Y104.437
G1 F1800 X103.987 Y122.654 E121.72789
G1 X104.057 Y122.724
G0 F3600 X103.421 Y122.654
G1 F1800 X85.769 Y105.003 E122.65171
G1 X85.699 Y104.933
G0 F3600 X85.769 Y105.568
G1 F1800 X102.855 Y122.654 E123.54595
G1 X102.925 Y122.724
G0 F3600 X102.29 Y122.654
G1 F1800 X85.769 Y106.134 E124.41058
G1 X85.699 Y106.064
G0 F3600 X85.769 Y106.7
G1 F1800 X101.724 Y122.654 E125.24559
G1 X101.794 Y122.724
G0 F3600 X101.158 Y122.654
G1 F1800 X85.769 Y107.265 E126.05101
G1 X85.699 Y107.195
G0 F3600 X85.769 Y107.831
G1 F1800 X100.593 Y122.654 E126.82682
G1 X100.663 Y122.724
G0 F3600 X100.027 Y122.654
G1 F1800 X85.769 Y108.397 E127.57302
G1 X85.699 Y108.327
G0 F3600 X85.769 Y108.963
G1 F1800 X99.461 Y122.654 E128.28959
G1 X99.531 Y122.724
G0 F3600 X98.895 Y122.654
G1 F1800 X85.769 Y109.528 E128.97657
G1 X85.699 Y109.458
G0 F3600 X85.769 Y110.094
G1 F1800 X98.33 Y122.654 E129.63395
G1 X98.4 Y122.724
G0 F3600 X97.764 Y122.654
G1 F1800 X85.769 Y110.66 E130.26171
G1 X85.699 Y110.59
G0 F3600 X85.769 Y111.225
G1 F1800 X97.198 Y122.654 E130.85987
G1 X97.268 Y122.724
G0 F3600 X96.633 Y122.654
G1 F1800 X85.769 Y111.791 E131.42843
G1 X85.699 Y111.721
G0 F3600 X85.769 Y112.357
G1 F1800 X96.067 Y122.654 E131.96737
G1 X96.137 Y122.724
G0 F3600 X95.501 Y122.654
G1 F1800 X85.769 Y112.922 E132.47671
G1 X85.699 Y112.852
G0 F3600 X85.769 Y113.488
G1 F1800 X94.936 Y122.654 E132.95646
G1 X95.006 Y122.724
G0 F3600 X94.37 Y122.654
G1 F1800 X85.769 Y114.054 E133.40659
G1 X85.699 Y113.984
G0 F3600 X85.769 Y114.619
G1 F1800 X93.804 Y122.654 E133.82712
G1 X93.874 Y122.724
G0 F3600 X93.239 Y122.654
G1 F1800 X85.769 Y115.185 E134.21805
G1 X85.699 Y115.115
G0 F3600 X85.769 Y115.751
G1 F1800 X92.673 Y122.654 E134.57936
G1 X92.743 Y122.724
G0 F3600 X92.107 Y122.654
G1 F1800 X85.769 Y116.316 E134.91107
G1 X85.699 Y116.246
G0 F3600 X85.769 Y116.882
G1 F1800 X91.542 Y122.654 E135.21318
G1 X91.612 Y122.724
G0 F3600 X90.976 Y122.654
G1 F1800 X85.769 Y117.448 E135.48568
G1 X85.699 Y117.378
G0 F3600 X85.769 Y118.014
G1 F1800 X90.409 Y122.653 E135.72849
G1 X90.479 Y122.723
G0 F3600 X89.842 Y122.651
G1 F1800 X85.769 Y118.579 E135.94164
G1 X85.699 Y118.509
G0 F3600 X85.769 Y119.145
G1 F1800 X89.275 Y122.65 E136.1251
G1 X89.345 Y122.72
G0 F3600 X88.707 Y122.649
G1 F1800 X85.769 Y119.711 E136.27887
G1 X85.699 Y119.641
G0 F3600 X85.769 Y120.276
G1 F1800 X88.14 Y122.647 E136.40296
G1 X88.21 Y122.717
G0 F3600 X87.573 Y122.646
G1 F1800 X85.769 Y120.842 E136.49738
G1 X85.699 Y120.772
G0 F3600 X85.769 Y121.408
G1 F1800 X87.007 Y122.645 E136.56215
G1 X87.077 Y122.715
G0 F3600 X86.44 Y122.644
G1 F1800 X85.769 Y121.973 E136.59726
G1 X85.699 Y121.903
G0 F3600 X85.769 Y122.539
G1 F1800 X85.873 Y122.642 E136.60268
G0 F3600 X99.418 Y110.116
G0 X99.613 Y109.869
G0 X107.312 Y96.564
G1 F1800 X119.274 Y108.526 E137.22874
G1 X119.344 Y108.596
G0 F3600 X119.253 Y107.939
G1 F1800 X107.878 Y96.564 E137.82407
G1 X107.808 Y96.494
G0 F3600 X108.444 Y96.564
G1 F1800 X119.317 Y107.437 E138.39313
G1 X119.387 Y107.507
G0 F3600 X119.431 Y106.985
G1 F1800 X109.009 Y96.564 E138.93856
G1 X108.939 Y96.494
G0 F3600 X109.575 Y96.564
G1 F1800 X119.592 Y106.581 E139.46282
G1 X119.662 Y106.651
G0 F3600 X119.803 Y106.227
G1 F1800 X110.141 Y96.564 E139.96853
G1 X110.071 Y96.494
G0 F3600 X110.706 Y96.564
G1 F1800 X120.037 Y105.894 E140.45686
G1 X120.107 Y105.964
G0 F3600 X120.312 Y105.604
G1 F1800 X111.272 Y96.564 E140.92999
G1 X111.202 Y96.494
G0 F3600 X111.838 Y96.564
G1 F1800 X120.618 Y105.345 E141.38953
G1 X120.688 Y105.415
G0 F3600 X120.949 Y105.11
G1 F1800 X112.403 Y96.564 E141.8368
G1 X112.333 Y96.494
G0 F3600 X112.969 Y96.564
G1 F1800 X121.333 Y104.928 E142.27455
G1 X121.403 Y104.998
G0 F3600 X121.748 Y104.778
G1 F1800 X113.535 Y96.564 E142.70442
G1 X113.465 Y96.494
G0 F3600 X114.1 Y96.564
G1 F1800 X122.204 Y104.668 E143.12856
G1 X122.274 Y104.738
G0 F3600 X122.744 Y104.642
G1 F1800 X114.666 Y96.564 E143.55134
G1 X114.596 Y96.494
G0 F3600 X115.232 Y96.564
G1 F1800 X123.378 Y104.711 E143.9777
G1 X123.448 Y104.781
G0 F3600 X124.233 Y105
G1 F1800 X115.797 Y96.564 E144.41922
G1 X115.727 Y96.494
G0 F3600 X98.998 Y110.48
G0 X98.004 Y111
G0 X97.981 Y110.903
;TIME_ELAPSED:140.804005
;LAYER:1
M140 S50
M106 S255
G0 F5400 X97.981 Y110.903 Z0.4
;TYPE:WALL-INNER
G1 F2700 X98.501 Y110.722 E144.4396
G1 X98.975 Y110.448 E144.45986
G1 X99.39 Y110.089 E144.48017
G1 X99.73 Y109.657 E144.50051
G1 X99.981 Y109.169 E144.52082
G1 X100.137 Y108.642 E144.54116
G1 X100.189 Y108.095 E144.56149
G1 X100.137 Y107.548 E144.58183
G1 X99.981 Y107.021 E144.60217
G1 X99.73 Y106.533 E144.62248
G1 X99.39 Y106.101 E144.64282
G1 X98.975 Y105.742 E144.66313
G1 X98.501 Y105.468 E144.68339
G1 X97.981 Y105.287 E144.70377
G1 X97.438 Y105.21 E144.72406
G1 X96.889 Y105.235 E144.7444
G1 X96.354 Y105.365 E144.76478
G1 X95.856 Y105.593 E144.78505
G1 X95.408 Y105.911 E144.80538
G1 X95.029 Y106.31 E144.82574
G1 X94.732 Y106.771 E144.84604
G1 X94.528 Y107.281 E144.86637
G1 X94.424 Y107.821 E144.88672
G1 X94.424 Y108.369 E144.907
G1 X94.528 Y108.909 E144.92735
G1 X94.732 Y109.419 E144.94768
G1 X95.029 Y109.88 E144.96797
G1 X95.408 Y110.279 E144.98834
G1 X95.856 Y110.597 E145.00867
G1 X96.354 Y110.825 E145.02894
G1 X96.889 Y110.955 E145.04932
G1 X97.438 Y110.98 E145.06965
G1 X97.981 Y110.903 E145.08995
G0 F5400 X98.004 Y111
G0 X123.404 Y111
G0 X123.381 Y110.903
G1 F2700 X123.901 Y110.722 E145.11033
G1 X124.375 Y110.448 E145.13059
G1 X124.79 Y110.089 E145.1509
G1 X125.13 Y109.657 E145.17124
G1 X125.381 Y109.169 E145.19155
G1 X125.537 Y108.642 E145.21189
G1 X125.589 Y108.095 E145.23222
G1 X125.537 Y107.548 E145.25256
G1 X125.381 Y107.021 E145.2729
G1 X125.13 Y106.533 E145.29321
G1 X124.79 Y106.101 E145.31355
G1 X124.375 Y105.742 E145.33386
G1 X123.901 Y105.468 E145.35412
G1 X123.381 Y105.287 E145.3745
G1 X122.838 Y105.21 E145.39479
G1 X122.289 Y105.235 E145.41513
G1 X121.754 Y105.365 E145.43551
G1 X121.256 Y105.593 E145.45578
G1 X120.808 Y105.911 E145.47611
G1 X120.429 Y106.31 E145.49647
G1 X120.132 Y106.771 E145.51677
G1 X119.928 Y107.281 E145.5371
G1 X119.824 Y107.821 E145.55745
G1 X119.824 Y108.369 E145.57773
G1 X119.928 Y108.909 E145.59808
G1 X120.132 Y109.419 E145.61841
G1 X120.429 Y109.88 E145.6387
G1 X120.808 Y110.279 E145.65907
G1 X121.256 Y110.597 E145.6794
G1 X121.754 Y110.825 E145.69967
G1 X122.289 Y110.955 E145.72005
G1 X122.838 Y110.98 E145.74038
G1 X123.381 Y110.903 E145.76068
G0 F5400 X123.404 Y111
G0 X134.73 Y123.48
G0 X134.8 Y123.55
G1 F2700 X85.2 Y123.55 E147.59627
G1 X85.2 Y95.995 E148.61602
G1 X134.8 Y95.995 E150.45162
G1 X134.8 Y123.55 E151.47137
G0 F5400 X135.2 Y123.95
;TYPE:WALL-OUTER
G1 F1800 X84.8 Y123.95 E153.33657
G1 X84.8 Y95.595 E154.38592
G1 X135.2 Y95.595 E156.25112
G1 X135.2 Y123.95 E157.30048
G0 F5400 X135 Y123.95
G0 X134.73 Y123.48
G0 X120.398 Y109.904
G0 X120.097 Y109.437
G0 X119.89 Y108.92
G0 X119.785 Y108.372
G0 X119.785 Y107.818
G0 X119.89 Y107.27
G0 X120.057 Y106.852
G0 X120.71 Y105.871
G0 X121.071 Y106.215
G1 F1800 X120.745 Y106.558 E157.31799
G1 X120.489 Y106.955 E157.33547
G1 X120.314 Y107.394 E157.35296
G1 X120.224 Y107.859 E157.37049
G1 X120.224 Y108.331 E157.38796
G1 X120.314 Y108.796 E157.40549
G1 X120.489 Y109.235 E157.42298
G1 X120.745 Y109.632 E157.44046
G1 X121.071 Y109.975 E157.45797
G1 X121.457 Y110.249 E157.47549
G1 X121.886 Y110.445 E157.49294
G1 X122.346 Y110.557 E157.51047
G1 X122.819 Y110.579 E157.52799
G1 X123.286 Y110.512 E157.54545
G1 X123.734 Y110.357 E157.56299
G1 X124.142 Y110.121 E157.58044
G1 X124.499 Y109.812 E157.59791
G1 X124.792 Y109.44 E157.61543
G1 X125.008 Y109.02 E157.63291
G1 X125.142 Y108.566 E157.65043
G1 X125.187 Y108.095 E157.66794
G1 X125.142 Y107.624 E157.68545
G1 X125.008 Y107.17 E157.70297
G1 X124.792 Y106.75 E157.72045
G1 X124.499 Y106.378 E157.73797
G1 X124.142 Y106.069 E157.75545
G1 X123.734 Y105.833 E157.77289
G1 X123.286 Y105.678 E157.79043
G1 X122.819 Y105.611 E157.80789
G1 X122.346 Y105.633 E157.82542
G1 X121.886 Y105.745 E157.84294
G1 X121.457 Y105.941 E157.86039
G1 X121.071 Y106.215 E157.87791
G0 F5400 X120.934 Y106.36
G0 X120.572 Y106.015
G0 X97.439 Y105.171
G0 X96.884 Y105.196
G0 X96.396 Y105.314
G0 X95.31 Y105.871
G0 X95.671 Y106.215
G1 F1800 X95.345 Y106.558 E157.89542
G1 X95.089 Y106.955 E157.9129
G1 X94.914 Y107.394 E157.93039
G1 X94.824 Y107.859 E157.94792
G1 X94.824 Y108.331 E157.96539
G1 X94.914 Y108.796 E157.98292
G1 X95.089 Y109.235 E158.00041
G1 X95.345 Y109.632 E158.01789
G1 X95.671 Y109.975 E158.0354
G1 X96.057 Y110.249 E158.05292
G1 X96.486 Y110.445 E158.07037
G1 X96.946 Y110.557 E158.0879
G1 X97.419 Y110.579 E158.10542
G1 X97.886 Y110.512 E158.12288
G1 X98.334 Y110.357 E158.14042
G1 X98.742 Y110.121 E158.15787
G1 X99.099 Y109.812 E158.17534
G1 X99.392 Y109.44 E158.19286
G1 X99.608 Y109.02 E158.21034
G1 X99.742 Y108.566 E158.22786
G1 X99.787 Y108.095 E158.24537
G1 X99.742 Y107.624 E158.26288
G1 X99.608 Y107.17 E158.2804
G1 X99.392 Y106.75 E158.29788
G1 X99.099 Y106.378 E158.3154
G1 X98.742 Y106.069 E158.33287
G1 X98.334 Y105.833 E158.35032
G1 X97.886 Y105.678 E158.36786
G1 X97.419 Y105.611 E158.38532
G1 X96.946 Y105.633 E158.40285
G1 X96.486 Y105.745 E158.42037
G1 X96.057 Y105.941 E158.43782
G1 X95.671 Y106.215 E158.45534
G0 F5400 X95.534 Y106.36
G0 X95.172 Y106.015
G0 X95.151 Y105.615
;TYPE:SKIN
G1 F1800 X94.721 Y106.068 E158.47845
G1 X94.383 Y106.591 E158.5015
G1 X94.152 Y107.17 E158.52457
G1 X94.034 Y107.784 E158.54771
G1 X94.034 Y108.406 E158.57073
G1 X94.152 Y109.02 E158.59387
G1 X94.383 Y109.599 E158.61694
G1 X94.721 Y110.122 E158.63998
G1 X95.151 Y110.575 E158.6631
G1 X95.661 Y110.936 E158.68622
G1 X96.225 Y111.195 E158.70919
G1 X96.834 Y111.343 E158.73238
G1 X97.457 Y111.372 E158.75546
G1 X98.073 Y111.284 E158.77849
G1 X98.664 Y111.079 E158.80164
G1 X99.203 Y110.767 E158.82469
G1 X99.673 Y110.36 E158.8477
G1 X100.06 Y109.869 E158.87083
G1 X100.344 Y109.315 E158.89387
G1 X100.521 Y108.716 E158.91699
G1 X100.581 Y108.095 E158.94008
G1 X100.521 Y107.474 E158.96317
G1 X100.344 Y106.875 E158.98628
G1 X100.06 Y106.321 E159.00932
G1 X99.673 Y105.83 E159.03246
G1 X99.203 Y105.423 E159.05547
G1 X98.664 Y105.111 E159.07851
G1 X98.073 Y104.906 E159.10166
G1 X97.457 Y104.818 E159.12469
G1 X96.834 Y104.847 E159.14777
G1 X96.225 Y104.995 E159.17097
G1 X95.661 Y105.254 E159.19394
G1 X95.151 Y105.615 E159.21706
G0 F5400 X85.59 Y96.385
G1 F1800 X134.41 Y96.385 E161.02378
G1 X134.41 Y123.16 E162.01467
G1 X85.59 Y123.16 E163.8214
G1 X85.59 Y96.385 E164.81228
G0 F5400 X119.434 Y107.784
G1 F1800 X119.434 Y108.406 E164.8353
G1 X119.552 Y109.02 E164.85844
G1 X119.783 Y109.599 E164.88151
G1 X120.121 Y110.122 E164.90455
G1 X120.551 Y110.575 E164.92767
G1 X121.061 Y110.936 E164.95079
G1 X121.625 Y111.195 E164.97376
G1 X122.234 Y111.343 E164.99696
G1 X122.857 Y111.372 E165.02004
G1 X123.473 Y111.284 E165.04306
G1 X124.064 Y111.079 E165.06621
G1 X124.603 Y110.767 E165.08926
G1 X125.073 Y110.36 E165.11227
G1 X125.46 Y109.869 E165.13541
G1 X125.744 Y109.315 E165.15845
G1 X125.921 Y108.716 E165.18156
G1 X125.981 Y108.095 E165.20465
G1 X125.921 Y107.474 E165.22774
G1 X125.744 Y106.875 E165.25086
G1 X125.46 Y106.321 E165.2739
G1 X125.073 Y105.83 E165.29703
G1 X124.603 Y105.423 E165.32004
G1 X124.064 Y105.111 E165.34309
G1 X123.473 Y104.906 E165.36624
G1 X122.857 Y104.818 E165.38927
G1 X122.234 Y104.847 E165.41235
G1 X121.625 Y104.995 E165.43554
G1 X121.061 Y105.254 E165.45851
G1 X120.551 Y105.615 E165.48163
G1 X120.121 Y106.068 E165.50475
G1 X119.783 Y106.591 E165.52779
G1 X119.552 Y107.17 E165.55086
G1 X119.434 Y107.784 E165.574
G0 F5400 X120.097 Y109.437
G0 X120.398 Y109.904
G0 X134.228 Y122.592
G1 F1800 X133.841 Y122.98 E165.59428
G0 F5400 X133.275 Y122.98
G1 F1800 X134.228 Y122.026 E165.64419
G1 X134.298 Y121.956
G0 F5400 X134.228 Y121.461
G1 F1800 X132.709 Y122.98 E165.72369
G1 X132.639 Y123.05
G0 F5400 X132.144 Y122.98
G1 F1800 X134.228 Y120.895 E165.83278
G1 X134.298 Y120.825
G0 F5400 X134.228 Y120.329
G1 F1800 X131.578 Y122.98 E165.9715
G1 X131.508 Y123.05
G0 F5400 X131.012 Y122.98
G1 F1800 X134.228 Y119.764 E166.13982
G1 X134.298 Y119.694
G0 F5400 X134.228 Y119.198
G1 F1800 X130.447 Y122.98 E166.33773
G1 X130.377 Y123.05
G0 F5400 X129.881 Y122.98
G1 F1800 X134.228 Y118.632 E166.56527
G1 X134.298 Y118.562
G0 F5400 X134.228 Y118.067
G1 F1800 X129.315 Y122.98 E166.8224
G1 X129.245 Y123.05
G0 F5400 X128.75 Y122.98
G1 F1800 X134.228 Y117.501 E167.10913
G1 X134.298 Y117.431
G0 F5400 X134.228 Y116.935
G1 F1800 X128.184 Y122.98 E167.42548
G1 X128.114 Y123.05
G0 F5400 X127.618 Y122.98
G1 F1800 X134.228 Y116.369 E167.77145
G1 X134.298 Y116.299
G0 F5400 X134.228 Y115.804
G1 F1800 X127.052 Y122.98 E168.14702
G1 X126.982 Y123.05
G0 F5400 X126.487 Y122.98
G1 F1800 X134.228 Y115.238 E168.55219
G1 X134.298 Y115.168
G0 F5400 X134.228 Y114.672
G1 F1800 X125.921 Y122.98 E168.98698
G1 X125.851 Y123.05
G0 F5400 X125.355 Y122.98
G1 F1800 X134.228 Y114.107 E169.45137
G1 X134.298 Y114.037
G0 F5400 X134.228 Y113.541
G1 F1800 X124.79 Y122.98 E169.94535
G1 X124.72 Y123.05
G0 F5400 X124.224 Y122.98
G1 F1800 X134.228 Y112.975 E170.46896
G1 X134.298 Y112.905
G0 F5400 X134.228 Y112.41
G1 F1800 X123.658 Y122.98 E171.02216
G1 X123.588 Y123.05
G0 F5400 X123.093 Y122.98
G1 F1800 X134.228 Y111.844 E171.60496
G1 X134.298 Y111.774
G0 F5400 X134.228 Y111.278
G1 F1800 X122.527 Y122.98 E172.21738
G1 X122.457 Y123.05
G0 F5400 X121.961 Y122.98
G1 F1800 X134.228 Y110.713 E172.8594
G1 X134.298 Y110.643
G0 F5400 X134.228 Y110.147
G1 F1800 X121.396 Y122.98 E173.53101
G1 X121.326 Y123.05
G0 F5400 X120.83 Y122.98
G1 F1800 X134.228 Y109.581 E174.23225
G1 X134.298 Y109.511
G0 F5400 X134.228 Y109.016
G1 F1800 X120.264 Y122.98 E174.96309
G1 X120.194 Y123.05
G0 F5400 X119.699 Y122.98
G1 F1800 X134.228 Y108.45 E175.72352
G1 X134.298 Y108.38
G0 F5400 X134.228 Y107.884
G1 F1800 X119.133 Y122.98 E176.51357
G1 X119.063 Y123.05
G0 F5400 X118.567 Y122.98
G1 F1800 X134.228 Y107.319 E177.33322
G1 X134.298 Y107.249
G0 F5400 X134.228 Y106.753
G1 F1800 X118.001 Y122.98 E178.1825
G1 X117.931 Y123.05
G0 F5400 X117.436 Y122.98
G1 F1800 X134.228 Y106.187 E179.06137
G1 X134.298 Y106.117
G0 F5400 X134.228 Y105.621
G1 F1800 X116.87 Y122.98 E179.96986
G1 X116.8 Y123.05
G0 F5400 X116.304 Y122.98
G1 F1800 X134.228 Y105.056 E180.90795
G1 X134.298 Y104.986
G0 F5400 X134.228 Y104.49
G1 F1800 X115.739 Y122.98 E181.87563
G1 X115.669 Y123.05
G0 F5400 X115.173 Y122.98
G1 F1800 X134.228 Y103.924 E182.87294
G1 X134.298 Y103.854
G0 F5400 X134.228 Y103.359
G1 F1800 X114.607 Y122.98 E183.89985
G1 X114.537 Y123.05
G0 F5400 X114.042 Y122.98
G1 F1800 X134.228 Y102.793 E184.95635
G1 X134.298 Y102.723
G0 F5400 X134.228 Y102.227
G1 F1800 X113.476 Y122.98 E186.04248
G1 X113.406 Y123.05
G0 F5400 X112.91 Y122.98
G1 F1800 X134.228 Y101.662 E187.1582
G1 X134.298 Y101.592
G0 F5400 X134.228 Y101.096
G1 F1800 X125.877 Y109.447 E187.59526
G1 X125.807 Y109.517
G0 F5400 X126.107 Y108.651
G1 F1800 X134.228 Y100.53 E188.02029
G1 X134.298 Y100.46
G0 F5400 X134.228 Y99.965
G1 F1800 X126.156 Y108.037 E188.44276
G1 X126.086 Y108.107
G0 F5400 X126.105 Y107.522
G1 F1800 X134.228 Y99.399 E188.86789
G1 X134.298 Y99.329
G0 F5400 X134.228 Y98.833
G1 F1800 X125.99 Y107.072 E189.29907
G1 X125.92 Y107.142
G0 F5400 X125.836 Y106.66
G1 F1800 X134.228 Y98.268 E189.73828
G1 X134.298 Y98.198
G0 F5400 X134.228 Y97.702
G1 F1800 X125.644 Y106.286 E190.18754
G1 X125.574 Y106.356
G0 F5400 X125.404 Y105.96
G1 F1800 X134.228 Y97.136 E190.64937
G1 X134.298 Y97.066
G0 F5400 X134.228 Y96.57
G1 F1800 X125.144 Y105.655 E191.12482
G1 X125.074 Y105.725
G0 F5400 X124.841 Y105.392
G1 F1800 X133.669 Y96.564 E191.58685
G1 X133.739 Y96.494
G0 F5400 X133.103 Y96.564
G1 F1800 X124.508 Y105.16 E192.03672
G1 X124.438 Y105.23
G0 F5400 X124.149 Y104.953
G1 F1800 X132.537 Y96.564 E192.47575
G1 X132.607 Y96.494
G0 F5400 X131.972 Y96.564
G1 F1800 X123.73 Y104.805 E192.90708
G1 X123.66 Y104.875
G0 F5400 X123.274 Y104.696
G1 F1800 X131.406 Y96.564 E193.33269
G1 X131.476 Y96.494
G0 F5400 X130.84 Y96.564
G1 F1800 X122.763 Y104.641 E193.75541
G1 X122.693 Y104.711
G0 F5400 X122.16 Y104.679
G1 F1800 X130.275 Y96.564 E194.18013
G1 X130.345 Y96.494
G0 F5400 X129.709 Y96.564
G1 F1800 X121.352 Y104.921 E194.61751
G1 X121.282 Y104.991
G0 F5400 X119.524 Y106.749
G1 F1800 X103.294 Y122.98 E195.46697
G1 X103.224 Y123.05
G0 F5400 X103.859 Y122.98
G1 F1800 X119.295 Y107.543 E196.27487
G1 X119.365 Y107.473
G0 F5400 X119.253 Y108.151
G1 F1800 X104.425 Y122.98 E197.05095
G1 X104.355 Y123.05
G0 F5400 X104.991 Y122.98
G1 F1800 X119.3 Y108.67 E197.79986
G1 X119.37 Y108.6
G0 F5400 X119.402 Y109.134
G1 F1800 X105.556 Y122.98 E198.52452
G1 X105.486 Y123.05
G0 F5400 X106.122 Y122.98
G1 F1800 X119.563 Y109.538 E199.22801
G1 X119.633 Y109.468
G0 F5400 X119.764 Y109.903
G1 F1800 X106.688 Y122.98 E199.9124
G1 X106.618 Y123.05
G0 F5400 X107.253 Y122.98
G1 F1800 X119.988 Y110.245 E200.57891
G1 X120.058 Y110.175
G0 F5400 X120.264 Y110.535
G1 F1800 X107.819 Y122.98 E201.23024
G1 X107.749 Y123.05
G0 F5400 X108.385 Y122.98
G1 F1800 X120.561 Y110.803 E201.86753
G1 X120.631 Y110.733
G0 F5400 X120.892 Y111.038
G1 F1800 X108.951 Y122.98 E202.49251
G1 X108.881 Y123.05
G0 F5400 X109.516 Y122.98
G1 F1800 X121.267 Y111.229 E203.10752
G1 X121.337 Y111.159
G0 F5400 X121.671 Y111.391
G1 F1800 X110.082 Y122.98 E203.71406
G1 X110.012 Y123.05
G0 F5400 X110.648 Y122.98
G1 F1800 X122.125 Y111.502 E204.31476
G1 X122.195 Y111.432
G0 F5400 X122.651 Y111.542
G1 F1800 X111.213 Y122.98 E204.91339
G1 X111.143 Y123.05
G0 F5400 X111.779 Y122.98
G1 F1800 X123.264 Y111.495 E205.51448
G1 X123.334 Y111.425
G0 F5400 X124.051 Y111.273
G1 F1800 X112.345 Y122.98 E206.12716
G1 X112.275 Y123.05
G0 F5400 X102.728 Y122.98
G1 F1800 X129.143 Y96.564 E207.50967
G1 X129.213 Y96.494
G0 F5400 X128.578 Y96.564
G1 F1800 X102.162 Y122.98 E208.89221
G1 X102.092 Y123.05
G0 F5400 X101.597 Y122.98
G1 F1800 X128.012 Y96.564 E210.27472
G1 X128.082 Y96.494
G0 F5400 X127.446 Y96.564
G1 F1800 X101.031 Y122.98 E211.65723
G1 X100.961 Y123.05
G0 F5400 X100.465 Y122.98
G1 F1800 X126.881 Y96.564 E213.03976
G1 X126.951 Y96.494
G0 F5400 X126.315 Y96.564
G1 F1800 X99.9 Y122.98 E214.42227
G1 X99.83 Y123.05
G0 F5400 X99.334 Y122.98
G1 F1800 X125.749 Y96.564 E215.80478
G1 X125.819 Y96.494
G0 F5400 X125.184 Y96.564
G1 F1800 X98.768 Y122.98 E217.18732
G1 X98.698 Y123.05
G0 F5400 X98.202 Y122.98
G1 F1800 X124.618 Y96.564 E218.56985
G1 X124.688 Y96.494
G0 F5400 X124.052 Y96.564
G1 F1800 X97.637 Y122.98 E219.95236
G1 X97.567 Y123.05
G0 F5400 X97.071 Y122.98
G1 F1800 X123.487 Y96.564 E221.3349
G1 X123.557 Y96.494
G0 F5400 X122.921 Y96.564
G1 F1800 X96.505 Y122.98 E222.71743
G1 X96.435 Y123.05
G0 F5400 X95.94 Y122.98
G1 F1800 X122.355 Y96.564 E224.09994
G1 X122.425 Y96.494
G0 F5400 X121.789 Y96.564
G1 F1800 X95.374 Y122.98 E225.48245
G1 X95.304 Y123.05
G0 F5400 X94.808 Y122.98
G1 F1800 X121.224 Y96.564 E226.86499
G1 X121.294 Y96.494
G0 F5400 X120.658 Y96.564
G1 F1800 X94.243 Y122.98 E228.2475
G1 X94.173 Y123.05
G0 F5400 X93.677 Y122.98
G1 F1800 X120.092 Y96.564 E229.63001
G1 X120.162 Y96.494
G0 F5400 X119.527 Y96.564
G1 F1800 X93.111 Y122.98 E231.01254
G1 X93.041 Y123.05
G0 F5400 X92.546 Y122.98
G1 F1800 X118.961 Y96.564 E232.39505
G1 X119.031 Y96.494
G0 F5400 X118.395 Y96.564
G1 F1800 X91.98 Y122.98 E233.77756
G1 X91.91 Y123.05
G0 F5400 X91.414 Y122.98
G1 F1800 X117.83 Y96.564 E235.1601
G1 X117.9 Y96.494
G0 F5400 X117.264 Y96.564
G1 F1800 X90.849 Y122.98 E236.54261
G1 X90.779 Y123.05
G0 F5400 X90.283 Y122.98
G1 F1800 X116.698 Y96.564 E237.92512
G1 X116.768 Y96.494
G0 F5400 X116.133 Y96.564
G1 F1800 X89.717 Y122.98 E239.30765
G1 X89.647 Y123.05
G0 F5400 X89.152 Y122.98
G1 F1800 X115.567 Y96.564 E240.69016
G1 X115.637 Y96.494
G0 F5400 X115.001 Y96.564
G1 F1800 X88.586 Y122.98 E242.07267
G1 X88.516 Y123.05
G0 F5400 X88.02 Y122.98
G1 F1800 X114.436 Y96.564 E243.45521
G1 X114.506 Y96.494
G0 F5400 X113.87 Y96.564
G1 F1800 X87.454 Y122.98 E244.83774
G1 X87.384 Y123.05
G0 F5400 X86.889 Y122.98
G1 F1800 X98.566 Y111.302 E245.44891
G1 X98.636 Y111.232
G0 F5400 X97.799 Y111.503
G1 F1800 X86.323 Y122.98 E246.04955
G1 X86.253 Y123.05
G0 F5400 X85.769 Y122.967
G1 F1800 X97.198 Y111.539 E246.64769
G1 X97.268 Y111.469
G0 F5400 X96.681 Y111.49
G1 F1800 X85.769 Y122.402 E247.21879
G1 X85.699 Y122.472
G0 F5400 X85.769 Y121.836
G1 F1800 X96.226 Y111.379 E247.76608
G1 X96.296 Y111.309
G0 F5400 X95.829 Y111.21
G1 F1800 X85.769 Y121.27 E248.29259
G1 X85.699 Y121.34
G0 F5400 X85.769 Y120.705
G1 F1800 X95.461 Y111.013 E248.79984
G1 X95.531 Y110.943
G0 F5400 X95.129 Y110.779
G1 F1800 X85.769 Y120.139 E249.28971
G1 X85.699 Y120.209
G0 F5400 X85.769 Y119.573
G1 F1800 X94.837 Y110.505 E249.76431
G1 X94.907 Y110.435
G0 F5400 X94.564 Y110.213
G1 F1800 X85.769 Y119.008 E250.22461
G1 X85.699 Y119.078
G0 F5400 X85.769 Y118.442
G1 F1800 X94.342 Y109.869 E250.6733
G1 X94.412 Y109.799
G0 F5400 X94.148 Y109.498
G1 F1800 X85.769 Y117.876 E251.1118
G1 X85.699 Y117.946
G0 F5400 X85.769 Y117.311
G1 F1800 X93.987 Y109.093 E251.54191
G1 X94.057 Y109.023
G0 F5400 X93.892 Y108.622
G1 F1800 X85.769 Y116.745 E251.96704
G1 X85.699 Y116.815
G0 F5400 X85.769 Y116.179
G1 F1800 X93.853 Y108.096 E252.39011
G1 X93.923 Y108.026
G0 F5400 X93.909 Y107.474
G1 F1800 X85.769 Y115.614 E252.81613
G1 X85.699 Y115.684
G0 F5400 X85.769 Y115.048
G1 F1800 X94.162 Y106.655 E253.2554
G1 X94.232 Y106.585
G0 F5400 X95.849 Y104.968
G1 F1800 X104.253 Y96.564 E253.69524
G1 X104.323 Y96.494
G0 F5400 X103.688 Y96.564
G1 F1800 X85.769 Y114.482 E254.63304
G1 X85.699 Y114.552
G0 F5400 X85.769 Y113.917
G1 F1800 X103.122 Y96.564 E255.54125
G1 X103.192 Y96.494
G0 F5400 X102.556 Y96.564
G1 F1800 X85.769 Y113.351 E256.41983
G1 X85.699 Y113.421
G0 F5400 X85.769 Y112.785
G1 F1800 X101.99 Y96.564 E257.26879
G1 X102.06 Y96.494
G0 F5400 X101.425 Y96.564
G1 F1800 X85.769 Y112.219 E258.08815
G1 X85.699 Y112.289
G0 F5400 X85.769 Y111.654
G1 F1800 X100.859 Y96.564 E258.87792
G1 X100.929 Y96.494
G0 F5400 X100.293 Y96.564
G1 F1800 X85.769 Y111.088 E259.63806
G1 X85.699 Y111.158
G0 F5400 X85.769 Y110.522
G1 F1800 X99.728 Y96.564 E260.36861
G1 X99.798 Y96.494
G0 F5400 X99.162 Y96.564
G1 F1800 X85.769 Y109.957 E261.06956
G1 X85.699 Y110.027
G0 F5400 X85.769 Y109.391
G1 F1800 X98.596 Y96.564 E261.74088
G1 X98.666 Y96.494
G0 F5400 X98.031 Y96.564
G1 F1800 X85.769 Y108.825 E262.38261
G1 X85.699 Y108.895
G0 F5400 X85.769 Y108.26
G1 F1800 X97.465 Y96.564 E262.99475
G1 X97.535 Y96.494
G0 F5400 X96.899 Y96.564
G1 F1800 X85.769 Y107.694 E263.57726
G1 X85.699 Y107.764
G0 F5400 X85.769 Y107.128
G1 F1800 X96.334 Y96.564 E264.13017
G1 X96.404 Y96.494
G0 F5400 X95.768 Y96.564
G1 F1800 X85.769 Y106.563 E264.65349
G1 X85.699 Y106.633
G0 F5400 X85.769 Y105.997
G1 F1800 X95.202 Y96.564 E265.14719
G1 X95.272 Y96.494
G0 F5400 X94.637 Y96.564
G1 F1800 X85.769 Y105.431 E265.61129
G1 X85.699 Y105.501
G0 F5400 X85.769 Y104.866
G1 F1800 X94.071 Y96.564 E266.04579
G1 X94.141 Y96.494
G0 F5400 X93.505 Y96.564
G1 F1800 X85.769 Y104.3 E266.45067
G1 X85.699 Y104.37
G0 F5400 X85.769 Y103.734
G1 F1800 X92.939 Y96.564 E266.82593
G1 X93.009 Y96.494
G0 F5400 X92.374 Y96.564
G1 F1800 X85.769 Y103.169 E267.17161
G1 X85.699 Y103.239
G0 F5400 X85.769 Y102.603
G1 F1800 X91.808 Y96.564 E267.48768
G1 X91.878 Y96.494
G0 F5400 X91.242 Y96.564
G1 F1800 X85.769 Y102.037 E267.77412
G1 X85.699 Y102.107
G0 F5400 X85.769 Y101.471
G1 F1800 X90.677 Y96.564 E268.03096
G1 X90.747 Y96.494
G0 F5400 X90.111 Y96.564
G1 F1800 X85.769 Y100.906 E268.25821
G1 X85.699 Y100.976
G0 F5400 X85.769 Y100.34
G1 F1800 X89.545 Y96.564 E268.45583
G1 X89.615 Y96.494
G0 F5400 X88.98 Y96.564
G1 F1800 X85.769 Y99.774 E268.62386
G1 X85.699 Y99.844
G0 F5400 X85.769 Y99.209
G1 F1800 X88.414 Y96.564 E268.76229
G1 X88.484 Y96.494
G0 F5400 X87.848 Y96.564
G1 F1800 X85.769 Y98.643 E268.8711
G1 X85.699 Y98.713
G0 F5400 X85.769 Y98.077
G1 F1800 X87.283 Y96.564 E268.95031
G1 X87.353 Y96.494
G0 F5400 X86.717 Y96.564
G1 F1800 X85.769 Y97.512 E268.99993
G1 X85.699 Y97.582
G0 F5400 X85.769 Y96.946
G1 F1800 X86.151 Y96.564 E269.01992
G0 F5400 X96.687 Y104.696
G1 F1800 X104.819 Y96.564 E269.44553
G1 X104.889 Y96.494
G0 F5400 X105.385 Y96.564
G1 F1800 X97.305 Y104.644 E269.86841
G1 X97.235 Y104.714
G0 F5400 X97.826 Y104.689
G1 F1800 X105.95 Y96.564 E270.29362
G1 X106.02 Y96.494
G0 F5400 X106.516 Y96.564
G1 F1800 X98.289 Y104.791 E270.7242
G1 X98.219 Y104.861
G0 F5400 X98.709 Y104.936
G1 F1800 X107.082 Y96.564 E271.16239
G1 X107.152 Y96.494
G0 F5400 X107.647 Y96.564
G1 F1800 X99.073 Y105.139 E271.61116
G1 X99.003 Y105.209
G0 F5400 X99.412 Y105.365
G1 F1800 X108.213 Y96.564 E272.07177
G1 X108.283 Y96.494
G0 F5400 X108.779 Y96.564
G1 F1800 X99.715 Y105.628 E272.54616
G1 X99.645 Y105.698
G0 F5400 X99.981 Y105.928
G1 F1800 X109.344 Y96.564 E273.03621
G1 X109.414 Y96.494
G0 F5400 X109.91 Y96.564
G1 F1800 X100.226 Y106.248 E273.54305
G1 X100.156 Y106.318
G0 F5400 X100.418 Y106.622
G1 F1800 X110.476 Y96.564 E274.06945
G1 X110.546 Y96.494
G0 F5400 X111.041 Y96.564
G1 F1800 X100.578 Y107.028 E274.61708
G1 X100.508 Y107.098
G0 F5400 X100.701 Y107.47
G1 F1800 X111.607 Y96.564 E275.18787
G1 X111.677 Y96.494
G0 F5400 X112.173 Y96.564
G1 F1800 X100.752 Y107.985 E275.78561
G1 X100.682 Y108.055
G0 F5400 X100.713 Y108.589
G1 F1800 X112.738 Y96.564 E276.41496
G1 X112.808 Y96.494
G0 F5400 X113.304 Y96.564
G1 F1800 X100.523 Y109.345 E277.08388
G1 X100.453 Y109.415
G0 F5400 X99.144 Y110.373
G0 X98.004 Y111
G0 X97.981 Y110.903
;TIME_ELAPSED:264.679638
;LAYER:2
G0 F7200 X97.981 Y110.903 Z0.6
;TYPE:WALL-INNER
G1 F3600 X98.501 Y110.722 E277.10426
G1 X98.975 Y110.448 E277.12452
G1 X99.39 Y110.089 E277.14483
G1 X99.73 Y109.657 E277.16517
G1 X99.981 Y109.169 E277.18548
G1 X100.137 Y108.642 E277.20582
G1 X100.189 Y108.095 E277.22616
G1 X100.137 Y107.548 E277.24649
G1 X99.981 Y107.021 E277.26683
G1 X99.73 Y106.533 E277.28714
G1 X99.39 Y106.101 E277.30749
G1 X98.975 Y105.742 E277.32779
G1 X98.501 Y105.468 E277.34806
G1 X97.981 Y105.287 E277.36843
G1 X97.438 Y105.21 E277.38873
G1 X96.889 Y105.235 E277.40907
G1 X96.354 Y105.365 E277.42944
G1 X95.856 Y105.593 E277.44971
G1 X95.408 Y105.911 E277.47004
G1 X95.029 Y106.31 E277.49041
G1 X94.732 Y106.771 E277.5107
G1 X94.528 Y107.281 E277.53103
G1 X94.424 Y107.821 E277.55138
G1 X94.424 Y108.369 E277.57166
G1 X94.528 Y108.909 E277.59201
G1 X94.732 Y109.419 E277.61234
G1 X95.029 Y109.88 E277.63264
G1 X95.408 Y110.279 E277.653
G1 X95.856 Y110.597 E277.67334
G1 X96.354 Y110.825 E277.6936
G1 X96.889 Y110.955 E277.71398
G1 X97.438 Y110.98 E277.73432
G1 X97.981 Y110.903 E277.75461
G0 F7200 X98.004 Y111
G0 X123.404 Y111
G0 X123.381 Y110.903
G1 F3600 X123.901 Y110.722 E277.77499
G1 X124.375 Y110.448 E277.79525
G1 X124.79 Y110.089 E277.81556
G1 X125.13 Y109.657 E277.83591
G1 X125.381 Y109.169 E277.85621
G1 X125.537 Y108.642 E277.87655
G1 X125.589 Y108.095 E277.89689
G1 X125.537 Y107.548 E277.91722
G1 X125.381 Y107.021 E277.93756
G1 X125.13 Y106.533 E277.95787
G1 X124.79 Y106.101 E277.97822
G1 X124.375 Y105.742 E277.99852
G1 X123.901 Y105.468 E278.01879
G1 X123.381 Y105.287 E278.03916
G1 X122.838 Y105.21 E278.05946
G1 X122.289 Y105.235 E278.0798
G1 X121.754 Y105.365 E278.10017
G1 X121.256 Y105.593 E278.12044
G1 X120.808 Y105.911 E278.14077
G1 X120.429 Y106.31 E278.16114
G1 X120.132 Y106.771 E278.18143
G1 X119.928 Y107.281 E278.20176
G1 X119.824 Y107.821 E278.22211
G1 X119.824 Y108.369 E278.24239
G1 X119.928 Y108.909 E278.26275
G1 X120.132 Y109.419 E278.28307
G1 X120.429 Y109.88 E278.30337
G1 X120.808 Y110.279 E278.32373
G1 X121.256 Y110.597 E278.34407
G1 X121.754 Y110.825 E278.36434
G1 X122.289 Y110.955 E278.38471
G1 X122.838 Y110.98 E278.40505
G1 X123.381 Y110.903 E278.42535
G0 F7200 X123.404 Y111
G0 X134.73 Y123.672
G0 X134.8 Y123.742
G1 F3600 X85.4 Y123.743 E280.25353
G1 X85.2 Y123.743 E280.26094
G1 X85.2 Y123.543 E280.26573
G1 X85.2 Y95.995 E281.28522
G1 X134.8 Y95.995 E283.12081
G1 X134.8 Y123.742 E284.14767
G0 F7200 X135.2 Y124.142
;TYPE:WALL-OUTER
G1 F1800 X85 Y124.143 E286.00547
G1 X84.8 Y124.143 E286.01287
G1 X84.8 Y123.943 E286.01766
G1 X84.8 Y95.595 E287.06676
G1 X135.2 Y95.595 E288.93196
G1 X135.2 Y124.142 E289.98842
G0 F7200 X135 Y124.142
G0 X134.73 Y123.672
G0 X120.398 Y109.904
G0 X120.097 Y109.437
G0 X119.89 Y108.92
G0 X119.785 Y108.372
G0 X119.785 Y107.818
G0 X119.89 Y107.27
G0 X120.057 Y106.852
G0 X120.71 Y105.871
G0 X121.071 Y106.215
G1 F1800 X120.745 Y106.558 E290.00594
G1 X120.489 Y106.955 E290.02342
G1 X120.314 Y107.394 E290.04091
G1 X120.224 Y107.859 E290.05843
G1 X120.224 Y108.331 E290.0759
G1 X120.314 Y108.796 E290.09343
G1 X120.489 Y109.235 E290.11092
G1 X120.745 Y109.632 E290.1284
G1 X121.071 Y109.975 E290.14591
G1 X121.457 Y110.249 E290.16343
G1 X121.886 Y110.445 E290.18089
G1 X122.346 Y110.557 E290.19841
G1 X122.819 Y110.579 E290.21593
G1 X123.286 Y110.512 E290.23339
G1 X123.734 Y110.357 E290.25094
G1 X124.142 Y110.121 E290.26838
G1 X124.499 Y109.812 E290.28585
G1 X124.792 Y109.44 E290.30338
G1 X125.008 Y109.02 E290.32086
G1 X125.142 Y108.566 E290.33837
G1 X125.187 Y108.095 E290.35588
G1 X125.142 Y107.624 E290.37339
G1 X125.008 Y107.17 E290.39091
G1 X124.792 Y106.75 E290.40839
G1 X124.499 Y106.378 E290.42591
G1 X124.142 Y106.069 E290.44339
G1 X123.734 Y105.833 E290.46083
G1 X123.286 Y105.678 E290.47837
G1 X122.819 Y105.611 E290.49583
G1 X122.346 Y105.633 E290.51336
G1 X121.886 Y105.745 E290.53088
G1 X121.457 Y105.941 E290.54833
G1 X121.071 Y106.215 E290.56585
G0 F7200 X120.934 Y106.36
G0 X120.572 Y106.015
G0 X97.439 Y105.171
G0 X96.884 Y105.196
G0 X96.396 Y105.314
G0 X95.31 Y105.871
G0 X95.671 Y106.215
G1 F1800 X95.345 Y106.558 E290.58336
G1 X95.089 Y106.955 E290.60085
G1 X94.914 Y107.394 E290.61834
G1 X94.824 Y107.859 E290.63586
G1 X94.824 Y108.331 E290.65333
G1 X94.914 Y108.796 E290.67086
G1 X95.089 Y109.235 E290.68835
G1 X95.345 Y109.632 E290.70583
G1 X95.671 Y109.975 E290.72334
G1 X96.057 Y110.249 E290.74086
G1 X96.486 Y110.445 E290.75832
G1 X96.946 Y110.557 E290.77584
G1 X97.419 Y110.579 E290.79336
G1 X97.886 Y110.512 E290.81082
G1 X98.334 Y110.357 E290.82837
G1 X98.742 Y110.121 E290.84581
G1 X99.099 Y109.812 E290.86328
G1 X99.392 Y109.44 E290.88081
G1 X99.608 Y109.02 E290.89828
G1 X99.742 Y108.566 E290.9158
G1 X99.787 Y108.095 E290.93331
G1 X99.742 Y107.624 E290.95082
G1 X99.608 Y107.17 E290.96834
G1 X99.392 Y106.75 E290.98582
G1 X99.099 Y106.378 E291.00334
G1 X98.742 Y106.069 E291.02082
G1 X98.334 Y105.833 E291.03826
G1 X97.886 Y105.678 E291.0558
G1 X97.419 Y105.611 E291.07326
G1 X96.946 Y105.633 E291.09079
G1 X96.486 Y105.745 E291.10831
G1 X96.057 Y105.941 E291.12576
G1 X95.671 Y106.215 E291.14328
G0 F7200 X95.534 Y106.36
G0 X95.172 Y106.015
G0 X95.151 Y105.615
;TYPE:SKIN
G1 F1800 X94.721 Y106.068 E291.1664
G1 X94.383 Y106.591 E291.18944
G1 X94.152 Y107.17 E291.21251
G1 X94.034 Y107.784 E291.23565
G1 X94.034 Y108.406 E291.25867
G1 X94.152 Y109.02 E291.28181
G1 X94.383 Y109.599 E291.30488
G1 X94.721 Y110.122 E291.32792
G1 X95.151 Y110.575 E291.35104
G1 X95.661 Y110.936 E291.37416
G1 X96.225 Y111.195 E291.39713
G1 X96.834 Y111.343 E291.42032
G1 X97.457 Y111.372 E291.4434
G1 X98.073 Y111.284 E291.46643
G1 X98.664 Y111.079 E291.48958
G1 X99.203 Y110.767 E291.51263
G1 X99.673 Y110.36 E291.53564
G1 X100.06 Y109.869 E291.55878
G1 X100.344 Y109.315 E291.58182
G1 X100.521 Y108.716 E291.60493
G1 X100.581 Y108.095 E291.62802
G1 X100.521 Y107.474 E291.65111
G1 X100.344 Y106.875 E291.67422
G1 X100.06 Y106.321 E291.69726
G1 X99.673 Y105.83 E291.7204
G1 X99.203 Y105.423 E291.74341
G1 X98.664 Y105.111 E291.76646
G1 X98.073 Y104.906 E291.78961
G1 X97.457 Y104.818 E291.81264
G1 X96.834 Y104.847 E291.83572
G1 X96.225 Y104.995 E291.85891
G1 X95.661 Y105.254 E291.88188
G1 X95.151 Y105.615 E291.905
G0 F7200 X85.59 Y96.385
G1 F1800 X134.41 Y96.385 E293.71173
G1 X134.41 Y123.352 E294.70972
G1 X85.59 Y123.353 E296.51644
G1 X85.59 Y96.385 E297.51447
G0 F7200 X119.434 Y107.784
G1 F1800 X119.434 Y108.406 E297.53749
G1 X119.552 Y109.02 E297.56063
G1 X119.783 Y109.599 E297.5837
G1 X120.121 Y110.122 E297.60675
G1 X120.551 Y110.575 E297.62986
G1 X121.061 Y110.936 E297.65298
G1 X121.625 Y111.195 E297.67595
G1 X122.234 Y111.343 E297.69915
G1 X122.857 Y111.372 E297.72223
G1 X123.473 Y111.284 E297.74526
G1 X124.064 Y111.079 E297.76841
G1 X124.603 Y110.767 E297.79145
G1 X125.073 Y110.36 E297.81446
G1 X125.46 Y109.869 E297.8376
G1 X125.744 Y109.315 E297.86064
G1 X125.921 Y108.716 E297.88375
G1 X125.981 Y108.095 E297.90684
G1 X125.921 Y107.474 E297.92993
G1 X125.744 Y106.875 E297.95305
G1 X125.46 Y106.321 E297.97609
G1 X125.073 Y105.83 E297.99922
G1 X124.603 Y105.423 E298.02223
G1 X124.064 Y105.111 E298.04528
G1 X123.473 Y104.906 E298.06843
G1 X122.857 Y104.818 E298.09146
G1 X122.234 Y104.847 E298.11454
G1 X121.625 Y104.995 E298.13773
G1 X121.061 Y105.254 E298.1607
G1 X120.551 Y105.615 E298.18382
G1 X120.121 Y106.068 E298.20694
G1 X119.783 Y106.591 E298.22998
G1 X119.552 Y107.17 E298.25305
G1 X119.434 Y107.784 E298.27619
G0 F7200 X120.398 Y106.286
G0 X120.708 Y105.959
G0 X134.229 Y96.894
G1 F1800 X133.899 Y96.564 E298.29346
G0 F7200 X133.334 Y96.564
G1 F1800 X134.229 Y97.459 E298.34031
G1 X134.299 Y97.529
G0 F7200 X134.229 Y98.025
G1 F1800 X132.768 Y96.564 E298.41677
G1 X132.698 Y96.494
G0 F7200 X132.202 Y96.564
G1 F1800 X134.229 Y98.591 E298.52286
G1 X134.299 Y98.661
G0 F7200 X134.229 Y99.156
G1 F1800 X131.637 Y96.564 E298.65852
G1 X131.567 Y96.494
G0 F7200 X131.071 Y96.564
G1 F1800 X134.229 Y99.722 E298.8238
G1 X134.299 Y99.792
G0 F7200 X134.229 Y100.288
G1 F1800 X130.505 Y96.564 E299.0187
G1 X130.435 Y96.494
G0 F7200 X129.94 Y96.564
G1 F1800 X134.229 Y100.853 E299.24317
G1 X134.299 Y100.923
G0 F7200 X134.229 Y101.419
G1 F1800 X129.374 Y96.564 E299.49727
G1 X129.304 Y96.494
G0 F7200 X128.808 Y96.564
G1 F1800 X134.229 Y101.985 E299.78099
G1 X134.299 Y102.055
G0 F7200 X134.229 Y102.55
G1 F1800 X128.243 Y96.564 E300.09428
G1 X128.173 Y96.494
G0 F7200 X127.677 Y96.564
G1 F1800 X134.229 Y103.116 E300.43719
G1 X134.299 Y103.186
G0 F7200 X134.229 Y103.682
G1 F1800 X127.111 Y96.564 E300.80973
G1 X127.041 Y96.494
G0 F7200 X126.545 Y96.564
G1 F1800 X134.229 Y104.248 E301.21188
G1 X134.299 Y104.318
G0 F7200 X134.229 Y104.813
G1 F1800 X125.98 Y96.564 E301.64361
G1 X125.91 Y96.494
G0 F7200 X125.414 Y96.564
G1 F1800 X134.229 Y105.379 E302.10496
G1 X134.299 Y105.449
G0 F7200 X134.229 Y105.945
G1 F1800 X124.848 Y96.564 E302.59594
G1 X124.778 Y96.494
G0 F7200 X124.283 Y96.564
G1 F1800 X134.229 Y106.51 E303.11648
G1 X134.299 Y106.58
G0 F7200 X134.229 Y107.076
G1 F1800 X123.717 Y96.564 E303.66665
G1 X123.647 Y96.494
G0 F7200 X123.151 Y96.564
G1 F1800 X134.229 Y107.642 E304.24644
G1 X134.299 Y107.712
G0 F7200 X134.229 Y108.207
G1 F1800 X122.586 Y96.564 E304.8558
G1 X122.516 Y96.494
G0 F7200 X122.02 Y96.564
G1 F1800 X134.229 Y108.773 E305.49478
G1 X134.299 Y108.843
G0 F7200 X134.229 Y109.339
G1 F1800 X121.454 Y96.564 E306.16339
G1 X121.384 Y96.494
G0 F7200 X120.889 Y96.564
G1 F1800 X134.229 Y109.904 E306.86156
G1 X134.299 Y109.974
G0 F7200 X134.229 Y110.47
G1 F1800 X120.323 Y96.564 E307.58936
G1 X120.253 Y96.494
G0 F7200 X119.757 Y96.564
G1 F1800 X134.229 Y111.036 E308.34678
G1 X134.299 Y111.106
G0 F7200 X134.229 Y111.601
G1 F1800 X119.192 Y96.564 E309.13378
G1 X119.122 Y96.494
G0 F7200 X118.626 Y96.564
G1 F1800 X134.229 Y112.167 E309.95039
G1 X134.299 Y112.237
G0 F7200 X134.229 Y112.733
G1 F1800 X118.06 Y96.564 E310.79663
G1 X117.99 Y96.494
G0 F7200 X117.494 Y96.564
G1 F1800 X134.229 Y113.299 E311.67249
G1 X134.299 Y113.369
G0 F7200 X134.229 Y113.864
G1 F1800 X116.929 Y96.564 E312.57792
G1 X116.859 Y96.494
G0 F7200 X116.363 Y96.564
G1 F1800 X134.229 Y114.43 E313.51298
G1 X134.299 Y114.5
G0 F7200 X134.229 Y114.996
G1 F1800 X125.774 Y106.541 E313.95549
G1 X125.704 Y106.471
G0 F7200 X126.093 Y107.425
G1 F1800 X134.229 Y115.561 E314.3813
G1 X134.299 Y115.631
G0 F7200 X134.229 Y116.127
G1 F1800 X126.157 Y108.055 E314.80376
G1 X126.087 Y107.985
G0 F7200 X126.113 Y108.577
G1 F1800 X134.229 Y116.693 E315.22853
G1 X134.299 Y116.763
G0 F7200 X134.229 Y117.258
G1 F1800 X126.011 Y109.04 E315.65864
G1 X125.941 Y108.97
G0 F7200 X125.868 Y109.463
G1 F1800 X134.229 Y117.824 E316.09623
G1 X134.299 Y117.894
G0 F7200 X134.229 Y118.39
G1 F1800 X125.677 Y109.838 E316.54381
G1 X125.607 Y109.768
G0 F7200 X125.447 Y110.174
G1 F1800 X134.229 Y118.955 E317.00341
G1 X134.299 Y119.025
G0 F7200 X134.229 Y119.521
G1 F1800 X125.198 Y110.49 E317.47607
G1 X125.128 Y110.42
G0 F7200 X124.894 Y110.752
G1 F1800 X134.229 Y120.087 E317.96463
G1 X134.299 Y120.157
G0 F7200 X134.229 Y120.652
G1 F1800 X124.571 Y110.994 E318.47011
G1 X124.501 Y110.924
G0 F7200 X124.212 Y111.201
G1 F1800 X134.229 Y121.218 E318.99437
G1 X134.299 Y121.288
G0 F7200 X134.229 Y121.784
G1 F1800 X123.804 Y111.359 E319.53998
G1 X123.734 Y111.289
G0 F7200 X123.361 Y111.481
G1 F1800 X134.229 Y122.349 E320.10878
G1 X134.299 Y122.419
G0 F7200 X134.229 Y122.915
G1 F1800 X122.866 Y111.553 E320.70346
G1 X122.796 Y111.483
G0 F7200 X122.273 Y111.525
G1 F1800 X133.919 Y123.171 E321.31298
G1 X133.989 Y123.241
G0 F7200 X133.353 Y123.171
G1 F1800 X121.533 Y111.351 E321.9316
G1 X121.463 Y111.281
G0 F7200 X119.46 Y109.278
G1 F1800 X106.746 Y96.564 E322.59701
G1 X106.676 Y96.494
G0 F7200 X106.181 Y96.564
G1 F1800 X132.788 Y123.171 E323.98955
G1 X132.858 Y123.241
G0 F7200 X132.222 Y123.171
G1 F1800 X105.615 Y96.564 E325.38208
G1 X105.545 Y96.494
G0 F7200 X105.049 Y96.564
G1 F1800 X131.656 Y123.171 E326.77461
G1 X131.726 Y123.241
G0 F7200 X131.091 Y123.171
G1 F1800 X104.484 Y96.564 E328.16714
G1 X104.414 Y96.494
G0 F7200 X103.918 Y96.564
G1 F1800 X130.525 Y123.171 E329.55967
G1 X130.595 Y123.241
G0 F7200 X129.959 Y123.171
G1 F1800 X103.352 Y96.564 E330.95221
G1 X103.282 Y96.494
G0 F7200 X102.787 Y96.564
G1 F1800 X129.394 Y123.171 E332.34474
G1 X129.464 Y123.241
G0 F7200 X128.828 Y123.171
G1 F1800 X102.221 Y96.564 E333.73727
G1 X102.151 Y96.494
G0 F7200 X101.655 Y96.564
G1 F1800 X128.262 Y123.171 E335.1298
G1 X128.332 Y123.241
G0 F7200 X127.697 Y123.171
G1 F1800 X101.09 Y96.564 E336.52233
G1 X101.02 Y96.494
G0 F7200 X100.524 Y96.564
G1 F1800 X127.131 Y123.171 E337.91487
G1 X127.201 Y123.241
G0 F7200 X126.565 Y123.171
G1 F1800 X99.958 Y96.564 E339.3074
G1 X99.888 Y96.494
G0 F7200 X99.393 Y96.564
G1 F1800 X126 Y123.171 E340.69993
G1 X126.07 Y123.241
G0 F7200 X125.434 Y123.171
G1 F1800 X98.827 Y96.564 E342.09246
G1 X98.757 Y96.494
G0 F7200 X98.261 Y96.564
G1 F1800 X124.868 Y123.171 E343.48499
G1 X124.938 Y123.241
G0 F7200 X124.303 Y123.171
G1 F1800 X97.695 Y96.564 E344.87755
G1 X97.625 Y96.494
G0 F7200 X97.13 Y96.564
G1 F1800 X123.737 Y123.171 E346.27008
G1 X123.807 Y123.241
G0 F7200 X123.171 Y123.171
G1 F1800 X96.564 Y96.564 E347.66262
G1 X96.494 Y96.494
G0 F7200 X95.998 Y96.564
G1 F1800 X122.605 Y123.171 E349.05515
G1 X122.675 Y123.241
G0 F7200 X122.04 Y123.171
G1 F1800 X95.433 Y96.564 E350.44768
G1 X95.363 Y96.494
G0 F7200 X94.867 Y96.564
G1 F1800 X121.474 Y123.171 E351.84021
G1 X121.544 Y123.241
G0 F7200 X120.908 Y123.171
G1 F1800 X94.301 Y96.564 E353.23275
G1 X94.231 Y96.494
G0 F7200 X93.736 Y96.564
G1 F1800 X120.343 Y123.171 E354.62528
G1 X120.413 Y123.241
G0 F7200 X119.777 Y123.171
G1 F1800 X93.17 Y96.564 E356.01781
G1 X93.1 Y96.494
G0 F7200 X92.604 Y96.564
G1 F1800 X119.211 Y123.171 E357.41034
G1 X119.281 Y123.241
G0 F7200 X118.646 Y123.171
G1 F1800 X92.039 Y96.564 E358.80287
G1 X91.969 Y96.494
G0 F7200 X91.473 Y96.564
G1 F1800 X118.08 Y123.171 E360.19541
G1 X118.15 Y123.241
G0 F7200 X117.514 Y123.171
G1 F1800 X90.907 Y96.564 E361.58794
G1 X90.837 Y96.494
G0 F7200 X90.342 Y96.564
G1 F1800 X98.714 Y104.937 E362.02613
G1 X98.784 Y105.007
G0 F7200 X97.912 Y104.7
G1 F1800 X89.776 Y96.564 E362.45194
G1 X89.706 Y96.494
G0 F7200 X89.21 Y96.564
G1 F1800 X97.29 Y104.644 E362.87483
G1 X97.36 Y104.714
G0 F7200 X96.759 Y104.678
G1 F1800 X88.645 Y96.564 E363.29949
G1 X88.575 Y96.494
G0 F7200 X88.079 Y96.564
G1 F1800 X96.304 Y104.789 E363.72996
G1 X96.374 Y104.859
G0 F7200 X95.895 Y104.946
G1 F1800 X87.513 Y96.564 E364.16865
G1 X87.443 Y96.494
G0 F7200 X86.947 Y96.564
G1 F1800 X95.517 Y105.134 E364.61718
G1 X95.587 Y105.204
G0 F7200 X95.185 Y105.368
G1 F1800 X86.382 Y96.564 E365.07793
G1 X86.312 Y96.494
G0 F7200 X85.816 Y96.564
G1 F1800 X94.885 Y105.633 E365.55257
G1 X94.955 Y105.703
G0 F7200 X94.61 Y105.923
G1 F1800 X85.769 Y97.083 E366.01526
G1 X85.699 Y97.013
G0 F7200 X85.769 Y97.649
G1 F1800 X94.381 Y106.261 E366.46599
G1 X94.451 Y106.331
G0 F7200 X94.176 Y106.621
G1 F1800 X85.769 Y98.215 E366.90596
G1 X85.699 Y98.145
G0 F7200 X85.769 Y98.78
G1 F1800 X94.015 Y107.026 E367.33753
G1 X94.085 Y107.096
G0 F7200 X93.908 Y107.485
G1 F1800 X85.769 Y99.346 E367.7635
G1 X85.699 Y99.276
G0 F7200 X85.769 Y99.912
G1 F1800 X93.854 Y107.996 E368.18662
G1 X93.924 Y108.066
G0 F7200 X93.888 Y108.596
G1 F1800 X85.769 Y100.477 E368.61154
G1 X85.699 Y100.407
G0 F7200 X85.769 Y101.043
G1 F1800 X94.098 Y109.372 E369.04746
G1 X94.168 Y109.442
G0 F7200 X96.03 Y111.303
G1 F1800 X107.898 Y123.171 E369.6686
G1 X107.968 Y123.241
G0 F7200 X108.463 Y123.171
G1 F1800 X96.814 Y111.522 E370.27827
G1 X96.744 Y111.452
G0 F7200 X97.408 Y111.55
G1 F1800 X109.029 Y123.171 E370.88648
G1 X109.099 Y123.241
G0 F7200 X109.595 Y123.171
G1 F1800 X97.911 Y111.488 E371.49796
G1 X97.841 Y111.418
G0 F7200 X98.362 Y111.373
G1 F1800 X110.16 Y123.171 E372.11543
G1 X110.23 Y123.241
G0 F7200 X110.726 Y123.171
G1 F1800 X98.777 Y111.222 E372.74081
G1 X98.707 Y111.152
G0 F7200 X99.135 Y111.015
G1 F1800 X111.292 Y123.171 E373.37704
G1 X111.362 Y123.241
G0 F7200 X111.857 Y123.171
G1 F1800 X99.465 Y110.778 E374.02563
G1 X99.395 Y110.708
G0 F7200 X99.767 Y110.515
G1 F1800 X112.423 Y123.171 E374.68801
G1 X112.493 Y123.241
G0 F7200 X112.989 Y123.171
G1 F1800 X100.023 Y110.205 E375.36661
G1 X99.953 Y110.135
G0 F7200 X100.258 Y109.875
G1 F1800 X113.554 Y123.171 E376.06248
G1 X113.624 Y123.241
G0 F7200 X114.12 Y123.171
G1 F1800 X100.45 Y109.501 E376.77793
G1 X100.38 Y109.431
G0 F7200 X100.599 Y109.084
G1 F1800 X114.686 Y123.171 E377.5152
G1 X114.756 Y123.241
G0 F7200 X115.252 Y123.171
G1 F1800 X100.708 Y108.628 E378.27637
G1 X100.638 Y108.558
G0 F7200 X100.759 Y108.113
G1 F1800 X115.817 Y123.171 E379.06446
G1 X115.887 Y123.241
G0 F7200 X116.383 Y123.171
G1 F1800 X100.703 Y107.491 E379.8851
G1 X100.633 Y107.421
G0 F7200 X100.436 Y106.659
G1 F1800 X116.949 Y123.171 E380.74932
G1 X117.019 Y123.241
G0 F7200 X107.332 Y123.171
G1 F1800 X85.769 Y101.609 E381.87784
G1 X85.699 Y101.539
G0 F7200 X85.769 Y102.174
G1 F1800 X106.766 Y123.171 E382.97676
G1 X106.836 Y123.241
G0 F7200 X106.201 Y123.171
G1 F1800 X85.769 Y102.74 E384.04608
G1 X85.699 Y102.67
G0 F7200 X85.769 Y103.306
G1 F1800 X105.635 Y123.171 E385.08578
G1 X105.705 Y123.241
G0 F7200 X105.069 Y123.171
G1 F1800 X85.769 Y103.871 E386.09589
G1 X85.699 Y103.801
G0 F7200 X85.769 Y104.437
G1 F1800 X104.504 Y123.171 E387.0764
G1 X104.574 Y123.241
G0 F7200 X103.938 Y123.171
G1 F1800 X85.769 Y105.003 E388.02728
G1 X85.699 Y104.933
G0 F7200 X85.769 Y105.568
G1 F1800 X103.372 Y123.171 E388.94857
G1 X103.442 Y123.241
G0 F7200 X102.806 Y123.171
G1 F1800 X85.769 Y106.134 E389.84024
G1 X85.699 Y106.064
G0 F7200 X85.769 Y106.7
G1 F1800 X102.241 Y123.171 E390.70231
G1 X102.311 Y123.241
G0 F7200 X101.675 Y123.171
G1 F1800 X85.769 Y107.265 E391.53478
G1 X85.699 Y107.195
G0 F7200 X85.769 Y107.831
G1 F1800 X101.109 Y123.171 E392.33763
G1 X101.179 Y123.241
G0 F7200 X100.544 Y123.171
G1 F1800 X85.769 Y108.397 E393.11089
G1 X85.699 Y108.327
G0 F7200 X85.769 Y108.963
G1 F1800 X99.978 Y123.171 E393.85452
G1 X100.048 Y123.241
G0 F7200 X99.412 Y123.171
G1 F1800 X85.769 Y109.528 E394.56855
G1 X85.699 Y109.458
G0 F7200 X85.769 Y110.094
G1 F1800 X98.847 Y123.171 E395.25299
G1 X98.917 Y123.241
G0 F7200 X98.281 Y123.171
G1 F1800 X85.769 Y110.66 E395.90781
G1 X85.699 Y110.59
G0 F7200 X85.769 Y111.225
G1 F1800 X97.715 Y123.171 E396.53302
G1 X97.785 Y123.241
G0 F7200 X97.15 Y123.171
G1 F1800 X85.769 Y111.791 E397.12865
G1 X85.699 Y111.721
G0 F7200 X85.769 Y112.357
G1 F1800 X96.584 Y123.171 E397.69464
G1 X96.654 Y123.241
G0 F7200 X96.018 Y123.171
G1 F1800 X85.769 Y112.922 E398.23105
G1 X85.699 Y112.852
G0 F7200 X85.769 Y113.488
G1 F1800 X95.453 Y123.171 E398.73785
G1 X95.523 Y123.241
G0 F7200 X94.887 Y123.171
G1 F1800 X85.769 Y114.054 E399.21504
G1 X85.699 Y113.984
G0 F7200 X85.769 Y114.619
G1 F1800 X94.321 Y123.171 E399.66262
G1 X94.391 Y123.241
G0 F7200 X93.755 Y123.171
G1 F1800 X85.769 Y115.185 E400.08059
G1 X85.699 Y115.115
G0 F7200 X85.769 Y115.751
G1 F1800 X93.19 Y123.171 E400.46895
G1 X93.26 Y123.241
G0 F7200 X92.624 Y123.171
G1 F1800 X85.769 Y116.316 E400.82772
G1 X85.699 Y116.246
G0 F7200 X85.769 Y116.882
G1 F1800 X92.058 Y123.171 E401.15687
G1 X92.128 Y123.241
G0 F7200 X91.493 Y123.171
G1 F1800 X85.769 Y117.448 E401.45642
G1 X85.699 Y117.378
G0 F7200 X85.769 Y118.014
G1 F1800 X90.927 Y123.171 E401.72635
G1 X90.997 Y123.241
G0 F7200 X90.361 Y123.171
G1 F1800 X85.769 Y118.579 E401.96668
G1 X85.699 Y118.509
G0 F7200 X85.769 Y119.145
G1 F1800 X89.796 Y123.171 E402.17742
G1 X89.866 Y123.241
G0 F7200 X89.23 Y123.171
G1 F1800 X85.769 Y119.711 E402.35853
G1 X85.699 Y119.641
G0 F7200 X85.769 Y120.276
G1 F1800 X88.664 Y123.171 E402.51005
G1 X88.734 Y123.241
G0 F7200 X88.099 Y123.171
G1 F1800 X85.769 Y120.842 E402.63197
G1 X85.699 Y120.772
G0 F7200 X85.769 Y121.408
G1 F1800 X87.533 Y123.171 E402.72426
G1 X87.603 Y123.241
G0 F7200 X86.967 Y123.171
G1 F1800 X85.769 Y121.973 E402.78696
G1 X85.699 Y121.903
G0 F7200 X85.769 Y122.539
G1 F1800 X86.402 Y123.171 E402.82006
G1 X86.472 Y123.241
G0 F7200 X85.836 Y123.171
G1 F1800 X85.769 Y123.105 E402.82355
G0 F7200 X99.418 Y110.116
G0 X99.613 Y109.869
G0 X107.312 Y96.564
G1 F1800 X119.274 Y108.526 E403.4496
G1 X119.344 Y108.596
G0 F7200 X119.253 Y107.939
G1 F1800 X107.878 Y96.564 E404.04494
G1 X107.808 Y96.494
G0 F7200 X108.444 Y96.564
G1 F1800 X119.317 Y107.437 E404.614
G1 X119.387 Y107.507
G0 F7200 X119.431 Y106.985
G1 F1800 X109.009 Y96.564 E405.15943
G1 X108.939 Y96.494
G0 F7200 X109.575 Y96.564
G1 F1800 X119.592 Y106.581 E405.68369
G1 X119.662 Y106.651
G0 F7200 X119.803 Y106.227
G1 F1800 X110.141 Y96.564 E406.18939
G1 X110.071 Y96.494
G0 F7200 X110.706 Y96.564
G1 F1800 X120.037 Y105.894 E406.67772
G1 X120.107 Y105.964
G0 F7200 X120.312 Y105.604
G1 F1800 X111.272 Y96.564 E407.15085
G1 X111.202 Y96.494
G0 F7200 X111.838 Y96.564
G1 F1800 X120.618 Y105.345 E407.6104
G1 X120.688 Y105.415
G0 F7200 X120.949 Y105.11
G1 F1800 X112.403 Y96.564 E408.05767
G1 X112.333 Y96.494
G0 F7200 X112.969 Y96.564
G1 F1800 X121.333 Y104.928 E408.49542
G1 X121.403 Y104.998
G0 F7200 X121.748 Y104.778
G1 F1800 X113.535 Y96.564 E408.92529
G1 X113.465 Y96.494
G0 F7200 X114.1 Y96.564
G1 F1800 X122.204 Y104.668 E409.34943
G1 X122.274 Y104.738
G0 F7200 X122.744 Y104.642
G1 F1800 X114.666 Y96.564 E409.77221
G1 X114.596 Y96.494
G0 F7200 X115.232 Y96.564
G1 F1800 X123.378 Y104.711 E410.19857
G1 X123.448 Y104.781
G0 F7200 X124.233 Y105
G1 F1800 X115.797 Y96.564 E410.64008
G1 X115.727 Y96.494
G0 F7200 X98.998 Y110.48
G0 X98.004 Y111
G0 X97.981 Y110.903
;TIME_ELAPSED:388.361205
;LAYER:3
G0 X97.981 Y110.903 Z0.8
;TYPE:WALL-INNER
G1 F3600 X98.501 Y110.722 E410.66046
G1 X98.975 Y110.448 E410.68072
G1 X99.39 Y110.089 E410.70103
G1 X99.73 Y109.657 E410.72138
G1 X99.981 Y109.169 E410.74168
G1 X100.137 Y108.642 E410.76202
G1 X100.189 Y108.095 E410.78236
G1 X100.137 Y107.548 E410.80269
G1 X99.981 Y107.021 E410.82303
G1 X99.73 Y106.533 E410.84334
G1 X99.39 Y106.101 E410.86369
G1 X98.975 Y105.742 E410.88399
G1 X98.501 Y105.468 E410.90426
G1 X97.981 Y105.287 E410.92463
G1 X97.438 Y105.21 E410.94493
G1 X96.889 Y105.235 E410.96527
G1 X96.354 Y105.365 E410.98564
G1 X95.856 Y105.593 E411.00591
G1 X95.408 Y105.911 E411.02624
G1 X95.029 Y106.31 E411.04661
G1 X94.732 Y106.771 E411.0669
G1 X94.528 Y107.281 E411.08723
G1 X94.424 Y107.821 E411.10758
G1 X94.424 Y108.369 E411.12786
G1 X94.528 Y108.909 E411.14822
G1 X94.732 Y109.419 E411.16854
G1 X95.029 Y109.88 E411.18884
G1 X95.408 Y110.279 E411.2092
G1 X95.856 Y110.597 E411.22954
G1 X96.354 Y110.825 E411.24981
G1 X96.889 Y110.955 E411.27018
G1 X97.438 Y110.98 E411.29052
G1 X97.981 Y110.903 E411.31082
G0 F7200 X98.004 Y111
G0 X103.65 Y123.762
G0 X103.65 Y123.862
G1 F3600 X85.4 Y123.868 E411.98621
G1 X85.2 Y123.868 E411.99361
G1 X85.2 Y123.668 E411.9984
G1 X85.2 Y95.995 E413.02252
G1 X134.8 Y95.995 E414.85811
G1 X134.8 Y123.667 E415.8822
G1 X134.8 Y123.867 E415.8896
G1 X134.6 Y123.867 E415.89439
G1 X103.65 Y123.862 E417.03978
G0 F7200 X103.65 Y123.762
G0 X123.404 Y111
G0 X123.381 Y110.903
G1 F3600 X123.901 Y110.722 E417.06016
G1 X124.375 Y110.448 E417.08042
G1 X124.79 Y110.089 E417.10073
G1 X125.13 Y109.657 E417.12108
G1 X125.381 Y109.169 E417.14138
G1 X125.537 Y108.642 E417.16172
G1 X125.589 Y108.095 E417.18206
G1 X125.537 Y107.548 E417.20239
G1 X125.381 Y107.021 E417.22273
G1 X125.13 Y106.533 E417.24304
G1 X124.79 Y106.101 E417.26339
G1 X124.375 Y105.742 E417.28369
G1 X123.901 Y105.468 E417.30396
G1 X123.381 Y105.287 E417.32433
G1 X122.838 Y105.21 E417.34463
G1 X122.289 Y105.235 E417.36497
G1 X121.754 Y105.365 E417.38534
G1 X121.256 Y105.593 E417.40561
G1 X120.808 Y105.911 E417.42594
G1 X120.429 Y106.31 E417.44631
G1 X120.132 Y106.771 E417.4666
G1 X119.928 Y107.281 E417.48693
G1 X119.824 Y107.821 E417.50728
G1 X119.824 Y108.369 E417.52756
G1 X119.928 Y108.909 E417.54791
G1 X120.132 Y109.419 E417.56824
G1 X120.429 Y109.88 E417.58854
G1 X120.808 Y110.279 E417.6089
G1 X121.256 Y110.597 E417.62924
G1 X121.754 Y110.825 E417.6495
G1 X122.289 Y110.955 E417.66988
G1 X122.838 Y110.98 E417.69022
G1 X123.381 Y110.903 E417.71051
G0 F7200 X123.404 Y111
G0 X122.284 Y110.994
G0 X121.741 Y110.862
G0 X121.237 Y110.631
G0 X120.782 Y110.309
G0 X120.398 Y109.904
G0 X120.097 Y109.437
G0 X119.89 Y108.92
G0 X119.785 Y108.372
G0 X119.785 Y107.818
G0 X119.89 Y107.27
G0 X120.057 Y106.852
G0 X120.71 Y105.871
G0 X121.071 Y106.215
;TYPE:WALL-OUTER
G1 F1800 X120.745 Y106.558 E417.72803
G1 X120.489 Y106.955 E417.74551
G1 X120.314 Y107.394 E417.763
G1 X120.224 Y107.859 E417.78053
G1 X120.224 Y108.331 E417.79799
G1 X120.314 Y108.796 E417.81552
G1 X120.489 Y109.235 E417.83301
G1 X120.745 Y109.632 E417.85049
G1 X121.071 Y109.975 E417.86801
G1 X121.457 Y110.249 E417.88552
G1 X121.886 Y110.445 E417.90298
G1 X122.346 Y110.557 E417.9205
G1 X122.819 Y110.579 E417.93802
G1 X123.286 Y110.512 E417.95548
G1 X123.734 Y110.357 E417.97303
G1 X124.142 Y110.121 E417.99047
G1 X124.499 Y109.812 E418.00794
G1 X124.792 Y109.44 E418.02547
G1 X125.008 Y109.02 E418.04295
G1 X125.142 Y108.566 E418.06047
G1 X125.187 Y108.095 E418.07798
G1 X125.142 Y107.624 E418.09549
G1 X125.008 Y107.17 E418.113
G1 X124.792 Y106.75 E418.13048
G1 X124.499 Y106.378 E418.14801
G1 X124.142 Y106.069 E418.16548
G1 X123.734 Y105.833 E418.18292
G1 X123.286 Y105.678 E418.20047
G1 X122.819 Y105.611 E418.21793
G1 X122.346 Y105.633 E418.23545
G1 X121.886 Y105.745 E418.25297
G1 X121.457 Y105.941 E418.27043
G1 X121.071 Y106.215 E418.28794
G0 F7200 X120.934 Y106.36
G0 X120.572 Y106.015
G0 X103.651 Y123.763
G0 X103.65 Y124.262
G1 F1800 X85 Y124.268 E418.97814
G1 X84.8 Y124.268 E418.98554
G1 X84.8 Y124.068 E418.99034
G1 X84.8 Y95.595 E420.04406
G1 X135.2 Y95.595 E421.90926
G1 X135.2 Y124.067 E422.96295
G1 X135.2 Y124.267 E422.97035
G1 X135 Y124.267 E422.97514
G1 X103.65 Y124.262 E424.13534
G0 F7200 X103.45 Y124.262
G0 X103.45 Y123.762
G0 X94.697 Y109.437
G0 X94.49 Y108.92
G0 X94.385 Y108.372
G0 X94.385 Y107.818
G0 X94.49 Y107.27
G0 X94.657 Y106.852
G0 X95.31 Y105.871
G0 X95.671 Y106.215
G1 F1800 X95.345 Y106.558 E424.15285
G1 X95.089 Y106.955 E424.17033
G1 X94.914 Y107.394 E424.18782
G1 X94.824 Y107.859 E424.20535
G1 X94.824 Y108.331 E424.22282
G1 X94.914 Y108.796 E424.24035
G1 X95.089 Y109.235 E424.25784
G1 X95.345 Y109.632 E424.27532
G1 X95.671 Y109.975 E424.29283
G1 X96.057 Y110.249 E424.31035
G1 X96.486 Y110.445 E424.3278
G1 X96.946 Y110.557 E424.34532
G1 X97.419 Y110.579 E424.36285
G1 X97.886 Y110.512 E424.38031
G1 X98.334 Y110.357 E424.39785
G1 X98.742 Y110.121 E424.41529
G1 X99.099 Y109.812 E424.43277
G1 X99.392 Y109.44 E424.45029
G1 X99.608 Y109.02 E424.46777
G1 X99.742 Y108.566 E424.48529
G1 X99.787 Y108.095 E424.5028
G1 X99.742 Y107.624 E424.52031
G1 X99.608 Y107.17 E424.53783
G1 X99.392 Y106.75 E424.55531
G1 X99.099 Y106.378 E424.57283
G1 X98.742 Y106.069 E424.5903
G1 X98.334 Y105.833 E424.60775
G1 X97.886 Y105.678 E424.62529
G1 X97.419 Y105.611 E424.64275
G1 X96.946 Y105.633 E424.66027
G1 X96.486 Y105.745 E424.6778
G1 X96.057 Y105.941 E424.69525
G1 X95.671 Y106.215 E424.71277
G0 F7200 X95.534 Y106.36
G0 X95.172 Y106.015
G0 X95.151 Y105.615
;TYPE:SKIN
G1 F1800 X94.721 Y106.068 E424.73588
G1 X94.383 Y106.591 E424.75893
G1 X94.152 Y107.17 E424.782
G1 X94.034 Y107.784 E424.80514
G1 X94.034 Y108.406 E424.82816
G1 X94.152 Y109.02 E424.85129
G1 X94.383 Y109.599 E424.87436
G1 X94.721 Y110.122 E424.89741
G1 X95.151 Y110.575 E424.92052
G1 X95.661 Y110.936 E424.94365
G1 X96.225 Y111.195 E424.96662
G1 X96.834 Y111.343 E424.98981
G1 X97.457 Y111.372 E425.01289
G1 X98.073 Y111.284 E425.03592
G1 X98.664 Y111.079 E425.05907
G1 X99.203 Y110.767 E425.08212
G1 X99.673 Y110.36 E425.10513
G1 X100.06 Y109.869 E425.12826
G1 X100.344 Y109.315 E425.1513
G1 X100.521 Y108.716 E425.17442
G1 X100.581 Y108.095 E425.19751
G1 X100.521 Y107.474 E425.2206
G1 X100.344 Y106.875 E425.24371
G1 X100.06 Y106.321 E425.26675
G1 X99.673 Y105.83 E425.28989
G1 X99.203 Y105.423 E425.3129
G1 X98.664 Y105.111 E425.33594
G1 X98.073 Y104.906 E425.35909
G1 X97.457 Y104.818 E425.38212
G1 X96.834 Y104.847 E425.4052
G1 X96.225 Y104.995 E425.4284
G1 X95.661 Y105.254 E425.45136
G1 X95.151 Y105.615 E425.47449
G0 F7200 X85.59 Y96.385
G1 F1800 X134.41 Y96.385 E427.28121
G1 X134.41 Y123.477 E428.28383
G1 X103.65 Y123.472 E429.42219
G1 X85.59 Y123.478 E430.09056
G1 X85.59 Y96.385 E431.09321
G0 F7200 X119.434 Y107.784
G1 F1800 X119.434 Y108.406 E431.11623
G1 X119.552 Y109.02 E431.13937
G1 X119.783 Y109.599 E431.16244
G1 X120.121 Y110.122 E431.18548
G1 X120.551 Y110.575 E431.2086
G1 X121.061 Y110.936 E431.23172
G1 X121.625 Y111.195 E431.25469
G1 X122.234 Y111.343 E431.27788
G1 X122.857 Y111.372 E431.30097
G1 X123.473 Y111.284 E431.32399
G1 X124.064 Y111.079 E431.34714
G1 X124.603 Y110.767 E431.37019
G1 X125.073 Y110.36 E431.3932
G1 X125.46 Y109.869 E431.41634
G1 X125.744 Y109.315 E431.43938
G1 X125.921 Y108.716 E431.46249
G1 X125.981 Y108.095 E431.48558
G1 X125.921 Y107.474 E431.50867
G1 X125.744 Y106.875 E431.53178
G1 X125.46 Y106.321 E431.55482
G1 X125.073 Y105.83 E431.57796
G1 X124.603 Y105.423 E431.60097
G1 X124.064 Y105.111 E431.62402
G1 X123.473 Y104.906 E431.64717
G1 X122.857 Y104.818 E431.6702
G1 X122.234 Y104.847 E431.69328
G1 X121.625 Y104.995 E431.71647
G1 X121.061 Y105.254 E431.73944
G1 X120.551 Y105.615 E431.76256
G1 X120.121 Y106.068 E431.78568
G1 X119.783 Y106.591 E431.80872
G1 X119.552 Y107.17 E431.83179
G1 X119.434 Y107.784 E431.85493
G0 F7200 X120.097 Y109.437
G0 X120.367 Y109.857
G0 X134.229 Y123.157
G0 X134.159 Y123.227
G1 F1800 X133.876 Y122.944 E431.87707
G1 X134.299 Y122.521
G0 F7200 X134.229 Y122.026
G1 F1800 X132.957 Y123.297 E431.94362
G1 X132.887 Y123.367
G0 F7200 X132.392 Y123.297
G1 F1800 X134.229 Y121.46 E432.03976
G1 X134.299 Y121.39
G0 F7200 X134.229 Y120.894
G1 F1800 X131.826 Y123.297 E432.16553
G1 X131.756 Y123.367
G0 F7200 X131.26 Y123.297
G1 F1800 X134.229 Y120.329 E432.32089
G1 X134.299 Y120.259
G0 F7200 X134.229 Y119.763
G1 F1800 X130.695 Y123.296 E432.50583
G1 X130.625 Y123.366
G0 F7200 X130.13 Y123.296
G1 F1800 X134.229 Y119.197 E432.72036
G1 X134.299 Y119.127
G0 F7200 X134.229 Y118.632
G1 F1800 X129.564 Y123.296 E432.96448
G1 X129.494 Y123.366
G0 F7200 X128.998 Y123.296
G1 F1800 X134.229 Y118.066 E433.23823
G1 X134.299 Y117.996
G0 F7200 X134.229 Y117.5
G1 F1800 X128.433 Y123.296 E433.54158
G1 X128.363 Y123.366
G0 F7200 X127.867 Y123.296
G1 F1800 X134.229 Y116.934 E433.87454
G1 X134.299 Y116.864
G0 F7200 X134.229 Y116.369
G1 F1800 X127.302 Y123.296 E434.23708
G1 X127.232 Y123.366
G0 F7200 X126.736 Y123.296
G1 F1800 X134.229 Y115.803 E434.62924
G1 X134.299 Y115.733
G0 F7200 X134.229 Y115.237
G1 F1800 X126.171 Y123.296 E435.051
G1 X126.101 Y123.366
G0 F7200 X125.605 Y123.296
G1 F1800 X134.229 Y114.672 E435.50236
G1 X134.299 Y114.602
G0 F7200 X134.229 Y114.106
G1 F1800 X125.039 Y123.296 E435.98334
G1 X124.969 Y123.366
G0 F7200 X124.474 Y123.296
G1 F1800 X134.229 Y113.54 E436.49391
G1 X134.299 Y113.47
G0 F7200 X134.229 Y112.975
G1 F1800 X123.909 Y123.295 E437.03403
G1 X123.839 Y123.365
G0 F7200 X123.343 Y123.295
G1 F1800 X134.229 Y112.409 E437.60377
G1 X134.299 Y112.339
G0 F7200 X134.229 Y111.843
G1 F1800 X122.777 Y123.295 E438.20313
G1 X122.707 Y123.365
G0 F7200 X122.212 Y123.295
G1 F1800 X134.229 Y111.278 E438.83207
G1 X134.299 Y111.208
G0 F7200 X134.229 Y110.712
G1 F1800 X121.646 Y123.295 E439.49062
G1 X121.576 Y123.365
G0 F7200 X121.08 Y123.295
G1 F1800 X134.229 Y110.146 E440.1788
G1 X134.299 Y110.076
G0 F7200 X134.229 Y109.581
G1 F1800 X120.515 Y123.294 E440.89653
G1 X120.445 Y123.364
G0 F7200 X119.95 Y123.294
G1 F1800 X134.229 Y109.015 E441.64385
G1 X134.299 Y108.945
G0 F7200 X134.229 Y108.449
G1 F1800 X119.384 Y123.294 E442.42079
G1 X119.314 Y123.364
G0 F7200 X118.818 Y123.294
G1 F1800 X134.229 Y107.883 E443.22736
G1 X134.299 Y107.813
G0 F7200 X134.229 Y107.318
G1 F1800 X118.253 Y123.294 E444.0635
G1 X118.183 Y123.364
G0 F7200 X117.687 Y123.294
G1 F1800 X134.229 Y106.752 E444.92926
G1 X134.299 Y106.682
G0 F7200 X134.229 Y106.186
G1 F1800 X117.122 Y123.293 E445.82459
G1 X117.052 Y123.363
G0 F7200 X116.556 Y123.293
G1 F1800 X134.229 Y105.621 E446.74951
G1 X134.299 Y105.551
G0 F7200 X134.229 Y105.055
G1 F1800 X115.99 Y123.293 E447.70406
G1 X115.92 Y123.363
G0 F7200 X115.425 Y123.293
G1 F1800 X134.229 Y104.489 E448.68821
G1 X134.299 Y104.419
G0 F7200 X134.229 Y103.924
G1 F1800 X114.859 Y123.293 E449.70195
G1 X114.789 Y123.363
G0 F7200 X114.293 Y123.293
G1 F1800 X134.229 Y103.358 E450.74532
G1 X134.299 Y103.288
G0 F7200 X134.229 Y102.792
G1 F1800 X113.728 Y123.293 E451.81828
G1 X113.658 Y123.363
G0 F7200 X113.163 Y123.293
G1 F1800 X134.229 Y102.227 E452.92081
G1 X134.299 Y102.157
G0 F7200 X134.229 Y101.661
G1 F1800 X112.597 Y123.293 E454.05297
G1 X112.527 Y123.363
G0 F7200 X112.031 Y123.293
G1 F1800 X124.051 Y111.273 E454.68206
G1 X124.121 Y111.203
G0 F7200 X123.264 Y111.495
G1 F1800 X111.466 Y123.293 E455.29953
G1 X111.396 Y123.363
G0 F7200 X110.9 Y123.293
G1 F1800 X122.651 Y111.542 E455.91454
G1 X122.721 Y111.472
G0 F7200 X122.125 Y111.502
G1 F1800 X110.335 Y123.292 E456.5316
G1 X110.265 Y123.362
G0 F7200 X109.769 Y123.292
G1 F1800 X121.671 Y111.391 E457.15449
G1 X121.741 Y111.321
G0 F7200 X121.267 Y111.229
G1 F1800 X109.204 Y123.292 E457.78583
G1 X109.134 Y123.362
G0 F7200 X108.638 Y123.292
G1 F1800 X120.892 Y111.038 E458.42717
G1 X120.962 Y110.968
G0 F7200 X120.561 Y110.803
G1 F1800 X108.072 Y123.292 E459.0808
G1 X108.002 Y123.362
G0 F7200 X107.507 Y123.292
G1 F1800 X120.264 Y110.535 E459.74847
G1 X120.334 Y110.465
G0 F7200 X119.988 Y110.245
G1 F1800 X106.942 Y123.291 E460.43126
G1 X106.872 Y123.361
G0 F7200 X106.376 Y123.291
G1 F1800 X119.764 Y109.903 E461.13195
G1 X119.834 Y109.833
G0 F7200 X119.563 Y109.538
G1 F1800 X105.81 Y123.291 E461.85174
G1 X105.74 Y123.361
G0 F7200 X105.245 Y123.291
G1 F1800 X119.402 Y109.134 E462.59267
G1 X119.472 Y109.064
G0 F7200 X119.3 Y108.67
G1 F1800 X104.679 Y123.291 E463.35789
G1 X104.609 Y123.361
G0 F7200 X104.113 Y123.291
G1 F1800 X119.253 Y108.151 E464.15028
G1 X119.323 Y108.081
G0 F7200 X119.295 Y107.543
G1 F1800 X103.548 Y123.291 E464.97445
G1 X103.478 Y123.361
G0 F7200 X102.982 Y123.291
G1 F1800 X119.524 Y106.749 E465.84021
G1 X119.594 Y106.679
G0 F7200 X121.352 Y104.921
G1 F1800 X129.709 Y96.564 E466.27759
G1 X129.779 Y96.494
G0 F7200 X129.143 Y96.564
G1 F1800 X102.416 Y123.291 E467.67641
G1 X102.346 Y123.361
G0 F7200 X101.85 Y123.291
G1 F1800 X128.578 Y96.564 E469.07524
G1 X128.648 Y96.494
G0 F7200 X128.012 Y96.564
G1 F1800 X101.284 Y123.292 E470.47411
G1 X101.214 Y123.362
G0 F7200 X100.718 Y123.292
G1 F1800 X127.446 Y96.564 E471.87297
G1 X127.516 Y96.494
G0 F7200 X126.881 Y96.564
G1 F1800 X100.153 Y123.292 E473.27184
G1 X100.083 Y123.362
G0 F7200 X99.586 Y123.293
G1 F1800 X126.315 Y96.564 E474.67076
G1 X126.385 Y96.494
G0 F7200 X125.749 Y96.564
G1 F1800 X99.021 Y123.293 E476.06965
G1 X98.951 Y123.363
G0 F7200 X98.455 Y123.293
G1 F1800 X125.184 Y96.564 E477.46856
G1 X125.254 Y96.494
G0 F7200 X124.618 Y96.564
G1 F1800 X97.889 Y123.293 E478.86748
G1 X97.819 Y123.363
G0 F7200 X97.323 Y123.293
G1 F1800 X124.052 Y96.564 E480.2664
G1 X124.122 Y96.494
G0 F7200 X123.487 Y96.564
G1 F1800 X96.757 Y123.293 E481.66534
G1 X96.687 Y123.363
G0 F7200 X96.191 Y123.293
G1 F1800 X122.921 Y96.564 E483.06429
G1 X122.991 Y96.494
G0 F7200 X122.355 Y96.564
G1 F1800 X95.625 Y123.294 E484.46326
G1 X95.555 Y123.364
G0 F7200 X95.059 Y123.294
G1 F1800 X121.789 Y96.564 E485.86222
G1 X121.859 Y96.494
G0 F7200 X121.224 Y96.564
G1 F1800 X94.494 Y123.294 E487.26119
G1 X94.424 Y123.364
G0 F7200 X93.928 Y123.294
G1 F1800 X120.658 Y96.564 E488.66016
G1 X120.728 Y96.494
G0 F7200 X120.092 Y96.564
G1 F1800 X93.362 Y123.295 E490.05916
G1 X93.292 Y123.365
G0 F7200 X92.796 Y123.295
G1 F1800 X119.527 Y96.564 E491.45818
G1 X119.597 Y96.494
G0 F7200 X118.961 Y96.564
G1 F1800 X92.23 Y123.295 E492.8572
G1 X92.16 Y123.365
G0 F7200 X91.664 Y123.296
G1 F1800 X118.395 Y96.564 E494.25625
G1 X118.465 Y96.494
G0 F7200 X117.83 Y96.564
G1 F1800 X91.098 Y123.296 E495.65533
G1 X91.028 Y123.366
G0 F7200 X90.533 Y123.296
G1 F1800 X117.264 Y96.564 E497.05437
G1 X117.334 Y96.494
G0 F7200 X116.698 Y96.564
G1 F1800 X89.967 Y123.296 E498.45342
G1 X89.897 Y123.366
G0 F7200 X89.4 Y123.296
G1 F1800 X116.133 Y96.564 E499.85252
G1 X116.203 Y96.494
G0 F7200 X115.567 Y96.564
G1 F1800 X88.835 Y123.296 E501.2516
G1 X88.765 Y123.366
G0 F7200 X88.269 Y123.296
G1 F1800 X115.001 Y96.564 E502.65067
G1 X115.071 Y96.494
G0 F7200 X114.436 Y96.564
G1 F1800 X87.703 Y123.297 E504.0498
G1 X87.633 Y123.367
G0 F7200 X87.137 Y123.297
G1 F1800 X113.87 Y96.564 E505.44892
G1 X113.94 Y96.494
G0 F7200 X113.304 Y96.564
G1 F1800 X100.523 Y109.345 E506.11784
G1 X100.453 Y109.415
G0 F7200 X100.713 Y108.589
G1 F1800 X112.738 Y96.564 E506.7472
G1 X112.808 Y96.494
G0 F7200 X112.173 Y96.564
G1 F1800 X100.752 Y107.985 E507.34494
G1 X100.682 Y108.055
G0 F7200 X100.701 Y107.47
G1 F1800 X111.607 Y96.564 E507.91573
G1 X111.677 Y96.494
G0 F7200 X111.041 Y96.564
G1 F1800 X100.578 Y107.028 E508.46335
G1 X100.508 Y107.098
G0 F7200 X100.418 Y106.622
G1 F1800 X110.476 Y96.564 E508.98976
G1 X110.546 Y96.494
G0 F7200 X109.91 Y96.564
G1 F1800 X100.226 Y106.248 E509.49659
G1 X100.156 Y106.318
G0 F7200 X99.981 Y105.928
G1 F1800 X109.344 Y96.564 E509.98665
G1 X109.414 Y96.494
G0 F7200 X108.779 Y96.564
G1 F1800 X99.715 Y105.628 E510.46103
G1 X99.645 Y105.698
G0 F7200 X99.412 Y105.365
G1 F1800 X108.213 Y96.564 E510.92165
G1 X108.283 Y96.494
G0 F7200 X107.647 Y96.564
G1 F1800 X99.073 Y105.139 E511.37042
G1 X99.003 Y105.209
G0 F7200 X98.709 Y104.936
G1 F1800 X107.082 Y96.564 E511.80861
G1 X107.152 Y96.494
G0 F7200 X106.516 Y96.564
G1 F1800 X98.289 Y104.791 E512.23919
G1 X98.219 Y104.861
G0 F7200 X97.826 Y104.689
G1 F1800 X105.95 Y96.564 E512.6644
G1 X106.02 Y96.494
G0 F7200 X105.385 Y96.564
G1 F1800 X97.305 Y104.644 E513.08728
G1 X97.235 Y104.714
G0 F7200 X96.687 Y104.696
G1 F1800 X104.819 Y96.564 E513.51289
G1 X104.889 Y96.494
G0 F7200 X104.253 Y96.564
G1 F1800 X95.849 Y104.968 E513.95273
G1 X95.779 Y105.038
G0 F7200 X94.162 Y106.655
G1 F1800 X85.769 Y115.048 E514.39199
G1 X85.699 Y115.118
G0 F7200 X85.769 Y114.482
G1 F1800 X103.688 Y96.564 E515.32979
G1 X103.758 Y96.494
G0 F7200 X103.122 Y96.564
G1 F1800 X85.769 Y113.917 E516.238
G1 X85.699 Y113.987
G0 F7200 X85.769 Y113.351
G1 F1800 X102.556 Y96.564 E517.11658
G1 X102.626 Y96.494
G0 F7200 X101.99 Y96.564
G1 F1800 X85.769 Y112.785 E517.96554
G1 X85.699 Y112.855
G0 F7200 X85.769 Y112.219
G1 F1800 X101.425 Y96.564 E518.7849
G1 X101.495 Y96.494
G0 F7200 X100.859 Y96.564
G1 F1800 X85.769 Y111.654 E519.57467
G1 X85.699 Y111.724
G0 F7200 X85.769 Y111.088
G1 F1800 X100.293 Y96.564 E520.33481
G1 X100.363 Y96.494
G0 F7200 X99.728 Y96.564
G1 F1800 X85.769 Y110.522 E521.06536
G1 X85.699 Y110.592
G0 F7200 X85.769 Y109.957
G1 F1800 X99.162 Y96.564 E521.76631
G1 X99.232 Y96.494
G0 F7200 X98.596 Y96.564
G1 F1800 X85.769 Y109.391 E522.43764
G1 X85.699 Y109.461
G0 F7200 X85.769 Y108.825
G1 F1800 X98.031 Y96.564 E523.07937
G1 X98.101 Y96.494
G0 F7200 X97.465 Y96.564
G1 F1800 X85.769 Y108.26 E523.6915
G1 X85.699 Y108.33
G0 F7200 X85.769 Y107.694
G1 F1800 X96.899 Y96.564 E524.27401
G1 X96.969 Y96.494
G0 F7200 X96.334 Y96.564
G1 F1800 X85.769 Y107.128 E524.82693
G1 X85.699 Y107.198
G0 F7200 X85.769 Y106.563
G1 F1800 X95.768 Y96.564 E525.35025
G1 X95.838 Y96.494
G0 F7200 X95.202 Y96.564
G1 F1800 X85.769 Y105.997 E525.84394
G1 X85.699 Y106.067
G0 F7200 X85.769 Y105.431
G1 F1800 X94.637 Y96.564 E526.30804
G1 X94.707 Y96.494
G0 F7200 X94.071 Y96.564
G1 F1800 X85.769 Y104.866 E526.74254
G1 X85.699 Y104.936
G0 F7200 X85.769 Y104.3
G1 F1800 X93.505 Y96.564 E527.14742
G1 X93.575 Y96.494
G0 F7200 X92.939 Y96.564
G1 F1800 X85.769 Y103.734 E527.52268
G1 X85.699 Y103.804
G0 F7200 X85.769 Y103.169
G1 F1800 X92.374 Y96.564 E527.86836
G1 X92.444 Y96.494
G0 F7200 X91.808 Y96.564
G1 F1800 X85.769 Y102.603 E528.18443
G1 X85.699 Y102.673
G0 F7200 X85.769 Y102.037
G1 F1800 X91.242 Y96.564 E528.47087
G1 X91.312 Y96.494
G0 F7200 X90.677 Y96.564
G1 F1800 X85.769 Y101.471 E528.72771
G1 X85.699 Y101.541
G0 F7200 X85.769 Y100.906
G1 F1800 X90.111 Y96.564 E528.95496
G1 X90.181 Y96.494
G0 F7200 X89.545 Y96.564
G1 F1800 X85.769 Y100.34 E529.15259
G1 X85.699 Y100.41
G0 F7200 X85.769 Y99.774
G1 F1800 X88.98 Y96.564 E529.32061
G1 X89.05 Y96.494
G0 F7200 X88.414 Y96.564
G1 F1800 X85.769 Y99.209 E529.45905
G1 X85.699 Y99.279
G0 F7200 X85.769 Y98.643
G1 F1800 X87.848 Y96.564 E529.56785
G1 X87.918 Y96.494
G0 F7200 X87.283 Y96.564
G1 F1800 X85.769 Y98.077 E529.64707
G1 X85.699 Y98.147
G0 F7200 X85.769 Y97.512
G1 F1800 X86.717 Y96.564 E529.69668
G1 X86.787 Y96.494
G0 F7200 X86.151 Y96.564
G1 F1800 X85.769 Y96.946 E529.71667
G0 F7200 X93.909 Y107.474
G1 F1800 X85.769 Y115.614 E530.1427
G1 X85.699 Y115.684
G0 F7200 X85.769 Y116.179
G1 F1800 X93.853 Y108.096 E530.56576
G1 X93.923 Y108.026
G0 F7200 X93.892 Y108.622
G1 F1800 X85.769 Y116.745 E530.9909
G1 X85.699 Y116.815
G0 F7200 X85.769 Y117.311
G1 F1800 X93.987 Y109.093 E531.421
G1 X94.057 Y109.023
G0 F7200 X94.148 Y109.498
G1 F1800 X85.769 Y117.876 E531.85951
G1 X85.699 Y117.946
G0 F7200 X85.769 Y118.442
G1 F1800 X94.342 Y109.869 E532.3082
G1 X94.412 Y109.799
G0 F7200 X94.564 Y110.213
G1 F1800 X85.769 Y119.008 E532.7685
G1 X85.699 Y119.078
G0 F7200 X85.769 Y119.573
G1 F1800 X94.837 Y110.505 E533.24309
G1 X94.907 Y110.435
G0 F7200 X95.129 Y110.779
G1 F1800 X85.769 Y120.139 E533.73297
G1 X85.699 Y120.209
G0 F7200 X85.769 Y120.705
G1 F1800 X95.461 Y111.013 E534.24022
G1 X95.531 Y110.943
G0 F7200 X95.829 Y111.21
G1 F1800 X85.769 Y121.27 E534.76673
G1 X85.699 Y121.34
G0 F7200 X85.769 Y121.836
G1 F1800 X96.226 Y111.379 E535.31402
G1 X96.296 Y111.309
G0 F7200 X96.681 Y111.49
G1 F1800 X85.769 Y122.402 E535.88512
G1 X85.699 Y122.472
G0 F7200 X85.769 Y122.967
G1 F1800 X97.198 Y111.539 E536.48325
G1 X97.268 Y111.469
G0 F7200 X97.799 Y111.503
G1 F1800 X86.006 Y123.297 E537.10049
G1 X85.936 Y123.367
G0 F7200 X86.571 Y123.297
G1 F1800 X98.566 Y111.302 E537.72827
G1 X98.636 Y111.232
G0 F7200 X122.16 Y104.679
G1 F1800 X130.275 Y96.564 E538.15299
G1 X130.345 Y96.494
G0 F7200 X130.84 Y96.564
G1 F1800 X122.763 Y104.641 E538.57572
G1 X122.693 Y104.711
G0 F7200 X123.274 Y104.696
G1 F1800 X131.406 Y96.564 E539.00132
G1 X131.476 Y96.494
G0 F7200 X131.972 Y96.564
G1 F1800 X123.73 Y104.805 E539.43266
G1 X123.66 Y104.875
G0 F7200 X124.149 Y104.953
G1 F1800 X132.537 Y96.564 E539.87169
G1 X132.607 Y96.494
G0 F7200 X133.103 Y96.564
G1 F1800 X124.508 Y105.16 E540.32155
G1 X124.438 Y105.23
G0 F7200 X124.841 Y105.392
G1 F1800 X133.669 Y96.564 E540.78358
G1 X133.739 Y96.494
G0 F7200 X134.229 Y96.57
G1 F1800 X125.144 Y105.655 E541.25906
G1 X125.074 Y105.725
G0 F7200 X125.404 Y105.96
G1 F1800 X134.229 Y97.135 E541.72094
G1 X134.299 Y97.065
G0 F7200 X134.229 Y97.701
G1 F1800 X125.644 Y106.286 E542.17025
G1 X125.574 Y106.356
G0 F7200 X125.836 Y106.66
G1 F1800 X134.229 Y98.267 E542.60952
G1 X134.299 Y98.197
G0 F7200 X134.229 Y98.833
G1 F1800 X125.99 Y107.072 E543.04072
G1 X125.92 Y107.142
G0 F7200 X126.105 Y107.522
G1 F1800 X134.229 Y99.398 E543.46591
G1 X134.299 Y99.328
G0 F7200 X134.229 Y99.964
G1 F1800 X126.156 Y108.037 E543.88842
G1 X126.086 Y108.107
G0 F7200 X126.107 Y108.651
G1 F1800 X134.229 Y100.53 E544.31348
G1 X134.299 Y100.46
G0 F7200 X134.229 Y101.095
G1 F1800 X125.877 Y109.447 E544.7506
G1 X125.807 Y109.517
G0 F7200 X123.917 Y110.758
G0 X123.39 Y110.941
G0 X122.839 Y111.019
G0 X122.284 Y110.994
G0 X121.977 Y110.92
G0 X85.359 Y96.673
;TIME_ELAPSED:512.665462
;LAYER:4
G0 X85.359 Y96.673 Z1
;TYPE:FILL
G1 F3600 X94.9 Y106.214 E545.24995
G1 X94.97 Y106.284
G0 F7200 X94.94 Y106.264
G0 X94.49 Y107.27
G0 X94.461 Y107.425
G0 X94.324 Y108.704
G1 F3600 X85.359 Y117.668 E545.71912
G1 X85.289 Y117.738
G0 F7200 X85.3 Y117.738
G0 X85.359 Y119.3
G1 F3600 X89.84 Y123.781 E545.95364
G1 X89.91 Y123.851
G0 F7200 X90.559 Y123.782
G1 F3600 X118.187 Y96.154 E547.39961
G1 X118.257 Y96.084
G0 F7200 X118.781 Y96.154
G1 F3600 X134.639 Y112.012 E548.22957
G1 X134.709 Y112.082
G0 F7200 X134.7 Y112.082
G0 X134.638 Y113.644
G1 F3600 X124.5 Y123.782 E548.76017
G1 X124.43 Y123.852
G0 F7200 X123.781 Y123.781
G1 F3600 X96.154 Y96.154 E550.20608
G1 X96.084 Y96.084
G0 F7200 X95.56 Y96.154
G1 F3600 X85.359 Y106.355 E550.73997
G1 X85.289 Y106.425
G0 F7200 X85.3 Y106.425
G0 X85.359 Y107.987
G1 F3600 X101.154 Y123.781 E551.56661
G1 X101.224 Y123.851
G0 F7200 X101.873 Y123.782
G1 F3600 X129.501 Y96.154 E553.01258
G1 X129.571 Y96.084
G0 F7200 X130.095 Y96.154
G1 F3600 X134.639 Y100.698 E553.2504
G1 X134.709 Y100.768
G0 F7200 X134.7 Y100.768
G0 X134.638 Y102.331
G1 F3600 X113.187 Y123.782 E554.37308
G1 X113.117 Y123.852
G0 F7200 X112.468 Y123.781
G1 F3600 X99.173 Y110.487 E555.06888
G1 X99.103 Y110.417
G0 F7200 X99.128 Y110.447
G0 X98.956 Y110.534
G0 X97.563 Y111.121
G1 F3600 X85.359 Y123.325 E555.7076
G1 X85.289 Y123.395
G0 F7200 X85.3 Y123.395
G0 X85.359 Y113.644
G1 F3600 X95.497 Y123.781 E556.23816
G1 X95.567 Y123.851
G0 F7200 X96.216 Y123.782
G1 F3600 X123.844 Y96.154 E557.68413
G1 X123.914 Y96.084
G0 F7200 X124.438 Y96.154
G1 F3600 X134.639 Y106.355 E558.21802
G1 X134.709 Y106.425
G0 F7200 X134.7 Y106.425
G0 X134.638 Y107.987
G1 F3600 X118.844 Y123.782 E559.04466
G1 X118.774 Y123.852
G0 F7200 X118.125 Y123.781
G1 F3600 X90.497 Y96.154 E560.4906
G1 X90.427 Y96.084
G0 F7200 X89.903 Y96.154
G1 F3600 X85.359 Y100.698 E560.72842
G1 X85.289 Y100.768
G0 F7200 X85.3 Y100.768
G0 X85.359 Y102.33
G1 F3600 X106.811 Y123.781 E561.85113
G1 X106.881 Y123.851
G0 F7200 X107.53 Y123.782
G1 F3600 X120.826 Y110.486 E562.547
G1 X120.896 Y110.416
G0 F7200 X120.874 Y110.447
G0 X122.436 Y111.122
G1 F3600 X134.639 Y123.325 E563.18567
G1 X134.709 Y123.395
G0 F7200 X134.7 Y123.395
G0 X134.638 Y119.301
G1 F3600 X130.157 Y123.782 E563.42019
G1 X130.087 Y123.852
G0 F7200 X129.438 Y123.781
G1 F3600 X101.811 Y96.154 E564.86611
G1 X101.741 Y96.084
G0 F7200 X101.217 Y96.154
G1 F3600 X85.359 Y112.012 E565.69607
G1 X85.289 Y112.082
G0 F7200 X85.3 Y112.082
G0 X95.837 Y105.559
G0 X96.341 Y105.328
G0 X96.648 Y105.254
G0 X97.913 Y105.115
G1 F3600 X106.874 Y96.154 E566.16506
G1 X106.944 Y96.084
G0 F7200 X107.468 Y96.154
G1 F3600 X119.663 Y108.349 E566.80331
G1 X119.733 Y108.419
G0 F7200 X119.731 Y108.417
G0 X119.89 Y107.27
G0 X120.097 Y106.753
G0 X120.398 Y106.286
G0 X120.782 Y105.881
G0 X121.039 Y105.699
G0 X122.087 Y105.117
G1 F3600 X113.125 Y96.154 E567.27239
G1 X113.055 Y96.084
G0 F7200 X112.531 Y96.154
G1 F3600 X100.325 Y108.36 E567.91121
G1 X100.255 Y108.43
G0 F7200 X100.257 Y108.43
G0 X122.284 Y105.196
G0 X122.839 Y105.171
G0 X123.39 Y105.249
G0 X123.917 Y105.432
G0 X125.09 Y106.222
G1 F3600 X134.638 Y96.674 E568.41093
G1 X134.708 Y96.604
G0 F7200 X134.7 Y96.604
G0 X125.682 Y108.712
G1 F3600 X134.639 Y117.668 E568.87968
G1 X134.709 Y117.738
G0 F7200 X134.7 Y117.738
G0 X134.73 Y123.872
G0 X134.8 Y123.942
;TYPE:WALL-INNER
G1 F3600 X85.4 Y123.943 E570.70787
G1 X85.2 Y123.943 E570.71527
G1 X85.2 Y123.743 E570.72007
G1 X85.2 Y95.995 E571.74696
G1 X134.8 Y95.995 E573.58255
G1 X134.8 Y123.942 E574.61681
G0 F7200 X134.73 Y123.872
G0 X123.404 Y111
G0 X123.381 Y110.903
G1 F3600 X123.901 Y110.722 E574.63719
G1 X124.375 Y110.448 E574.65745
G1 X124.79 Y110.089 E574.67776
G1 X125.13 Y109.657 E574.6981
G1 X125.381 Y109.169 E574.71841
G1 X125.537 Y108.642 E574.73875
G1 X125.589 Y108.095 E574.75909
G1 X125.537 Y107.548 E574.77942
G1 X125.381 Y107.021 E574.79976
G1 X125.13 Y106.533 E574.82007
G1 X124.79 Y106.101 E574.84041
G1 X124.375 Y105.742 E574.86072
G1 X123.901 Y105.468 E574.88098
G1 X123.381 Y105.287 E574.90136
G1 X122.838 Y105.21 E574.92166
G1 X122.289 Y105.235 E574.94199
G1 X121.754 Y105.365 E574.96237
G1 X121.256 Y105.593 E574.98264
G1 X120.808 Y105.911 E575.00297
G1 X120.429 Y106.31 E575.02334
G1 X120.132 Y106.771 E575.04363
G1 X119.928 Y107.281 E575.06396
G1 X119.824 Y107.821 E575.08431
G1 X119.824 Y108.369 E575.10459
G1 X119.928 Y108.909 E575.12494
G1 X120.132 Y109.419 E575.14527
G1 X120.429 Y109.88 E575.16556
G1 X120.808 Y110.279 E575.18593
G1 X121.256 Y110.597 E575.20626
G1 X121.754 Y110.825 E575.22653
G1 X122.289 Y110.955 E575.24691
G1 X122.838 Y110.98 E575.26725
G1 X123.381 Y110.903 E575.28754
G0 F7200 X123.404 Y111
G0 X98.004 Y111
G0 X97.981 Y110.903
G1 F3600 X98.501 Y110.722 E575.30792
G1 X98.975 Y110.448 E575.32818
G1 X99.39 Y110.089 E575.34849
G1 X99.73 Y109.657 E575.36883
G1 X99.981 Y109.169 E575.38914
G1 X100.137 Y108.642 E575.40948
G1 X100.189 Y108.095 E575.42982
G1 X100.137 Y107.548 E575.45015
G1 X99.981 Y107.021 E575.47049
G1 X99.73 Y106.533 E575.4908
G1 X99.39 Y106.101 E575.51114
G1 X98.975 Y105.742 E575.53145
G1 X98.501 Y105.468 E575.55171
G1 X97.981 Y105.287 E575.57209
G1 X97.438 Y105.21 E575.59239
G1 X96.889 Y105.235 E575.61272
G1 X96.354 Y105.365 E575.6331
G1 X95.856 Y105.593 E575.65337
G1 X95.408 Y105.911 E575.6737
G1 X95.029 Y106.31 E575.69407
G1 X94.732 Y106.771 E575.71436
G1 X94.528 Y107.281 E575.73469
G1 X94.424 Y107.821 E575.75504
G1 X94.424 Y108.369 E575.77532
G1 X94.528 Y108.909 E575.79567
G1 X94.732 Y109.419 E575.816
G1 X95.029 Y109.88 E575.8363
G1 X95.408 Y110.279 E575.85666
G1 X95.856 Y110.597 E575.87699
G1 X96.354 Y110.825 E575.89726
G1 X96.889 Y110.955 E575.91764
G1 X97.438 Y110.98 E575.93798
G1 X97.981 Y110.903 E575.95827
G0 F7200 X98.004 Y111
G0 X96.884 Y110.994
G0 X96.341 Y110.862
G0 X95.837 Y110.631
G0 X95.382 Y110.309
G0 X94.998 Y109.904
G0 X94.697 Y109.437
G0 X94.49 Y108.92
G0 X94.385 Y108.372
G0 X94.385 Y107.818
G0 X94.49 Y107.27
G0 X94.657 Y106.852
G0 X95.31 Y105.871
G0 X95.671 Y106.215
;TYPE:WALL-OUTER
G1 F1800 X95.345 Y106.558 E575.97578
G1 X95.089 Y106.955 E575.99327
G1 X94.914 Y107.394 E576.01076
G1 X94.824 Y107.859 E576.02828
G1 X94.824 Y108.331 E576.04575
G1 X94.914 Y108.796 E576.06328
G1 X95.089 Y109.235 E576.08077
G1 X95.345 Y109.632 E576.09825
G1 X95.671 Y109.975 E576.11576
G1 X96.057 Y110.249 E576.13328
G1 X96.486 Y110.445 E576.15074
G1 X96.946 Y110.557 E576.16826
G1 X97.419 Y110.579 E576.18578
G1 X97.886 Y110.512 E576.20324
G1 X98.334 Y110.357 E576.22079
G1 X98.742 Y110.121 E576.23823
G1 X99.099 Y109.812 E576.2557
G1 X99.392 Y109.44 E576.27323
G1 X99.608 Y109.02 E576.2907
G1 X99.742 Y108.566 E576.30822
G1 X99.787 Y108.095 E576.32573
G1 X99.742 Y107.624 E576.34324
G1 X99.608 Y107.17 E576.36076
G1 X99.392 Y106.75 E576.37824
G1 X99.099 Y106.378 E576.39576
G1 X98.742 Y106.069 E576.41324
G1 X98.334 Y105.833 E576.43068
G1 X97.886 Y105.678 E576.44822
G1 X97.419 Y105.611 E576.46568
G1 X96.946 Y105.633 E576.48321
G1 X96.486 Y105.745 E576.50073
G1 X96.057 Y105.941 E576.51818
G1 X95.671 Y106.215 E576.5357
G0 F7200 X95.534 Y106.36
G0 X95.172 Y106.015
G0 X95.837 Y105.559
G0 X96.341 Y105.328
G0 X96.884 Y105.196
G0 X97.041 Y105.19
G0 X120.71 Y105.871
G0 X121.071 Y106.215
G1 F1800 X120.745 Y106.558 E576.55321
G1 X120.489 Y106.955 E576.5707
G1 X120.314 Y107.394 E576.58819
G1 X120.224 Y107.859 E576.60571
G1 X120.224 Y108.331 E576.62318
G1 X120.314 Y108.796 E576.64071
G1 X120.489 Y109.235 E576.6582
G1 X120.745 Y109.632 E576.67568
G1 X121.071 Y109.975 E576.69319
G1 X121.457 Y110.249 E576.71071
G1 X121.886 Y110.445 E576.72817
G1 X122.346 Y110.557 E576.74569
G1 X122.819 Y110.579 E576.76321
G1 X123.286 Y110.512 E576.78067
G1 X123.734 Y110.357 E576.79821
