;FLAVOR:Marlin
;TIME:2945
;Filament used: 1.6061m
;Layer height: 0.16
;MINX:82.854
;MINY:82.854
;MINZ:0.16
;MAXX:137.146
;MAXY:137.146
;MAXZ:19.36
;Generated with Cura_SteamEngine 4.4.1
M140 S45
M105
M190 S45
M104 S200
M105
M109 S200
M82 ;absolute extrusion mode

G92 E0
G92 E0
G1 F1500 E-6.5
;LAYER_COUNT:121
;LAYER:0
M107
G0 F3600 X90.859 Y90.747 Z0.16
;TYPE:SKIRT
G1 F1500 E0
G1 F1200 X91.086 Y90.551 E0.00798
G1 X91.795 Y89.987 E0.03209
G1 X91.845 Y89.948 E0.03377
G1 X95.49 Y87.152 E0.15601
G1 X95.536 Y87.117 E0.15755
G1 X96.059 Y86.729 E0.17487
G1 X96.512 Y86.442 E0.18914
G1 X96.767 Y86.319 E0.19668
G1 X97.601 Y85.956 E0.22088
G1 X97.66 Y85.931 E0.22258
G1 X101.825 Y84.205 E0.34254
G1 X101.87 Y84.187 E0.34383
G1 X102.545 Y83.918 E0.36317
G1 X103.057 Y83.757 E0.37745
G1 X103.345 Y83.702 E0.38525
G1 X104.267 Y83.564 E0.41006
G1 X104.33 Y83.555 E0.41175
G1 X108.804 Y82.966 E0.53182
G1 X108.852 Y82.96 E0.53311
G1 X109.555 Y82.877 E0.55194
G1 X110.091 Y82.854 E0.56622
G1 X110.386 Y82.875 E0.57409
G1 X111.295 Y82.979 E0.59843
G1 X111.356 Y82.987 E0.60007
G1 X115.871 Y83.581 E0.72124
G1 X115.918 Y83.587 E0.7225
G1 X116.587 Y83.684 E0.74049
G1 X117.11 Y83.801 E0.75475
G1 X117.391 Y83.898 E0.76266
G1 X118.238 Y84.232 E0.78688
G1 X118.295 Y84.255 E0.78852
G1 X122.487 Y85.992 E0.90926
G1 X122.528 Y86.01 E0.91045
G1 X123.176 Y86.288 E0.92921
G1 X123.652 Y86.535 E0.94348
G1 X123.901 Y86.704 E0.95149
G1 X124.604 Y87.225 E0.97477
G1 X124.651 Y87.261 E0.97634
G1 X128.318 Y90.074 E1.09932
G1 X128.352 Y90.1 E1.10046
G1 X128.857 Y90.497 E1.11755
G1 X129.253 Y90.859 E1.13183
G1 X129.449 Y91.086 E1.13981
G1 X130.013 Y91.795 E1.16391
G1 X130.052 Y91.845 E1.1656
G1 X132.848 Y95.49 E1.28783
G1 X132.883 Y95.535 E1.28935
G1 X133.272 Y96.059 E1.30671
G1 X133.558 Y96.512 E1.32097
G1 X133.683 Y96.77 E1.3286
G1 X134.045 Y97.603 E1.35276
G1 X134.069 Y97.66 E1.35441
G1 X135.795 Y101.825 E1.47437
G1 X135.813 Y101.87 E1.47566
G1 X136.082 Y102.545 E1.495
G1 X136.243 Y103.057 E1.50928
G1 X136.298 Y103.345 E1.51708
G1 X136.436 Y104.267 E1.54188
G1 X136.445 Y104.33 E1.54358
G1 X137.034 Y108.804 E1.66365
G1 X137.04 Y108.851 E1.66491
G1 X137.123 Y109.553 E1.68372
G1 X137.146 Y110.089 E1.69799
G1 X137.125 Y110.385 E1.70589
G1 X137.021 Y111.295 E1.73026
G1 X137.013 Y111.356 E1.7319
G1 X136.419 Y115.871 E1.85307
G1 X136.413 Y115.918 E1.85433
G1 X136.316 Y116.586 E1.87229
G1 X136.199 Y117.11 E1.88658
G1 X136.103 Y117.388 E1.8944
G1 X135.766 Y118.244 E1.91888
G1 X135.742 Y118.303 E1.92057
G1 X134.008 Y122.487 E2.04109
G1 X133.99 Y122.528 E2.04228
G1 X133.712 Y123.176 E2.06104
G1 X133.465 Y123.652 E2.07531
G1 X133.296 Y123.901 E2.08332
G1 X132.775 Y124.604 E2.1066
G1 X132.739 Y124.651 E2.10817
G1 X129.926 Y128.318 E2.23115
G1 X129.9 Y128.352 E2.23229
G1 X129.503 Y128.857 E2.24938
G1 X129.141 Y129.253 E2.26365
G1 X128.914 Y129.449 E2.27163
G1 X128.205 Y130.013 E2.29574
G1 X128.155 Y130.052 E2.29743
G1 X124.51 Y132.848 E2.41966
G1 X124.464 Y132.883 E2.4212
G1 X123.941 Y133.271 E2.43853
G1 X123.488 Y133.558 E2.4528
G1 X123.233 Y133.681 E2.46033
G1 X122.399 Y134.044 E2.48453
G1 X122.34 Y134.069 E2.48624
G1 X118.175 Y135.795 E2.6062
G1 X118.13 Y135.813 E2.60749
G1 X117.455 Y136.082 E2.62682
G1 X116.943 Y136.243 E2.6411
G1 X116.655 Y136.298 E2.6489
G1 X115.733 Y136.436 E2.67371
G1 X115.67 Y136.445 E2.6754
G1 X111.196 Y137.034 E2.79548
G1 X111.148 Y137.04 E2.79676
G1 X110.445 Y137.123 E2.8156
G1 X109.909 Y137.146 E2.82987
G1 X109.614 Y137.125 E2.83774
G1 X108.705 Y137.021 E2.86209
G1 X108.644 Y137.013 E2.86372
G1 X104.129 Y136.419 E2.98489
G1 X104.082 Y136.413 E2.98616
G1 X103.413 Y136.316 E3.00414
G1 X102.89 Y136.199 E3.0184
G1 X102.61 Y136.102 E3.02629
G1 X101.755 Y135.765 E3.05074
G1 X101.697 Y135.742 E3.0524
G1 X97.513 Y134.008 E3.17291
G1 X97.472 Y133.99 E3.1741
G1 X96.824 Y133.712 E3.19286
G1 X96.348 Y133.465 E3.20713
G1 X96.099 Y133.296 E3.21514
G1 X95.396 Y132.775 E3.23842
G1 X95.349 Y132.739 E3.24
G1 X91.682 Y129.926 E3.36297
G1 X91.648 Y129.9 E3.36411
G1 X91.143 Y129.503 E3.3812
G1 X90.747 Y129.141 E3.39548
G1 X90.551 Y128.914 E3.40346
G1 X89.987 Y128.205 E3.42757
G1 X89.948 Y128.155 E3.42925
G1 X87.152 Y124.51 E3.55149
G1 X87.117 Y124.465 E3.553
G1 X86.728 Y123.941 E3.57037
G1 X86.442 Y123.488 E3.58462
G1 X86.317 Y123.23 E3.59225
G1 X85.955 Y122.397 E3.61642
G1 X85.931 Y122.34 E3.61806
G1 X84.205 Y118.175 E3.73803
G1 X84.187 Y118.13 E3.73932
G1 X83.918 Y117.455 E3.75865
G1 X83.757 Y116.943 E3.77293
G1 X83.702 Y116.655 E3.78073
G1 X83.564 Y115.733 E3.80554
G1 X83.555 Y115.67 E3.80723
G1 X82.966 Y111.196 E3.9273
G1 X82.96 Y111.148 E3.92859
G1 X82.877 Y110.445 E3.94743
G1 X82.854 Y109.909 E3.9617
G1 X82.875 Y109.614 E3.96957
G1 X82.979 Y108.705 E3.99391
G1 X82.987 Y108.644 E3.99555
G1 X83.581 Y104.129 E4.11672
G1 X83.587 Y104.082 E4.11798
G1 X83.684 Y103.414 E4.13594
G1 X83.801 Y102.89 E4.15023
G1 X83.897 Y102.612 E4.15806
G1 X84.234 Y101.756 E4.18253
G1 X84.258 Y101.697 E4.18423
G1 X85.992 Y97.513 E4.30474
G1 X86.01 Y97.472 E4.30593
G1 X86.288 Y96.824 E4.32469
G1 X86.535 Y96.348 E4.33896
G1 X86.704 Y96.099 E4.34697
G1 X87.225 Y95.396 E4.37025
G1 X87.261 Y95.349 E4.37183
G1 X90.074 Y91.682 E4.4948
G1 X90.1 Y91.648 E4.49594
G1 X90.497 Y91.143 E4.51303
G1 X90.859 Y90.747 E4.52731
G0 F3600 X91.335 Y90.864
G1 F1200 X92.044 Y90.3 E4.55141
G1 X92.088 Y90.265 E4.55291
G1 X95.733 Y87.469 E4.67514
G1 X95.774 Y87.438 E4.67651
G1 X96.297 Y87.05 E4.69384
G1 X96.927 Y86.686 E4.7132
G1 X97.761 Y86.323 E4.7374
G1 X97.813 Y86.301 E4.7389
G1 X101.978 Y84.575 E4.85886
G1 X102.018 Y84.558 E4.86002
G1 X102.693 Y84.289 E4.87936
G1 X103.404 Y84.097 E4.89895
G1 X104.326 Y83.959 E4.92376
G1 X104.382 Y83.951 E4.92526
G1 X108.856 Y83.362 E5.04533
G1 X108.899 Y83.357 E5.04649
G1 X109.602 Y83.274 E5.06532
G1 X110.341 Y83.273 E5.08498
G1 X111.25 Y83.377 E5.10933
G1 X111.303 Y83.383 E5.11075
G1 X115.818 Y83.977 E5.23192
G1 X115.86 Y83.983 E5.23305
G1 X116.529 Y84.08 E5.25104
G1 X117.244 Y84.27 E5.27072
G1 X118.091 Y84.604 E5.29495
G1 X118.142 Y84.625 E5.29641
G1 X122.334 Y86.362 E5.41715
G1 X122.371 Y86.377 E5.41821
G1 X123.019 Y86.655 E5.43698
G1 X123.662 Y87.025 E5.45671
G1 X124.365 Y87.546 E5.48
G1 X124.408 Y87.578 E5.48142
G1 X128.075 Y90.391 E5.6044
G1 X128.105 Y90.414 E5.6054
G1 X128.61 Y90.811 E5.6225
G1 X129.136 Y91.335 E5.64225
G1 X129.7 Y92.044 E5.66636
G1 X129.735 Y92.088 E5.66785
G1 X132.531 Y95.733 E5.79009
G1 X132.561 Y95.774 E5.79144
G1 X132.95 Y96.298 E5.8088
G1 X133.316 Y96.93 E5.82824
G1 X133.678 Y97.763 E5.8524
G1 X133.699 Y97.813 E5.85385
G1 X135.425 Y101.978 E5.97381
G1 X135.442 Y102.018 E5.97496
G1 X135.711 Y102.693 E5.9943
G1 X135.903 Y103.404 E6.0139
G1 X136.041 Y104.326 E6.0387
G1 X136.049 Y104.382 E6.04021
G1 X136.638 Y108.856 E6.16028
G1 X136.643 Y108.898 E6.1614
G1 X136.726 Y109.6 E6.18021
G1 X136.727 Y110.339 E6.19988
G1 X136.623 Y111.249 E6.22425
G1 X136.617 Y111.303 E6.22569
G1 X136.023 Y115.818 E6.34686
G1 X136.017 Y115.861 E6.34802
G1 X135.92 Y116.529 E6.36598
G1 X135.731 Y117.241 E6.38558
G1 X135.394 Y118.097 E6.41006
G1 X135.372 Y118.15 E6.41159
G1 X133.638 Y122.334 E6.5321
G1 X133.623 Y122.371 E6.53316
G1 X133.345 Y123.019 E6.55192
G1 X132.975 Y123.662 E6.57166
G1 X132.454 Y124.365 E6.59494
G1 X132.422 Y124.408 E6.59637
G1 X129.609 Y128.075 E6.71934
G1 X129.586 Y128.105 E6.72035
G1 X129.189 Y128.61 E6.73744
G1 X128.665 Y129.136 E6.7572
G1 X127.956 Y129.7 E6.7813
G1 X127.912 Y129.735 E6.7828
G1 X124.267 Y132.531 E6.90503
G1 X124.226 Y132.562 E6.9064
G1 X123.703 Y132.95 E6.92373
G1 X123.073 Y133.314 E6.94309
G1 X122.239 Y133.677 E6.96729
G1 X122.187 Y133.699 E6.96879
G1 X118.022 Y135.425 E7.08875
G1 X117.982 Y135.442 E7.08991
G1 X117.307 Y135.711 E7.10924
G1 X116.596 Y135.903 E7.12884
G1 X115.674 Y136.041 E7.15365
G1 X115.618 Y136.049 E7.15515
G1 X111.144 Y136.638 E7.27522
G1 X111.101 Y136.643 E7.27637
G1 X110.398 Y136.726 E7.29521
G1 X109.659 Y136.727 E7.31487
G1 X108.75 Y136.623 E7.33922
G1 X108.697 Y136.617 E7.34064
G1 X104.182 Y136.023 E7.46181
G1 X104.14 Y136.017 E7.46294
G1 X103.471 Y135.92 E7.48092
G1 X102.757 Y135.73 E7.50058
G1 X101.902 Y135.393 E7.52504
G1 X101.85 Y135.372 E7.52653
G1 X97.666 Y133.638 E7.64704
G1 X97.629 Y133.623 E7.6481
G1 X96.981 Y133.345 E7.66686
G1 X96.338 Y132.975 E7.6866
G1 X95.635 Y132.454 E7.70988
G1 X95.592 Y132.422 E7.71131
G1 X91.925 Y129.609 E7.83429
G1 X91.895 Y129.586 E7.83529
G1 X91.39 Y129.189 E7.85238
G1 X90.864 Y128.665 E7.87214
G1 X90.3 Y127.956 E7.89624
G1 X90.265 Y127.912 E7.89774
G1 X87.469 Y124.267 E8.01997
G1 X87.439 Y124.226 E8.02133
G1 X87.05 Y123.702 E8.03869
G1 X86.684 Y123.07 E8.05812
G1 X86.322 Y122.237 E8.08229
G1 X86.301 Y122.187 E8.08373
G1 X84.575 Y118.022 E8.2037
G1 X84.558 Y117.982 E8.20485
G1 X84.289 Y117.307 E8.22419
G1 X84.097 Y116.596 E8.24378
G1 X83.959 Y115.674 E8.26859
G1 X83.951 Y115.618 E8.27009
G1 X83.362 Y111.144 E8.39017
G1 X83.357 Y111.101 E8.39132
G1 X83.274 Y110.398 E8.41015
G1 X83.273 Y109.659 E8.42982
G1 X83.377 Y108.75 E8.45416
G1 X83.383 Y108.697 E8.45558
G1 X83.977 Y104.182 E8.57675
G1 X83.983 Y104.139 E8.57791
G1 X84.08 Y103.471 E8.59587
G1 X84.269 Y102.759 E8.61547
G1 X84.606 Y101.903 E8.63995
G1 X84.628 Y101.85 E8.64147
G1 X86.362 Y97.666 E8.76198
G1 X86.377 Y97.629 E8.76305
G1 X86.655 Y96.981 E8.78181
G1 X87.025 Y96.338 E8.80155
G1 X87.546 Y95.635 E8.82483
G1 X87.578 Y95.592 E8.82626
G1 X90.391 Y91.925 E8.94923
G1 X90.414 Y91.895 E8.95024
G1 X90.811 Y91.39 E8.96733
G1 X91.335 Y90.864 E8.98708
G1 F1500 E2.48708
;MESH:Sombrero1.stl
G0 F3600 X92.999 Y92.763
G0 X93.781 Y93.781
G0 X102.11 Y106.667
G0 X102.202 Y106.705
;TYPE:WALL-INNER
G1 F1500 E8.98708
G1 F1200 X101.84 Y107.752 E9.01656
G1 X101.615 Y108.836 E9.04602
G1 X101.536 Y109.941 E9.07549
G1 X101.6 Y111.046 E9.10495
G1 X101.809 Y112.135 E9.13445
G1 X102.158 Y113.185 E9.16389
G1 X102.639 Y114.181 E9.19332
G1 X103.247 Y115.106 E9.22278
G1 X103.972 Y115.943 E9.25224
G1 X104.799 Y116.679 E9.2817
G1 X105.716 Y117.3 E9.31117
G1 X106.705 Y117.797 E9.34062
G1 X107.752 Y118.16 E9.3701
G1 X108.835 Y118.384 E9.39953
G1 X109.941 Y118.464 E9.42903
G1 X111.047 Y118.4 E9.45851
G1 X112.134 Y118.191 E9.48796
G1 X113.185 Y117.842 E9.51743
G1 X114.181 Y117.361 E9.54686
G1 X115.106 Y116.753 E9.57631
G1 X115.944 Y116.028 E9.6058
G1 X116.679 Y115.2 E9.63526
G1 X117.3 Y114.284 E9.6647
G1 X117.797 Y113.295 E9.69416
G1 X118.16 Y112.249 E9.72362
G1 X118.385 Y111.164 E9.7531
G1 X118.464 Y110.059 E9.78258
G1 X118.4 Y108.953 E9.81206
G1 X118.191 Y107.866 E9.84151
G1 X117.842 Y106.815 E9.87097
G1 X117.361 Y105.819 E9.9004
G1 X116.753 Y104.894 E9.92986
G1 X116.028 Y104.057 E9.95932
G1 X115.201 Y103.321 E9.98878
G1 X114.284 Y102.7 E10.01825
G1 X113.295 Y102.203 E10.0477
G1 X112.248 Y101.84 E10.07718
G1 X111.165 Y101.616 E10.10661
G1 X110.059 Y101.536 E10.13612
G1 X108.953 Y101.6 E10.16559
G1 X107.866 Y101.809 E10.19505
G1 X106.815 Y102.158 E10.22451
G1 X105.819 Y102.639 E10.25394
G1 X104.894 Y103.247 E10.2834
G1 X104.057 Y103.972 E10.31286
G1 X103.321 Y104.799 E10.34232
G1 X102.7 Y105.716 E10.37179
G1 X102.202 Y106.705 E10.40125
G0 F3600 X102.11 Y106.667
G0 X102.666 Y105.696
G0 X103.29 Y104.775
G0 X104.029 Y103.944
G0 X121.433 Y90.208
G0 X121.482 Y90.122
G1 F1200 X126.233 Y93.767 E10.56058
G1 X129.878 Y98.518 E10.71992
G1 X132.174 Y104.061 E10.87956
G1 X132.956 Y110 E11.03895
G1 X132.174 Y115.939 E11.19834
G1 X129.878 Y121.482 E11.35798
G1 X126.233 Y126.233 E11.51731
G1 X121.482 Y129.878 E11.67665
G1 X115.939 Y132.174 E11.83629
G1 X110 Y132.956 E11.99568
G1 X104.061 Y132.174 E12.15507
G1 X98.518 Y129.878 E12.31471
G1 X93.767 Y126.233 E12.47404
G1 X90.122 Y121.482 E12.63337
G1 X87.826 Y115.939 E12.79301
G1 X87.044 Y110 E12.9524
G1 X87.826 Y104.061 E13.11179
G1 X90.122 Y98.518 E13.27143
G1 X93.767 Y93.767 E13.43077
G1 X98.518 Y90.122 E13.5901
G1 X104.061 Y87.826 E13.74974
G1 X110 Y87.044 E13.90913
G1 X115.939 Y87.826 E14.06852
G1 X121.482 Y90.122 E14.22816
G0 F3600 X121.68 Y89.771
;TYPE:WALL-OUTER
G1 F1200 X126.518 Y93.482 E14.3904
G1 X130.229 Y98.32 E14.55264
G1 X132.564 Y103.956 E14.71496
G1 X133.36 Y110 E14.87717
G1 X132.564 Y116.044 E15.03938
G1 X130.229 Y121.68 E15.2017
G1 X126.518 Y126.518 E15.36394
G1 X121.68 Y130.229 E15.52618
G1 X116.044 Y132.564 E15.68851
G1 X110 Y133.36 E15.85071
G1 X103.956 Y132.564 E16.01292
G1 X98.32 Y130.229 E16.17525
G1 X93.482 Y126.518 E16.33749
G1 X89.771 Y121.68 E16.49973
G1 X87.436 Y116.044 E16.66205
G1 X86.64 Y110 E16.82426
G1 X87.436 Y103.956 E16.98647
G1 X89.771 Y98.32 E17.14879
G1 X93.482 Y93.482 E17.31103
G1 X98.32 Y89.771 E17.47327
G1 X103.956 Y87.436 E17.63559
G1 X110 Y86.64 E17.7978
G1 X116.044 Y87.436 E17.96001
G1 X121.68 Y89.771 E18.12233
G0 F3600 X121.838 Y89.892
G0 X121.535 Y90.287
G0 X104.87 Y103.216
G0 X104.029 Y103.944
G0 X103.29 Y104.775
G0 X102.1 Y106.698
G0 X102.571 Y106.861
G1 F1200 X102.226 Y107.858 E18.1504
G1 X102.012 Y108.891 E18.17847
G1 X101.937 Y109.944 E18.20656
G1 X101.998 Y110.997 E18.23463
G1 X102.197 Y112.034 E18.26272
G1 X102.529 Y113.034 E18.29076
G1 X102.988 Y113.983 E18.31881
G1 X103.567 Y114.864 E18.34686
G1 X104.257 Y115.662 E18.37493
G1 X105.045 Y116.363 E18.40299
G1 X105.919 Y116.954 E18.43107
G1 X106.861 Y117.428 E18.45913
G1 X107.858 Y117.774 E18.48721
G1 X108.89 Y117.987 E18.51525
G1 X109.944 Y118.063 E18.54336
G1 X110.997 Y118.002 E18.57143
G1 X112.033 Y117.803 E18.5995
G1 X113.034 Y117.471 E18.62756
G1 X113.983 Y117.012 E18.65561
G1 X114.864 Y116.433 E18.68366
G1 X115.662 Y115.743 E18.71173
G1 X116.363 Y114.954 E18.73981
G1 X116.954 Y114.081 E18.76786
G1 X117.428 Y113.139 E18.79592
G1 X117.774 Y112.142 E18.824
G1 X117.988 Y111.109 E18.85207
G1 X118.063 Y110.056 E18.88016
G1 X118.002 Y109.003 E18.90823
G1 X117.803 Y107.967 E18.9363
G1 X117.471 Y106.966 E18.96436
G1 X117.012 Y106.017 E18.99241
G1 X116.433 Y105.136 E19.02046
G1 X115.743 Y104.338 E19.04853
G1 X114.955 Y103.637 E19.07659
G1 X114.081 Y103.046 E19.10467
G1 X113.139 Y102.572 E19.13273
G1 X112.142 Y102.226 E19.16081
G1 X111.11 Y102.013 E19.18884
G1 X110.056 Y101.937 E19.21696
G1 X109.003 Y101.998 E19.24503
G1 X107.967 Y102.197 E19.2731
G1 X106.966 Y102.529 E19.30116
G1 X106.017 Y102.988 E19.32921
G1 X105.136 Y103.567 E19.35726
G1 X104.338 Y104.257 E19.38533
G1 X103.637 Y105.045 E19.41339
G1 X103.046 Y105.919 E19.44147
G1 X102.571 Y106.861 E19.46954
G0 F3600 X102.506 Y107.05
G0 X101.842 Y106.553
;TYPE:SKIN
G1 F1200 X101.463 Y107.648 E19.50037
G1 X101.227 Y108.782 E19.53119
G1 X101.146 Y109.939 E19.56205
G1 X101.212 Y111.094 E19.59283
G1 X101.431 Y112.234 E19.62372
G1 X101.796 Y113.332 E19.65451
G1 X102.299 Y114.374 E19.6853
G1 X102.935 Y115.342 E19.71611
G1 X103.693 Y116.218 E19.74694
G1 X104.559 Y116.987 E19.77775
G1 X105.519 Y117.637 E19.8086
G1 X106.553 Y118.157 E19.8394
G1 X107.648 Y118.537 E19.87024
G1 X108.781 Y118.772 E19.90103
G1 X109.939 Y118.854 E19.93192
G1 X111.095 Y118.788 E19.96272
G1 X112.233 Y118.569 E19.99356
G1 X113.332 Y118.204 E20.02437
G1 X114.374 Y117.701 E20.05516
G1 X115.342 Y117.065 E20.08598
G1 X116.219 Y116.306 E20.11684
G1 X116.987 Y115.44 E20.14764
G1 X117.637 Y114.481 E20.17846
G1 X118.157 Y113.447 E20.20926
G1 X118.537 Y112.353 E20.24008
G1 X118.773 Y111.218 E20.27092
G1 X118.854 Y110.061 E20.30178
G1 X118.788 Y108.905 E20.33259
G1 X118.569 Y107.767 E20.36343
G1 X118.204 Y106.668 E20.39424
G1 X117.701 Y105.626 E20.42503
G1 X117.065 Y104.658 E20.45585
G1 X116.307 Y103.782 E20.48667
G1 X115.441 Y103.013 E20.51749
G1 X114.481 Y102.363 E20.54833
G1 X113.447 Y101.843 E20.57913
G1 X112.352 Y101.463 E20.60997
G1 X111.219 Y101.228 E20.64076
G1 X110.061 Y101.146 E20.67165
G1 X108.905 Y101.212 E20.70246
G1 X107.767 Y101.431 E20.73329
G1 X106.668 Y101.796 E20.76411
G1 X105.626 Y102.299 E20.79489
G1 X104.658 Y102.935 E20.82571
G1 X103.782 Y103.693 E20.85654
G1 X103.013 Y104.559 E20.88735
G1 X102.363 Y105.519 E20.9182
G1 X101.842 Y106.553 E20.94901
G0 F3600 X88.204 Y104.169
G1 F1200 X90.464 Y98.715 E21.10609
G1 X94.046 Y94.046 E21.26268
G1 X98.715 Y90.464 E21.41926
G1 X104.169 Y88.204 E21.57634
G1 X110 Y87.436 E21.73284
G1 X115.831 Y88.204 E21.88933
G1 X121.285 Y90.464 E22.04641
G1 X125.954 Y94.046 E22.203
G1 X129.536 Y98.715 E22.35958
G1 X131.796 Y104.169 E22.51667
G1 X132.564 Y110 E22.67316
G1 X131.796 Y115.831 E22.82965
G1 X129.536 Y121.285 E22.98674
G1 X125.954 Y125.954 E23.14332
G1 X121.285 Y129.536 E23.2999
G1 X115.831 Y131.796 E23.45699
G1 X110 Y132.564 E23.61348
G1 X104.169 Y131.796 E23.76997
G1 X98.715 Y129.536 E23.92706
G1 X94.046 Y125.954 E24.08364
G1 X90.464 Y121.285 E24.24022
G1 X88.204 Y115.831 E24.39731
G1 X87.436 Y110 E24.5538
G1 X88.204 Y104.169 E24.71029
G0 F3600 X96.478 Y127.591
G1 F1200 X92.407 Y123.52 E24.86348
G1 X92.337 Y123.45
G0 F3600 X90.604 Y121.151
G1 F1200 X98.847 Y129.394 E25.17366
G1 X98.917 Y129.464
G0 F3600 X99.813 Y129.794
G1 F1200 X90.204 Y120.185 E25.53524
G1 X90.134 Y120.115
G0 F3600 X89.803 Y119.219
G1 F1200 X100.778 Y130.194 E25.94823
G1 X100.848 Y130.264
G0 F3600 X101.745 Y130.595
G1 F1200 X89.403 Y118.253 E26.41265
G1 X89.333 Y118.183
G0 F3600 X89.002 Y117.287
G1 F1200 X102.711 Y130.995 E26.9285
G1 X102.781 Y131.065
G0 F3600 X103.677 Y131.395
G1 F1200 X88.602 Y116.321 E27.49574
G1 X88.532 Y116.251
G0 F3600 X88.34 Y115.493
G1 F1200 X104.505 Y131.658 E28.10402
G0 F3600 X105.156 Y131.743
G1 F1200 X88.254 Y114.841 E28.74004
G0 F3600 X88.168 Y114.189
G1 F1200 X105.808 Y131.83 E29.40384
G0 F3600 X106.459 Y131.915
G1 F1200 X88.082 Y113.538 E30.09536
G0 F3600 X87.997 Y112.887
G1 F1200 X107.111 Y132.001 E30.81461
G0 F3600 X107.763 Y132.087
G1 F1200 X87.911 Y112.235 E31.56163
G0 F3600 X87.825 Y111.584
G1 F1200 X108.414 Y132.173 E32.33639
G0 F3600 X109.066 Y132.259
G1 F1200 X87.739 Y110.932 E33.13891
G0 F3600 X87.653 Y110.281
G1 F1200 X109.717 Y132.344 E33.96915
G0 F3600 X110.283 Y132.344
G1 F1200 X87.653 Y109.715 E34.82069
G0 F3600 X87.72 Y109.216
G1 F1200 X110.782 Y132.278 E35.6885
G0 F3600 X111.282 Y132.212
G1 F1200 X87.785 Y108.716 E36.57267
G0 F3600 X87.851 Y108.216
G1 F1200 X111.782 Y132.146 E37.47316
G0 F3600 X112.282 Y132.081
G1 F1200 X87.917 Y107.716 E38.39
G0 F3600 X87.983 Y107.216
G1 F1200 X112.782 Y132.015 E39.32318
G0 F3600 X113.281 Y131.948
G1 F1200 X88.049 Y106.717 E40.27263
G0 F3600 X88.115 Y106.217
G1 F1200 X113.781 Y131.883 E41.23843
G0 F3600 X114.281 Y131.817
G1 F1200 X88.181 Y105.717 E42.22056
G0 F3600 X88.246 Y105.217
G1 F1200 X114.781 Y131.751 E43.21904
G0 F3600 X115.281 Y131.685
G1 F1200 X88.312 Y104.717 E44.23385
G0 F3600 X88.379 Y104.218
G1 F1200 X115.78 Y131.62 E45.26496
G0 F3600 X116.18 Y131.453
G1 F1200 X88.544 Y103.818 E46.30487
G0 F3600 X88.71 Y103.417
G1 F1200 X116.58 Y131.288 E47.35363
G0 F3600 X116.98 Y131.122
G1 F1200 X88.876 Y103.018 E48.41117
G0 F3600 X89.041 Y102.618
G1 F1200 X117.38 Y130.956 E49.47753
G0 F3600 X117.78 Y130.791
G1 F1200 X89.207 Y102.217 E50.55274
G0 F3600 X89.373 Y101.818
G1 F1200 X102.383 Y114.828 E51.0423
G1 X102.453 Y114.898
G0 F3600 X101.731 Y113.61
G1 F1200 X89.538 Y101.418 E51.5011
G0 F3600 X89.704 Y101.017
G1 F1200 X101.401 Y112.715 E51.94127
G1 X101.471 Y112.785
G0 F3600 X101.191 Y111.939
G1 F1200 X89.87 Y100.618 E52.36727
G0 F3600 X90.035 Y100.218
G1 F1200 X101.056 Y111.239 E52.78199
G0 F3600 X101.005 Y110.621
G1 F1200 X90.201 Y99.818 E53.18852
G0 F3600 X90.367 Y99.418
G1 F1200 X100.971 Y110.022 E53.58754
G0 F3600 X100.998 Y109.483
G1 F1200 X90.533 Y99.018 E53.98134
G0 F3600 X90.735 Y98.655
G1 F1200 X101.034 Y108.953 E54.36886
G0 F3600 X101.109 Y108.463
G1 F1200 X90.981 Y98.335 E54.74998
G0 F3600 X91.227 Y98.015
G1 F1200 X101.207 Y107.995 E55.12552
G0 F3600 X101.312 Y107.535
G1 F1200 X91.472 Y97.695 E55.49579
G0 F3600 X91.718 Y97.374
G1 F1200 X101.457 Y107.114 E55.86229
G0 F3600 X101.602 Y106.693
G1 F1200 X91.964 Y97.055 E56.22496
G0 F3600 X92.209 Y96.735
G1 F1200 X101.77 Y106.295 E56.58472
G0 F3600 X101.959 Y105.919
G1 F1200 X92.454 Y96.414 E56.94239
G0 F3600 X92.7 Y96.095
G1 F1200 X102.149 Y105.543 E57.29793
G0 F3600 X102.365 Y105.194
G1 F1200 X92.946 Y95.774 E57.65238
G0 F3600 X93.191 Y95.454
G1 F1200 X102.594 Y104.856 E58.00619
G0 F3600 X102.822 Y104.519
G1 F1200 X93.437 Y95.134 E58.35935
G0 F3600 X93.683 Y94.814
G1 F1200 X103.08 Y104.211 E58.71295
G0 F3600 X103.345 Y103.911
G1 F1200 X93.928 Y94.494 E59.06731
G0 F3600 X94.174 Y94.174
G1 F1200 X103.611 Y103.611 E59.42242
G0 F3600 X103.908 Y103.342
G1 F1200 X94.494 Y93.929 E59.77664
G0 F3600 X94.815 Y93.683
G1 F1200 X104.211 Y103.08 E60.13023
G0 F3600 X104.516 Y102.818
G1 F1200 X95.135 Y93.438 E60.48321
G0 F3600 X95.455 Y93.192
G1 F1200 X104.853 Y102.59 E60.83686
G0 F3600 X105.194 Y102.366
G1 F1200 X95.775 Y92.947 E61.19129
G0 F3600 X96.095 Y92.701
G1 F1200 X105.536 Y102.142 E61.54655
G0 F3600 X105.917 Y101.957
G1 F1200 X96.415 Y92.455 E61.90411
G0 F3600 X96.735 Y92.21
G1 F1200 X106.298 Y101.773 E62.26396
G0 F3600 X106.688 Y101.597
G1 F1200 X97.056 Y91.964 E62.62642
G0 F3600 X97.375 Y91.718
G1 F1200 X107.113 Y101.457 E62.99288
G0 F3600 X107.538 Y101.316
G1 F1200 X97.695 Y91.473 E63.36327
G0 F3600 X98.016 Y91.228
G1 F1200 X107.992 Y101.203 E63.73864
G0 F3600 X108.466 Y101.112
G1 F1200 X98.335 Y90.982 E64.11985
G0 F3600 X98.656 Y90.736
G1 F1200 X108.948 Y101.028 E64.50713
G0 F3600 X109.484 Y100.998
G1 F1200 X99.018 Y90.533 E64.90094
G0 F3600 X99.419 Y90.368
G1 F1200 X110.019 Y100.968 E65.29982
G0 F3600 X110.621 Y101.005
G1 F1200 X99.818 Y90.202 E65.70633
G0 F3600 X100.218 Y90.036
G1 F1200 X111.23 Y101.047 E66.12068
G0 F3600 X111.942 Y101.194
G1 F1200 X100.619 Y89.871 E66.54676
G0 F3600 X101.018 Y89.704
G1 F1200 X112.711 Y101.397 E66.98677
G1 X112.781 Y101.467
G0 F3600 X113.595 Y101.716
G1 F1200 X101.418 Y89.539 E67.44498
G0 F3600 X101.819 Y89.374
G1 F1200 X114.824 Y102.379 E67.93435
G1 X114.894 Y102.449
G0 F3600 X117.616 Y105.171
G1 F1200 X130.625 Y118.18 E68.42388
G0 F3600 X130.792 Y117.781
G1 F1200 X102.218 Y89.207 E69.4991
G0 F3600 X102.618 Y89.042
G1 F1200 X130.957 Y117.381 E70.56549
G0 F3600 X131.123 Y116.98
G1 F1200 X103.019 Y88.876 E71.62303
G0 F3600 X103.418 Y88.71
G1 F1200 X131.289 Y116.581 E72.6718
G0 F3600 X131.454 Y116.181
G1 F1200 X103.818 Y88.545 E73.71173
G0 F3600 X104.218 Y88.379
G1 F1200 X131.62 Y115.78 E74.74284
G0 F3600 X131.686 Y115.281
G1 F1200 X104.718 Y88.313 E75.75763
G0 F3600 X105.218 Y88.247
G1 F1200 X131.752 Y114.781 E76.75609
G0 F3600 X131.818 Y114.281
G1 F1200 X105.718 Y88.181 E77.73822
G0 F3600 X106.218 Y88.116
G1 F1200 X131.883 Y113.781 E78.70399
G0 F3600 X131.949 Y113.282
G1 F1200 X106.717 Y88.05 E79.65346
G0 F3600 X107.217 Y87.983
G1 F1200 X132.016 Y112.782 E80.58663
G0 F3600 X132.081 Y112.282
G1 F1200 X107.717 Y87.918 E81.50344
G0 F3600 X108.217 Y87.852
G1 F1200 X132.147 Y111.782 E82.40391
G0 F3600 X132.213 Y111.283
G1 F1200 X108.716 Y87.786 E83.28809
G0 F3600 X109.216 Y87.72
G1 F1200 X132.279 Y110.783 E84.15594
G0 F3600 X132.345 Y110.283
G1 F1200 X109.716 Y87.654 E85.00746
G0 F3600 X110.281 Y87.654
G1 F1200 X132.345 Y109.718 E85.83772
G0 F3600 X132.26 Y109.066
G1 F1200 X110.933 Y87.739 E86.64025
G0 F3600 X111.584 Y87.826
G1 F1200 X132.173 Y108.415 E87.415
G0 F3600 X132.088 Y107.763
G1 F1200 X112.236 Y87.911 E88.16202
G0 F3600 X112.888 Y87.998
G1 F1200 X132.001 Y107.111 E88.88124
G0 F3600 X131.916 Y106.46
G1 F1200 X113.539 Y88.083 E89.57275
G0 F3600 X114.19 Y88.169
G1 F1200 X131.83 Y105.809 E90.23654
G0 F3600 X131.744 Y105.157
G1 F1200 X114.842 Y88.255 E90.87255
G0 F3600 X115.493 Y88.34
G1 F1200 X131.659 Y104.506 E91.48087
G1 X131.729 Y104.576
G0 F3600 X131.396 Y103.678
G1 F1200 X116.321 Y88.603 E92.04814
G1 X116.251 Y88.533
G0 F3600 X117.287 Y89.003
G1 F1200 X130.996 Y102.712 E92.564
G1 X131.066 Y102.782
G0 F3600 X130.596 Y101.746
G1 F1200 X118.253 Y89.403 E93.02846
G1 X118.183 Y89.333
G0 F3600 X119.22 Y89.804
G1 F1200 X130.195 Y100.779 E93.44145
G1 X130.265 Y100.849
G0 F3600 X129.795 Y99.813
G1 F1200 X120.186 Y90.204 E93.80303
G1 X120.116 Y90.134
G0 F3600 X121.152 Y90.605
G1 F1200 X129.394 Y98.847 E94.11317
G1 X129.464 Y98.917
G0 F3600 X127.591 Y96.479
G1 F1200 X123.52 Y92.408 E94.26636
G1 X123.45 Y92.338
G0 F3600 X118.269 Y106.389
G1 F1200 X130.46 Y118.581 E94.72512
G0 F3600 X130.295 Y118.981
G1 F1200 X118.597 Y107.283 E95.16531
G1 X118.527 Y107.213
G0 F3600 X118.807 Y108.059
G1 F1200 X130.128 Y119.38 E95.59132
G0 F3600 X129.963 Y119.781
G1 F1200 X118.941 Y108.759 E96.00607
G0 F3600 X118.993 Y109.376
G1 F1200 X129.797 Y120.181 E96.41264
G0 F3600 X129.631 Y120.58
G1 F1200 X119.027 Y109.977 E96.81164
G0 F3600 X119.001 Y110.515
G1 F1200 X129.466 Y120.981 E97.20546
G0 F3600 X129.263 Y121.343
G1 F1200 X118.965 Y111.045 E97.59297
G0 F3600 X118.89 Y111.536
G1 F1200 X129.017 Y121.664 E97.97406
G0 F3600 X128.771 Y121.983
G1 F1200 X118.792 Y112.004 E98.34956
G0 F3600 X118.687 Y112.464
G1 F1200 X128.526 Y122.304 E98.71982
G0 F3600 X128.281 Y122.624
G1 F1200 X118.541 Y112.884 E99.08633
G0 F3600 X118.395 Y113.304
G1 F1200 X128.035 Y122.943 E99.44906
G0 F3600 X127.789 Y123.264
G1 F1200 X118.228 Y113.702 E99.80886
G0 F3600 X118.039 Y114.079
G1 F1200 X127.544 Y123.584 E100.16653
G0 F3600 X127.298 Y123.904
G1 F1200 X117.849 Y114.455 E100.52209
G0 F3600 X117.633 Y114.805
G1 F1200 X127.052 Y124.224 E100.87652
G0 F3600 X126.807 Y124.544
G1 F1200 X117.404 Y115.141 E101.23035
G0 F3600 X117.176 Y115.479
G1 F1200 X126.561 Y124.864 E101.5835
G0 F3600 X126.316 Y125.184
G1 F1200 X116.918 Y115.787 E101.93713
G0 F3600 X116.652 Y116.087
G1 F1200 X126.07 Y125.505 E102.29152
G0 F3600 X125.824 Y125.824
G1 F1200 X116.387 Y116.387 E102.64663
G0 F3600 X116.09 Y116.656
G1 F1200 X125.504 Y126.07 E103.00088
G0 F3600 X125.184 Y126.315
G1 F1200 X115.787 Y116.918 E103.35448
G0 F3600 X115.483 Y117.18
G1 F1200 X124.863 Y126.56 E103.70745
G0 F3600 X124.544 Y126.806
G1 F1200 X115.145 Y117.408 E104.06111
G0 F3600 X114.804 Y117.632
G1 F1200 X124.223 Y127.052 E104.41556
G0 F3600 X123.903 Y127.297
G1 F1200 X114.462 Y117.857 E104.7708
G0 F3600 X114.081 Y118.041
G1 F1200 X123.583 Y127.543 E105.12836
G0 F3600 X123.263 Y127.789
G1 F1200 X113.7 Y118.226 E105.48821
G0 F3600 X113.31 Y118.401
G1 F1200 X122.943 Y128.034 E105.85069
G0 F3600 X122.623 Y128.28
G1 F1200 X112.885 Y118.542 E106.21713
G0 F3600 X112.46 Y118.682
G1 F1200 X122.303 Y128.525 E106.58752
G0 F3600 X121.982 Y128.771
G1 F1200 X112.007 Y118.795 E106.96289
G0 F3600 X111.532 Y118.886
G1 F1200 X121.663 Y129.017 E107.34412
G0 F3600 X121.343 Y129.262
G1 F1200 X111.051 Y118.97 E107.7314
G0 F3600 X110.515 Y119
G1 F1200 X120.98 Y129.465 E108.12519
G0 F3600 X120.58 Y129.631
G1 F1200 X109.979 Y119.03 E108.5241
G0 F3600 X109.377 Y118.994
G1 F1200 X120.18 Y129.797 E108.93062
G0 F3600 X119.78 Y129.962
G1 F1200 X108.769 Y118.951 E109.34496
G0 F3600 X108.056 Y118.804
G1 F1200 X119.38 Y130.128 E109.77107
G0 F3600 X118.98 Y130.294
G1 F1200 X107.287 Y118.601 E110.21107
G1 X107.217 Y118.531
G0 F3600 X106.403 Y118.282
G1 F1200 X118.58 Y130.459 E110.66929
G0 F3600 X118.18 Y130.625
G1 F1200 X105.175 Y117.62 E111.15866
G1 X105.105 Y117.55
;MESH:NONMESH
G0 F600 X105.105 Y117.55 Z0.32
G0 F3600 X106.553 Y117.831
G0 X106.614 Y117.709
;TIME_ELAPSED:218.649039
;LAYER:1
M140 S45
M106 S255
;TYPE:WALL-INNER
;MESH:Sombrero1.stl
G1 F1800 X107.65 Y118.084 E111.18798
G1 X108.726 Y118.321 E111.21729
G1 X109.824 Y118.417 E111.24662
G1 X110.924 Y118.367 E111.27592
G1 X112.009 Y118.176 E111.30523
G1 X113.059 Y117.843 E111.33454
G1 X114.055 Y117.378 E111.36379
G1 X114.984 Y116.787 E111.39309
G1 X115.828 Y116.077 E111.42244
G1 X116.571 Y115.263 E111.45176
G1 X117.2 Y114.363 E111.48098
G1 X117.709 Y113.386 E111.51029
G1 X118.084 Y112.35 E111.53961
G1 X118.322 Y111.273 E111.56895
G1 X118.417 Y110.175 E111.59828
G1 X118.367 Y109.075 E111.62758
G1 X118.176 Y107.991 E111.65687
G1 X117.843 Y106.941 E111.68618
G1 X117.378 Y105.945 E111.71542
G1 X116.787 Y105.016 E111.74472
G1 X116.077 Y104.172 E111.77407
G1 X115.264 Y103.43 E111.80335
G1 X114.363 Y102.8 E111.83261
G1 X113.386 Y102.291 E111.86192
G1 X112.35 Y101.916 E111.89124
G1 X111.274 Y101.679 E111.92055
G1 X110.176 Y101.583 E111.94988
G1 X109.076 Y101.633 E111.97918
G1 X107.991 Y101.824 E112.00849
G1 X106.941 Y102.157 E112.0378
G1 X105.945 Y102.622 E112.06705
G1 X105.016 Y103.213 E112.09635
G1 X104.172 Y103.923 E112.12569
G1 X103.43 Y104.736 E112.15498
G1 X102.8 Y105.637 E112.18424
G1 X102.291 Y106.615 E112.21357
G1 X101.915 Y107.651 E112.2429
G1 X101.678 Y108.728 E112.27224
G1 X101.583 Y109.825 E112.30154
G1 X101.633 Y110.925 E112.33084
G1 X101.824 Y112.01 E112.36015
G1 X102.157 Y113.06 E112.38946
G1 X102.622 Y114.055 E112.41868
G1 X103.213 Y114.984 E112.44798
G1 X103.923 Y115.828 E112.47733
G1 X104.736 Y116.57 E112.50661
G1 X105.637 Y117.2 E112.53587
G1 X106.614 Y117.709 E112.56518
G0 F5400 X106.574 Y117.8
G0 X107.639 Y118.122
G0 X108.72 Y118.36
G0 X109.824 Y118.456
G0 X110.928 Y118.406
G0 X112.018 Y118.214
G0 X113.073 Y117.88
G0 X114.074 Y117.413
G0 X115.007 Y116.819
G0 X115.855 Y116.105
G0 X130.403 Y99.361
G0 X130.495 Y99.323
G1 F1800 X132.431 Y103.99 E112.69962
G1 X133.221 Y110 E112.86091
G1 X132.431 Y116.008 E113.02215
G1 X130.108 Y121.615 E113.18364
G1 X126.422 Y126.42 E113.34478
G1 X125.619 Y127.034 E113.37167
G1 X121.613 Y130.109 E113.50605
G1 X120.677 Y130.495 E113.53299
G1 X116.01 Y132.431 E113.66743
G1 X110 Y133.221 E113.82872
G1 X103.992 Y132.431 E113.98995
G1 X98.385 Y130.108 E114.15144
G1 X93.58 Y126.422 E114.31258
G1 X92.966 Y125.619 E114.33948
G1 X89.891 Y121.613 E114.47385
G1 X89.505 Y120.677 E114.50079
G1 X87.569 Y116.01 E114.63523
G1 X86.779 Y110 E114.79652
G1 X87.569 Y103.992 E114.95776
G1 X89.892 Y98.385 E115.11925
G1 X93.578 Y93.58 E115.28039
G1 X94.381 Y92.966 E115.30728
G1 X98.387 Y89.891 E115.44166
G1 X99.323 Y89.505 E115.4686
G1 X103.99 Y87.569 E115.60304
G1 X110 Y86.779 E115.76433
G1 X116.008 Y87.569 E115.92557
G1 X121.615 Y89.892 E116.08706
G1 X126.42 Y93.578 E116.24819
G1 X127.034 Y94.381 E116.27509
G1 X130.109 Y98.387 E116.40946
G1 X130.495 Y99.323 E116.4364
G0 F5400 X130.403 Y99.361
G0 X126.955 Y94.441
G0 X127.352 Y94.138
;TYPE:WALL-OUTER
G1 F1200 X130.459 Y98.186 E116.57218
G1 X130.865 Y99.17 E116.60051
G1 X132.821 Y103.885 E116.73633
G1 X133.625 Y110 E116.90044
G1 X132.821 Y116.113 E117.0645
G1 X130.459 Y121.813 E117.22867
G1 X126.705 Y126.708 E117.39281
G1 X125.862 Y127.352 E117.42103
G1 X121.814 Y130.459 E117.55681
G1 X120.83 Y130.865 E117.58514
G1 X116.115 Y132.821 E117.72096
G1 X110 Y133.625 E117.88507
G1 X103.887 Y132.821 E118.04913
G1 X98.187 Y130.459 E118.2133
G1 X93.292 Y126.705 E118.37744
G1 X92.648 Y125.862 E118.40566
G1 X89.541 Y121.814 E118.54144
G1 X89.135 Y120.83 E118.56977
G1 X87.179 Y116.115 E118.70559
G1 X86.375 Y110 E118.8697
G1 X87.179 Y103.887 E119.03376
G1 X89.541 Y98.187 E119.19793
G1 X93.295 Y93.292 E119.36207
G1 X94.138 Y92.648 E119.39029
G1 X98.186 Y89.541 E119.52607
G1 X99.17 Y89.135 E119.5544
G1 X103.885 Y87.179 E119.69022
G1 X110 Y86.375 E119.85433
G1 X116.113 Y87.179 E120.01839
G1 X121.813 Y89.541 E120.18256
G1 X126.708 Y93.295 E120.3467
G1 X127.352 Y94.138 E120.37492
G0 F5400 X127.473 Y94.296
G0 X127.076 Y94.599
G0 X117.234 Y114.383
G0 X116.602 Y115.287
G0 X115.855 Y116.105
G0 X115.007 Y116.819
G0 X114.074 Y117.413
G0 X113.073 Y117.88
G0 X112.018 Y118.214
G0 X110.928 Y118.406
G0 X109.824 Y118.456
G0 X108.72 Y118.36
G0 X106.544 Y117.784
G0 X106.775 Y117.342
G1 F1200 X107.762 Y117.699 E120.40285
G1 X108.787 Y117.925 E120.43078
G1 X109.832 Y118.016 E120.45869
G1 X110.88 Y117.969 E120.4866
G1 X111.913 Y117.787 E120.51451
G1 X112.913 Y117.47 E120.54243
G1 X113.862 Y117.027 E120.57029
G1 X114.747 Y116.464 E120.5982
G1 X115.55 Y115.788 E120.62613
G1 X116.258 Y115.013 E120.65406
G1 X116.857 Y114.155 E120.68191
G1 X117.342 Y113.225 E120.70981
G1 X117.699 Y112.238 E120.73774
G1 X117.926 Y111.212 E120.7657
G1 X118.016 Y110.167 E120.79361
G1 X117.969 Y109.119 E120.82152
G1 X117.787 Y108.087 E120.84941
G1 X117.47 Y107.087 E120.87732
G1 X117.027 Y106.138 E120.90519
G1 X116.464 Y105.253 E120.9331
G1 X115.788 Y104.45 E120.96102
G1 X115.014 Y103.743 E120.98892
G1 X114.155 Y103.143 E121.0168
G1 X113.225 Y102.658 E121.04471
G1 X112.238 Y102.301 E121.07263
G1 X111.213 Y102.075 E121.10056
G1 X110.168 Y101.984 E121.12847
G1 X109.12 Y102.031 E121.15639
G1 X108.087 Y102.213 E121.1843
G1 X107.087 Y102.53 E121.21221
G1 X106.138 Y102.973 E121.24008
G1 X105.253 Y103.536 E121.26798
G1 X104.45 Y104.212 E121.29591
G1 X103.743 Y104.986 E121.32381
G1 X103.143 Y105.845 E121.35169
G1 X102.658 Y106.776 E121.37962
G1 X102.3 Y107.763 E121.40756
G1 X102.074 Y108.788 E121.43548
G1 X101.984 Y109.833 E121.46339
G1 X102.031 Y110.881 E121.49131
G1 X102.213 Y111.914 E121.51922
G1 X102.53 Y112.914 E121.54713
G1 X102.973 Y113.862 E121.57497
G1 X103.536 Y114.747 E121.60288
G1 X104.212 Y115.55 E121.63081
G1 X104.986 Y116.257 E121.6587
G1 X105.845 Y116.857 E121.68658
G1 X106.775 Y117.342 E121.71449
G0 F5400 X106.963 Y117.41
G0 X106.456 Y118.067
;TYPE:SKIN
G1 F1200 X107.541 Y118.46 E121.7452
G1 X108.667 Y118.707 E121.77587
G1 X109.816 Y118.807 E121.80656
G1 X110.967 Y118.755 E121.83722
G1 X112.102 Y118.556 E121.86788
G1 X113.201 Y118.207 E121.89856
G1 X114.243 Y117.721 E121.92915
G1 X115.216 Y117.103 E121.95982
G1 X116.099 Y116.359 E121.99054
G1 X116.876 Y115.507 E122.02123
G1 X117.534 Y114.566 E122.05178
G1 X118.067 Y113.544 E122.08245
G1 X118.459 Y112.459 E122.11314
G1 X118.708 Y111.332 E122.14385
G1 X118.807 Y110.183 E122.17454
G1 X118.755 Y109.032 E122.2052
G1 X118.556 Y107.898 E122.23583
G1 X118.207 Y106.799 E122.26651
G1 X117.721 Y105.757 E122.29711
G1 X117.103 Y104.784 E122.32778
G1 X116.359 Y103.901 E122.3585
G1 X115.508 Y103.125 E122.38914
G1 X114.566 Y102.466 E122.41973
G1 X113.544 Y101.933 E122.4504
G1 X112.459 Y101.54 E122.48111
G1 X111.333 Y101.293 E122.51178
G1 X110.184 Y101.193 E122.54247
G1 X109.033 Y101.245 E122.57313
G1 X107.898 Y101.444 E122.60379
G1 X106.799 Y101.793 E122.63447
G1 X105.757 Y102.279 E122.66506
G1 X104.784 Y102.897 E122.69573
G1 X103.901 Y103.641 E122.72646
G1 X103.125 Y104.492 E122.7571
G1 X102.466 Y105.434 E122.78769
G1 X101.933 Y106.457 E122.81838
G1 X101.54 Y107.542 E122.84909
G1 X101.292 Y108.669 E122.87979
G1 X101.193 Y109.817 E122.91045
G1 X101.245 Y110.968 E122.94111
G1 X101.444 Y112.103 E122.97177
G1 X101.793 Y113.202 E123.00245
G1 X102.279 Y114.243 E123.03302
G1 X102.897 Y115.216 E123.06369
G1 X103.641 Y116.099 E123.09441
G1 X104.492 Y116.875 E123.12506
G1 X105.434 Y117.534 E123.15565
G1 X106.456 Y118.067 E123.18632
G0 F5400 X104.1 Y132.053
G1 F1200 X98.582 Y129.766 E123.34525
G1 X93.855 Y126.141 E123.50375
G1 X93.276 Y125.383 E123.52913
G1 X90.233 Y121.418 E123.66212
G1 X89.866 Y120.529 E123.68772
G1 X87.948 Y115.906 E123.82089
G1 X87.171 Y110 E123.97939
G1 X87.947 Y104.1 E124.13773
G1 X90.234 Y98.582 E124.29667
G1 X93.859 Y93.855 E124.45517
G1 X94.617 Y93.276 E124.48055
G1 X98.582 Y90.233 E124.61354
G1 X99.471 Y89.866 E124.63913
G1 X104.094 Y87.948 E124.77231
G1 X110 Y87.171 E124.93081
G1 X115.9 Y87.947 E125.08915
G1 X121.418 Y90.234 E125.24808
G1 X126.145 Y93.859 E125.40659
G1 X126.724 Y94.617 E125.43197
G1 X129.767 Y98.582 E125.56496
G1 X130.134 Y99.471 E125.59055
G1 X132.052 Y104.094 E125.72372
G1 X132.829 Y110 E125.88222
G1 X132.053 Y115.9 E126.04056
G1 X129.766 Y121.418 E126.1995
G1 X126.141 Y126.145 E126.358
G1 X125.383 Y126.724 E126.38338
G1 X121.418 Y129.767 E126.51637
G1 X120.529 Y130.134 E126.54196
G1 X115.906 Y132.052 E126.67514
G1 X110 Y132.829 E126.83364
G1 X104.1 Y132.053 E126.99198
G0 F5400 X124.738 Y126.991
G1 F1200 X126.991 Y124.738 E127.07676
G1 X127.061 Y124.668
G0 F5400 X128.849 Y122.314
G1 F1200 X122.306 Y128.857 E127.32297
G1 X122.236 Y128.927
G0 F5400 X120.752 Y129.846
G1 F1200 X129.843 Y120.754 E127.66508
G1 X129.913 Y120.684
G0 F5400 X130.244 Y119.788
G1 F1200 X119.786 Y130.246 E128.05861
G1 X119.716 Y130.316
G0 F5400 X118.819 Y130.647
G1 F1200 X130.645 Y118.822 E128.5036
G1 X130.715 Y118.752
G0 F5400 X131.045 Y117.855
G1 F1200 X117.852 Y131.049 E129.00006
G1 X117.782 Y131.119
G0 F5400 X116.885 Y131.45
G1 F1200 X131.446 Y116.889 E129.54799
G1 X131.516 Y116.819
G0 F5400 X131.847 Y115.923
G1 F1200 X115.918 Y131.852 E130.14739
G0 F5400 X115.247 Y131.957
G1 F1200 X131.956 Y115.247 E130.77616
G0 F5400 X132.042 Y114.596
G1 F1200 X114.595 Y132.042 E131.43266
G0 F5400 X113.943 Y132.129
G1 F1200 X132.127 Y113.945 E132.11692
G0 F5400 X132.213 Y113.294
G1 F1200 X113.292 Y132.214 E132.82889
G0 F5400 X112.641 Y132.3
G1 F1200 X132.299 Y112.642 E133.56861
G0 F5400 X132.385 Y111.99
G1 F1200 X111.99 Y132.385 E134.33606
G0 F5400 X111.338 Y132.471
G1 F1200 X132.47 Y111.339 E135.13125
G0 F5400 X132.557 Y110.687
G1 F1200 X110.686 Y132.557 E135.95423
G0 F5400 X110.035 Y132.643
G1 F1200 X132.642 Y110.036 E136.80492
G0 F5400 X132.585 Y109.528
G1 F1200 X109.528 Y132.585 E137.67254
G0 F5400 X109.028 Y132.519
G1 F1200 X132.518 Y109.028 E138.55648
G0 F5400 X132.453 Y108.528
G1 F1200 X108.528 Y132.453 E139.45677
G0 F5400 X108.028 Y132.388
G1 F1200 X132.387 Y108.028 E140.37341
G0 F5400 X132.321 Y107.529
G1 F1200 X107.528 Y132.322 E141.30635
G0 F5400 X107.028 Y132.256
G1 F1200 X132.255 Y107.029 E142.25564
G0 F5400 X132.19 Y106.529
G1 F1200 X106.528 Y132.19 E143.22127
G0 F5400 X106.028 Y132.125
G1 F1200 X132.124 Y106.029 E144.20325
G0 F5400 X132.058 Y105.529
G1 F1200 X105.528 Y132.059 E145.20156
G0 F5400 X105.029 Y131.992
G1 F1200 X131.992 Y105.029 E146.21616
G0 F5400 X131.927 Y104.529
G1 F1200 X104.529 Y131.927 E147.24714
G0 F5400 X104.053 Y131.837
G1 F1200 X131.838 Y104.052 E148.29268
G0 F5400 X131.672 Y103.652
G1 F1200 X103.653 Y131.671 E149.34702
G0 F5400 X103.253 Y131.506
G1 F1200 X131.506 Y103.253 E150.41016
G0 F5400 X131.34 Y102.852
G1 F1200 X102.853 Y131.34 E151.48214
G0 F5400 X102.453 Y131.174
G1 F1200 X131.174 Y102.453 E152.56289
G0 F5400 X131.009 Y102.053
G1 F1200 X102.053 Y131.008 E153.65248
G0 F5400 X101.653 Y130.843
G1 F1200 X115.119 Y117.376 E154.15922
G1 X115.189 Y117.306
G0 F5400 X113.81 Y118.12
G1 F1200 X101.253 Y130.677 E154.63173
G0 F5400 X100.853 Y130.511
G1 F1200 X112.862 Y118.503 E155.0836
G1 X112.932 Y118.433
G0 F5400 X112.053 Y118.746
G1 F1200 X100.453 Y130.345 E155.52009
G0 F5400 X100.053 Y130.18
G1 F1200 X111.367 Y118.866 E155.94583
G0 F5400 X110.723 Y118.944
G1 F1200 X99.653 Y130.014 E156.36239
G0 F5400 X99.253 Y129.848
G1 F1200 X110.131 Y118.971 E156.7717
G0 F5400 X109.571 Y118.965
G1 F1200 X98.853 Y129.683 E157.17502
G0 F5400 X98.497 Y129.473
G1 F1200 X109.051 Y118.919 E157.57216
G0 F5400 X108.543 Y118.862
G1 F1200 X98.177 Y129.228 E157.96223
G0 F5400 X97.857 Y128.982
G1 F1200 X108.079 Y118.76 E158.34688
G0 F5400 X107.615 Y118.658
G1 F1200 X97.536 Y128.737 E158.72614
G0 F5400 X97.217 Y128.491
G1 F1200 X107.186 Y118.521 E159.10129
G0 F5400 X106.771 Y118.371
G1 F1200 X96.896 Y128.245 E159.47287
G0 F5400 X96.576 Y128
G1 F1200 X106.358 Y118.219 E159.84094
G0 F5400 X105.986 Y118.024
G1 F1200 X96.256 Y127.755 E160.20709
G0 F5400 X95.936 Y127.509
G1 F1200 X105.615 Y117.83 E160.57131
G0 F5400 X105.253 Y117.626
G1 F1200 X95.616 Y127.263 E160.93395
G0 F5400 X95.296 Y127.018
G1 F1200 X104.921 Y117.393 E161.29613
G0 F5400 X104.588 Y117.16
G1 F1200 X94.975 Y126.772 E161.65784
G0 F5400 X94.656 Y126.526
G1 F1200 X104.269 Y116.913 E162.01958
G0 F5400 X103.972 Y116.644
G1 F1200 X94.335 Y126.281 E162.38221
G0 F5400 X94.015 Y126.036
G1 F1200 X103.677 Y116.374 E162.74579
G0 F5400 X103.396 Y116.089
G1 F1200 X93.763 Y125.722 E163.10827
G0 F5400 X93.518 Y125.401
G1 F1200 X103.138 Y115.781 E163.47027
G0 F5400 X102.879 Y115.474
G1 F1200 X93.273 Y125.081 E163.83176
G0 F5400 X93.027 Y124.761
G1 F1200 X102.64 Y115.148 E164.19349
G0 F5400 X102.42 Y114.802
G1 F1200 X92.781 Y124.441 E164.5562
G0 F5400 X92.536 Y124.121
G1 F1200 X102.2 Y114.456 E164.91987
G0 F5400 X102.006 Y114.085
G1 F1200 X92.29 Y123.801 E165.28548
G0 F5400 X92.044 Y123.481
G1 F1200 X101.826 Y113.699 E165.65357
G0 F5400 X101.645 Y113.314
G1 F1200 X91.799 Y123.161 E166.02409
G0 F5400 X91.553 Y122.841
G1 F1200 X101.504 Y112.89 E166.39855
G0 F5400 X101.367 Y112.461
G1 F1200 X91.307 Y122.521 E166.7771
G0 F5400 X91.062 Y122.2
G1 F1200 X101.244 Y112.018 E167.16024
G0 F5400 X101.161 Y111.536
G1 F1200 X90.816 Y121.881 E167.54952
G0 F5400 X90.571 Y121.56
G1 F1200 X101.077 Y111.054 E167.94486
G0 F5400 X101.044 Y110.521
G1 F1200 X90.347 Y121.219 E168.3474
G0 F5400 X90.181 Y120.819
G1 F1200 X101.02 Y109.98 E168.75527
G0 F5400 X101.049 Y109.385
G1 F1200 X90.016 Y120.418 E169.17043
G0 F5400 X89.85 Y120.018
G1 F1200 X101.102 Y108.766 E169.59384
G0 F5400 X101.24 Y108.062
G1 F1200 X89.684 Y119.619 E170.02871
G0 F5400 X89.519 Y119.218
G1 F1200 X101.433 Y107.304 E170.47702
G1 X101.503 Y107.234
G0 F5400 X101.754 Y106.418
G1 F1200 X89.352 Y118.819 E170.94369
G0 F5400 X89.186 Y118.419
G1 F1200 X102.418 Y105.188 E171.44158
G1 X102.488 Y105.118
G0 F5400 X105.165 Y102.441
G1 F1200 X118.419 Y89.186 E171.94034
G0 F5400 X118.019 Y89.021
G1 F1200 X89.021 Y118.019 E173.03152
G0 F5400 X88.855 Y117.62
G1 F1200 X117.62 Y88.855 E174.11394
G0 F5400 X117.219 Y88.689
G1 F1200 X88.689 Y117.219 E175.18751
G0 F5400 X88.523 Y116.82
G1 F1200 X116.82 Y88.523 E176.25231
G0 F5400 X116.42 Y88.357
G1 F1200 X88.357 Y116.42 E177.30831
G0 F5400 X88.191 Y116.02
G1 F1200 X116.019 Y88.192 E178.35547
G0 F5400 X115.563 Y88.083
G1 F1200 X88.084 Y115.561 E179.38947
G0 F5400 X88.018 Y115.062
G1 F1200 X115.063 Y88.017 E180.40716
G0 F5400 X114.563 Y87.952
G1 F1200 X87.952 Y114.562 E181.4085
G0 F5400 X87.887 Y114.062
G1 F1200 X114.063 Y87.886 E182.39349
G0 F5400 X113.563 Y87.82
G1 F1200 X87.821 Y113.562 E183.36215
G0 F5400 X87.755 Y113.062
G1 F1200 X113.063 Y87.754 E184.31448
G0 F5400 X112.563 Y87.689
G1 F1200 X87.689 Y112.562 E185.25046
G0 F5400 X87.623 Y112.062
G1 F1200 X112.063 Y87.623 E186.17011
G0 F5400 X111.563 Y87.557
G1 F1200 X87.558 Y111.563 E187.07342
G0 F5400 X87.492 Y111.063
G1 F1200 X111.063 Y87.491 E187.96041
G0 F5400 X110.563 Y87.425
G1 F1200 X87.426 Y110.563 E188.83106
G0 F5400 X87.36 Y110.063
G1 F1200 X110.063 Y87.36 E189.68537
G0 F5400 X109.432 Y87.425
G1 F1200 X87.426 Y109.431 E190.51344
G0 F5400 X87.512 Y108.78
G1 F1200 X108.781 Y87.511 E191.31378
G0 F5400 X108.13 Y87.597
G1 F1200 X87.598 Y108.128 E192.08637
G0 F5400 X87.684 Y107.477
G1 F1200 X107.478 Y87.683 E192.83121
G0 F5400 X106.826 Y87.768
G1 F1200 X87.769 Y106.826 E193.54834
G0 F5400 X87.855 Y106.174
G1 F1200 X106.175 Y87.854 E194.23771
G0 F5400 X105.524 Y87.94
G1 F1200 X87.941 Y105.522 E194.89933
G0 F5400 X88.027 Y104.871
G1 F1200 X104.873 Y88.025 E195.53324
G0 F5400 X104.221 Y88.111
G1 F1200 X88.112 Y104.22 E196.13942
G1 X88.042 Y104.29
G0 F5400 X88.478 Y103.288
G1 F1200 X103.292 Y88.474 E196.69686
G1 X103.362 Y88.404
G0 F5400 X102.326 Y88.875
G1 F1200 X88.879 Y102.322 E197.20286
G1 X88.809 Y102.392
G0 F5400 X89.28 Y101.355
G1 F1200 X101.358 Y89.277 E197.65735
G1 X101.428 Y89.207
G0 F5400 X100.391 Y89.678
G1 F1200 X89.68 Y100.39 E198.06042
G1 X89.61 Y100.46
G0 F5400 X90.081 Y99.423
G1 F1200 X99.424 Y90.079 E198.41201
G1 X99.494 Y90.009
G0 F5400 X98.142 Y90.796
G1 F1200 X90.805 Y98.132 E198.68808
G1 X90.735 Y98.202
G0 F5400 X92.664 Y95.709
G1 F1200 X95.71 Y92.662 E198.80272
G1 X95.78 Y92.592
G0 F5400 X106.385 Y101.786
G1 F1200 X118.82 Y89.352 E199.27063
G0 F5400 X119.219 Y89.518
G1 F1200 X107.29 Y101.447 E199.71951
G1 X107.22 Y101.517
G0 F5400 X108.072 Y101.23
G1 F1200 X119.619 Y89.683 E200.15402
G0 F5400 X120.019 Y89.849
G1 F1200 X108.759 Y101.109 E200.57773
G0 F5400 X109.385 Y101.049
G1 F1200 X120.419 Y90.015 E200.99293
G0 F5400 X120.819 Y90.18
G1 F1200 X109.977 Y101.022 E201.40091
G0 F5400 X110.523 Y101.042
G1 F1200 X121.219 Y90.347 E201.80338
G0 F5400 X121.56 Y90.571
G1 F1200 X111.044 Y101.087 E202.19909
G0 F5400 X111.541 Y101.155
G1 F1200 X121.881 Y90.816 E202.58816
G0 F5400 X122.201 Y91.061
G1 F1200 X112.006 Y101.256 E202.97179
G0 F5400 X112.47 Y101.358
G1 F1200 X122.521 Y91.307 E203.35001
G0 F5400 X122.841 Y91.553
G1 F1200 X112.889 Y101.505 E203.7245
G0 F5400 X113.305 Y101.655
G1 F1200 X123.161 Y91.798 E204.09539
G0 F5400 X123.482 Y92.044
G1 F1200 X113.709 Y101.816 E204.46313
G0 F5400 X114.081 Y102.01
G1 F1200 X123.801 Y92.29 E204.82889
G0 F5400 X124.121 Y92.535
G1 F1200 X114.453 Y102.204 E205.19271
G0 F5400 X114.807 Y102.415
G1 F1200 X124.442 Y92.78 E205.55527
G0 F5400 X124.762 Y93.026
G1 F1200 X115.14 Y102.648 E205.91734
G0 F5400 X115.472 Y102.881
G1 F1200 X125.082 Y93.272 E206.27894
G0 F5400 X125.402 Y93.517
G1 F1200 X115.785 Y103.135 E206.64084
G0 F5400 X116.08 Y103.405
G1 F1200 X125.722 Y93.763 E207.00367
G0 F5400 X126.036 Y94.015
G1 F1200 X116.377 Y103.674 E207.36713
G0 F5400 X116.649 Y103.967
G1 F1200 X126.281 Y94.335 E207.72958
G0 F5400 X126.526 Y94.656
G1 F1200 X116.908 Y104.274 E208.0915
G0 F5400 X117.167 Y104.581
G1 F1200 X126.771 Y94.977 E208.45289
G0 F5400 X127.017 Y95.296
G1 F1200 X117.399 Y104.914 E208.81482
G0 F5400 X117.618 Y105.261
G1 F1200 X127.262 Y95.617 E209.17772
G0 F5400 X127.508 Y95.937
G1 F1200 X117.838 Y105.607 E209.54159
G0 F5400 X118.026 Y105.985
G1 F1200 X127.754 Y96.257 E209.90765
G0 F5400 X127.999 Y96.577
G1 F1200 X118.206 Y106.37 E210.27616
G0 F5400 X118.383 Y106.759
G1 F1200 X128.245 Y96.897 E210.64726
G0 F5400 X128.491 Y97.217
G1 F1200 X118.519 Y107.188 E211.02248
G0 F5400 X118.656 Y107.618
G1 F1200 X128.736 Y97.537 E211.40181
G0 F5400 X128.982 Y97.857
G1 F1200 X118.768 Y108.071 E211.78616
G0 F5400 X118.853 Y108.552
G1 F1200 X129.228 Y98.177 E212.17656
G0 F5400 X129.473 Y98.497
G1 F1200 X118.934 Y109.036 E212.57314
G0 F5400 X118.959 Y109.577
G1 F1200 X129.682 Y98.854 E212.97664
G0 F5400 X129.848 Y99.254
G1 F1200 X118.983 Y110.119 E213.38549
G0 F5400 X118.94 Y110.727
G1 F1200 X130.013 Y99.654 E213.80216
G0 F5400 X130.179 Y100.054
G1 F1200 X118.887 Y111.346 E214.22707
G0 F5400 X118.728 Y112.071
G1 F1200 X130.345 Y100.454 E214.66422
G0 F5400 X130.511 Y100.853
G1 F1200 X118.504 Y112.86 E215.11603
G1 X118.434 Y112.93
G0 F5400 X118.142 Y113.788
G1 F1200 X130.676 Y101.254 E215.58768
G0 F5400 X130.843 Y101.653
G1 F1200 X117.338 Y115.158 E216.09587
G1 X117.268 Y115.228
;MESH:NONMESH
G0 F600 X117.268 Y115.228 Z0.48
G0 F5400 X118.122 Y112.361
G0 X118.361 Y111.279
G0 X118.456 Y110.175
G0 X118.406 Y109.071
G0 X118.214 Y107.982
G0 X117.88 Y106.927
G0 X117.413 Y105.926
G0 X116.819 Y104.993
G0 X116.105 Y104.145
G0 X115.288 Y103.399
G0 X114.383 Y102.766
G0 X113.402 Y102.255
G0 X112.361 Y101.878
G0 X111.28 Y101.64
G0 X110.387 Y101.563
G0 X108.714 Y101.595
G0 X108.734 Y101.716
;TIME_ELAPSED:417.716012
;LAYER:2
;TYPE:WALL-INNER
;MESH:Sombrero1.stl
G1 F2400 X108.12 Y101.841 E216.11254
G1 X107.665 Y101.954 E216.12502
G1 X107.072 Y102.155 E216.14168
G1 X106.634 Y102.327 E216.1542
G1 X106.074 Y102.603 E216.17081
G1 X105.662 Y102.831 E216.18334
G1 X105.142 Y103.178 E216.19997
G1 X104.762 Y103.459 E216.21255
G1 X104.293 Y103.872 E216.22918
G1 X103.954 Y104.2 E216.24173
G1 X103.543 Y104.668 E216.2583
G1 X103.249 Y105.037 E216.27085
G1 X102.902 Y105.557 E216.28749
G1 X102.659 Y105.961 E216.30003
G1 X102.381 Y106.524 E216.31674
G1 X102.194 Y106.954 E216.32922
G1 X101.993 Y107.547 E216.34588
G1 X101.863 Y107.999 E216.35839
G1 X101.742 Y108.615 E216.37509
G1 X101.672 Y109.078 E216.38755
G1 X101.631 Y109.704 E216.40425
G1 X101.623 Y110.173 E216.41673
G1 X101.664 Y110.799 E216.43342
G1 X101.716 Y111.266 E216.44592
G1 X101.841 Y111.882 E216.46265
G1 X101.953 Y112.336 E216.47509
G1 X102.156 Y112.93 E216.49179
G1 X102.327 Y113.366 E216.50425
G1 X102.603 Y113.926 E216.52087
G1 X102.831 Y114.338 E216.5334
G1 X103.178 Y114.858 E216.55003
G1 X103.459 Y115.238 E216.5626
G1 X103.872 Y115.707 E216.57923
G1 X104.2 Y116.046 E216.59178
G1 X104.668 Y116.457 E216.60836
G1 X105.037 Y116.751 E216.62091
G1 X105.557 Y117.098 E216.63754
G1 X105.96 Y117.341 E216.65007
G1 X106.522 Y117.618 E216.66674
G1 X106.954 Y117.806 E216.67927
G1 X107.545 Y118.006 E216.69588
G1 X108 Y118.137 E216.70847
G1 X108.612 Y118.257 E216.72507
G1 X109.077 Y118.328 E216.73758
G1 X109.702 Y118.369 E216.75425
G1 X110.174 Y118.377 E216.76681
G1 X110.797 Y118.336 E216.78342
G1 X111.266 Y118.284 E216.79598
G1 X111.88 Y118.159 E216.81265
G1 X112.335 Y118.046 E216.82513
G1 X112.928 Y117.845 E216.84179
G1 X113.366 Y117.673 E216.85431
G1 X113.926 Y117.397 E216.87092
G1 X114.338 Y117.169 E216.88345
G1 X114.858 Y116.822 E216.90008
G1 X115.238 Y116.541 E216.91266
G1 X115.707 Y116.128 E216.92929
G1 X116.046 Y115.8 E216.94184
G1 X116.459 Y115.33 E216.95848
G1 X116.751 Y114.963 E216.97096
G1 X117.098 Y114.443 E216.9876
G1 X117.341 Y114.04 E217.00012
G1 X117.618 Y113.478 E217.01679
G1 X117.806 Y113.046 E217.02933
G1 X118.006 Y112.455 E217.04593
G1 X118.137 Y112.001 E217.0585
G1 X118.258 Y111.385 E217.0752
G1 X118.328 Y110.922 E217.08766
G1 X118.369 Y110.296 E217.10436
G1 X118.377 Y109.827 E217.11684
G1 X118.336 Y109.201 E217.13353
G1 X118.284 Y108.734 E217.14603
G1 X118.159 Y108.12 E217.16271
G1 X118.046 Y107.665 E217.17518
G1 X117.845 Y107.072 E217.19184
G1 X117.673 Y106.634 E217.20436
G1 X117.397 Y106.074 E217.22097
G1 X117.169 Y105.662 E217.2335
G1 X116.822 Y105.142 E217.25014
G1 X116.541 Y104.762 E217.26271
G1 X116.128 Y104.293 E217.27934
G1 X115.8 Y103.954 E217.29189
G1 X115.332 Y103.543 E217.30846
G1 X114.963 Y103.249 E217.32102
G1 X114.443 Y102.902 E217.33765
G1 X114.04 Y102.659 E217.35017
G1 X113.478 Y102.382 E217.36684
G1 X113.046 Y102.194 E217.37938
G1 X112.455 Y101.994 E217.39598
G1 X112 Y101.863 E217.40858
G1 X111.388 Y101.743 E217.42517
G1 X110.923 Y101.672 E217.43769
G1 X110.298 Y101.631 E217.45436
G1 X109.826 Y101.623 E217.46692
G1 X109.203 Y101.664 E217.48353
G1 X108.734 Y101.716 E217.49609
G0 F7200 X108.719 Y101.618
G0 X121.695 Y89.746
G0 X121.745 Y89.66
G1 F2400 X126.608 Y93.392 E217.65919
G1 X130.34 Y98.255 E217.8223
G1 X132.688 Y103.922 E217.98552
G1 X133.487 Y110 E218.14863
G1 X132.688 Y116.078 E218.31175
G1 X130.34 Y121.745 E218.47497
G1 X126.608 Y126.608 E218.63808
G1 X121.745 Y130.34 E218.80118
G1 X116.078 Y132.688 E218.9644
G1 X110 Y133.487 E219.12752
G1 X103.922 Y132.688 E219.29063
G1 X98.255 Y130.34 E219.45385
G1 X93.392 Y126.608 E219.61696
G1 X89.66 Y121.745 E219.78006
G1 X87.312 Y116.078 E219.94328
G1 X86.513 Y110 E220.1064
G1 X87.312 Y103.922 E220.26951
G1 X89.66 Y98.255 E220.43273
G1 X93.392 Y93.392 E220.59584
G1 X98.255 Y89.66 E220.75895
G1 X103.922 Y87.312 E220.92216
G1 X110 Y86.513 E221.08528
G1 X116.078 Y87.312 E221.2484
G1 X121.745 Y89.66 E221.41161
G0 F7200 X121.946 Y89.31
;TYPE:WALL-OUTER
G1 F1200 X126.893 Y93.107 E221.57755
G1 X130.69 Y98.054 E221.74348
G1 X133.078 Y103.818 E221.90949
G1 X133.891 Y110 E222.0754
G1 X133.078 Y116.182 E222.24131
G1 X130.69 Y121.946 E222.40732
G1 X126.893 Y126.893 E222.57325
G1 X121.946 Y130.69 E222.73918
G1 X116.182 Y133.078 E222.90519
G1 X110 Y133.891 E223.0711
G1 X103.818 Y133.078 E223.23701
G1 X98.054 Y130.69 E223.40302
G1 X93.107 Y126.893 E223.56895
G1 X89.31 Y121.946 E223.73489
G1 X86.922 Y116.182 E223.9009
G1 X86.109 Y110 E224.0668
G1 X86.922 Y103.818 E224.23271
G1 X89.31 Y98.054 E224.39872
G1 X93.107 Y93.107 E224.56465
G1 X98.054 Y89.31 E224.73059
G1 X103.818 Y86.922 E224.8966
G1 X110 Y86.109 E225.06251
G1 X116.182 Y86.922 E225.22841
G1 X121.946 Y89.31 E225.39442
G0 F7200 X122.104 Y89.431
G0 X121.8 Y89.827
G0 X108.741 Y101.615
G0 X108.796 Y102.112
G1 F1200 X108.208 Y102.231 E225.41039
G1 X107.778 Y102.338 E225.42218
G1 X107.209 Y102.531 E225.43816
G1 X106.796 Y102.693 E225.44997
G1 X106.259 Y102.958 E225.4659
G1 X105.87 Y103.173 E225.47773
G1 X105.372 Y103.505 E225.49365
G1 X105.014 Y103.77 E225.50551
G1 X104.564 Y104.166 E225.52146
G1 X104.244 Y104.476 E225.53331
G1 X103.85 Y104.925 E225.5492
G1 X103.572 Y105.273 E225.56106
G1 X103.24 Y105.771 E225.57698
G1 X103.01 Y106.153 E225.58885
G1 X102.744 Y106.692 E225.60484
G1 X102.568 Y107.098 E225.61661
G1 X102.375 Y107.667 E225.6326
G1 X102.252 Y108.093 E225.6444
G1 X102.136 Y108.683 E225.6604
G1 X102.07 Y109.121 E225.67218
G1 X102.031 Y109.721 E225.68818
G1 X102.023 Y110.163 E225.69995
G1 X102.063 Y110.764 E225.71597
G1 X102.112 Y111.204 E225.72775
G1 X102.231 Y111.794 E225.74377
G1 X102.337 Y112.223 E225.75553
G1 X102.532 Y112.792 E225.77153
G1 X102.693 Y113.204 E225.7833
G1 X102.958 Y113.741 E225.79923
G1 X103.173 Y114.13 E225.81106
G1 X103.505 Y114.628 E225.82698
G1 X103.77 Y114.986 E225.83884
G1 X104.166 Y115.436 E225.85479
G1 X104.476 Y115.756 E225.86664
G1 X104.925 Y116.15 E225.88254
G1 X105.273 Y116.428 E225.89439
G1 X105.771 Y116.76 E225.91031
G1 X106.152 Y116.99 E225.92215
G1 X106.69 Y117.255 E225.93811
G1 X107.098 Y117.432 E225.94995
G1 X107.665 Y117.624 E225.96587
G1 X108.094 Y117.748 E225.97776
G1 X108.681 Y117.863 E225.99367
G1 X109.12 Y117.93 E226.00549
G1 X109.719 Y117.969 E226.02146
G1 X110.164 Y117.977 E226.0333
G1 X110.762 Y117.937 E226.04925
G1 X111.204 Y117.888 E226.06108
G1 X111.792 Y117.769 E226.07705
G1 X112.222 Y117.662 E226.08884
G1 X112.791 Y117.469 E226.10482
G1 X113.204 Y117.307 E226.11663
G1 X113.741 Y117.042 E226.13256
G1 X114.13 Y116.827 E226.14439
G1 X114.628 Y116.495 E226.16031
G1 X114.986 Y116.23 E226.17216
G1 X115.436 Y115.834 E226.18811
G1 X115.756 Y115.524 E226.19997
G1 X116.152 Y115.073 E226.21594
G1 X116.428 Y114.727 E226.22771
G1 X116.76 Y114.229 E226.24364
G1 X116.99 Y113.848 E226.25548
G1 X117.255 Y113.31 E226.27144
G1 X117.432 Y112.902 E226.28327
G1 X117.624 Y112.335 E226.2992
G1 X117.748 Y111.907 E226.31106
G1 X117.864 Y111.317 E226.32706
G1 X117.93 Y110.879 E226.33884
G1 X117.969 Y110.279 E226.35484
G1 X117.977 Y109.837 E226.3666
G1 X117.937 Y109.236 E226.38263
G1 X117.888 Y108.796 E226.39441
G1 X117.769 Y108.208 E226.41037
G1 X117.662 Y107.778 E226.42216
G1 X117.469 Y107.209 E226.43815
G1 X117.307 Y106.796 E226.44996
G1 X117.042 Y106.259 E226.46589
G1 X116.827 Y105.87 E226.47772
G1 X116.495 Y105.372 E226.49364
G1 X116.23 Y105.014 E226.50549
G1 X115.834 Y104.564 E226.52144
G1 X115.524 Y104.244 E226.5333
G1 X115.075 Y103.85 E226.54919
G1 X114.727 Y103.572 E226.56104
G1 X114.229 Y103.24 E226.57697
G1 X113.848 Y103.01 E226.58881
G1 X113.31 Y102.745 E226.60477
G1 X112.902 Y102.568 E226.6166
G1 X112.335 Y102.376 E226.63253
G1 X111.906 Y102.252 E226.64441
G1 X111.319 Y102.137 E226.66033
G1 X110.88 Y102.07 E226.67214
G1 X110.281 Y102.031 E226.68812
G1 X109.836 Y102.023 E226.69996
G1 X109.238 Y102.063 E226.71591
G1 X108.796 Y102.112 E226.72774
G0 F7200 X108.6 Y102.151
G0 X108.674 Y101.33
;TYPE:SKIN
G1 F1200 X108.034 Y101.461 E226.74512
G1 X107.556 Y101.579 E226.75822
G1 X106.938 Y101.788 E226.77558
G1 X106.476 Y101.97 E226.78879
G1 X105.893 Y102.258 E226.8061
G1 X105.459 Y102.498 E226.81929
G1 X104.918 Y102.858 E226.83658
G1 X104.517 Y103.155 E226.84986
G1 X104.028 Y103.585 E226.86719
G1 X103.671 Y103.931 E226.88041
G1 X103.244 Y104.418 E226.89765
G1 X102.933 Y104.807 E226.9109
G1 X102.572 Y105.348 E226.92821
G1 X102.316 Y105.774 E226.94143
G1 X102.028 Y106.36 E226.9588
G1 X101.83 Y106.813 E226.97196
G1 X101.621 Y107.43 E226.98929
G1 X101.483 Y107.907 E227.0025
G1 X101.358 Y108.549 E227.01991
G1 X101.284 Y109.036 E227.03301
G1 X101.241 Y109.688 E227.0504
G1 X101.233 Y110.183 E227.06357
G1 X101.276 Y110.834 E227.08093
G1 X101.33 Y111.326 E227.0941
G1 X101.461 Y111.968 E227.11154
G1 X101.579 Y112.446 E227.12464
G1 X101.79 Y113.064 E227.14201
G1 X101.97 Y113.524 E227.15516
G1 X102.258 Y114.107 E227.17246
G1 X102.498 Y114.541 E227.18565
G1 X102.858 Y115.082 E227.20295
G1 X103.155 Y115.483 E227.21622
G1 X103.585 Y115.972 E227.23355
G1 X103.931 Y116.329 E227.24678
G1 X104.418 Y116.756 E227.26401
G1 X104.807 Y117.067 E227.27726
G1 X105.348 Y117.427 E227.29455
G1 X105.773 Y117.684 E227.30777
G1 X106.358 Y117.971 E227.32511
G1 X106.813 Y118.17 E227.33832
G1 X107.428 Y118.378 E227.3556
G1 X107.908 Y118.517 E227.36889
G1 X108.545 Y118.641 E227.38616
G1 X109.034 Y118.716 E227.39932
G1 X109.686 Y118.759 E227.41671
G1 X110.184 Y118.767 E227.42996
G1 X110.832 Y118.724 E227.44724
G1 X111.326 Y118.67 E227.46047
G1 X111.966 Y118.539 E227.47785
G1 X112.444 Y118.421 E227.49095
G1 X113.062 Y118.212 E227.50831
G1 X113.524 Y118.03 E227.52152
G1 X114.107 Y117.742 E227.53882
G1 X114.541 Y117.502 E227.55202
G1 X115.082 Y117.142 E227.56931
G1 X115.483 Y116.845 E227.58259
G1 X115.972 Y116.415 E227.59991
G1 X116.329 Y116.069 E227.61314
G1 X116.758 Y115.58 E227.63045
G1 X117.067 Y115.193 E227.64363
G1 X117.427 Y114.652 E227.66092
G1 X117.684 Y114.227 E227.67413
G1 X117.971 Y113.642 E227.69147
G1 X118.17 Y113.187 E227.70468
G1 X118.378 Y112.572 E227.72196
G1 X118.517 Y112.093 E227.73523
G1 X118.642 Y111.451 E227.75263
G1 X118.716 Y110.964 E227.76574
G1 X118.759 Y110.312 E227.78313
G1 X118.767 Y109.817 E227.7963
G1 X118.724 Y109.166 E227.81366
G1 X118.67 Y108.674 E227.82683
G1 X118.539 Y108.034 E227.84421
G1 X118.421 Y107.556 E227.85731
G1 X118.212 Y106.938 E227.87467
G1 X118.03 Y106.476 E227.88788
G1 X117.742 Y105.893 E227.90518
G1 X117.502 Y105.459 E227.91838
G1 X117.142 Y104.918 E227.93567
G1 X116.845 Y104.517 E227.94895
G1 X116.415 Y104.028 E227.96628
G1 X116.069 Y103.671 E227.9795
G1 X115.582 Y103.244 E227.99674
G1 X115.193 Y102.933 E228.00999
G1 X114.652 Y102.573 E228.02728
G1 X114.227 Y102.316 E228.0405
G1 X113.642 Y102.029 E228.05783
G1 X113.187 Y101.83 E228.07105
G1 X112.572 Y101.622 E228.08832
G1 X112.092 Y101.483 E228.10162
G1 X111.455 Y101.359 E228.11889
G1 X110.966 Y101.284 E228.13205
G1 X110.314 Y101.241 E228.14944
G1 X109.816 Y101.233 E228.16269
G1 X109.168 Y101.276 E228.17997
G1 X108.674 Y101.33 E228.19319
G0 F7200 X104.03 Y87.69
G1 F1200 X110 Y86.905 E228.35341
G1 X115.97 Y87.69 E228.51363
G1 X121.548 Y90.002 E228.67429
G1 X126.329 Y93.671 E228.83465
G1 X129.998 Y98.452 E228.995
G1 X132.309 Y104.028 E229.15561
G1 X133.095 Y110 E229.31588
G1 X132.31 Y115.97 E229.4761
G1 X129.998 Y121.548 E229.63676
G1 X126.329 Y126.329 E229.79712
G1 X121.548 Y129.998 E229.95747
G1 X115.97 Y132.31 E230.11814
G1 X110 Y133.095 E230.27836
G1 X104.03 Y132.31 E230.43857
G1 X98.452 Y129.998 E230.59924
G1 X93.671 Y126.329 E230.75959
G1 X90.002 Y121.548 E230.91995
G1 X87.69 Y115.97 E231.08061
G1 X86.905 Y110 E231.24083
G1 X87.691 Y104.028 E231.4011
G1 X90.002 Y98.452 E231.56171
G1 X93.671 Y93.671 E231.72206
G1 X98.452 Y90.002 E231.88242
G1 X104.03 Y87.69 E232.04308
G0 F7200 X126.712 Y94.468
G1 F1200 X125.53 Y93.286 E232.08756
G1 X125.46 Y93.216
G0 F7200 X123.098 Y91.419
G1 F1200 X128.579 Y96.901 E232.29383
G1 X128.649 Y96.971
G0 F7200 X129.969 Y98.857
G1 F1200 X121.142 Y90.03 E232.62599
G1 X121.072 Y89.96
G0 F7200 X120.176 Y89.629
G1 F1200 X130.37 Y99.823 E233.00958
G1 X130.44 Y99.893
G0 F7200 X130.77 Y100.789
G1 F1200 X119.21 Y89.229 E233.44458
G1 X119.14 Y89.159
G0 F7200 X118.244 Y88.828
G1 F1200 X131.171 Y101.755 E233.93102
G1 X131.241 Y101.825
G0 F7200 X131.571 Y102.721
G1 F1200 X117.278 Y88.428 E234.46885
G1 X117.208 Y88.358
G0 F7200 X116.312 Y88.028
G1 F1200 X131.971 Y103.687 E235.0581
G1 X132.041 Y103.757
G0 F7200 X132.185 Y104.466
G1 F1200 X115.533 Y87.814 E235.6847
G0 F7200 X114.881 Y87.728
G1 F1200 X132.27 Y105.117 E236.33904
G0 F7200 X132.356 Y105.769
G1 F1200 X114.23 Y87.643 E237.02112
G0 F7200 X113.579 Y87.557
G1 F1200 X132.442 Y106.42 E237.73092
G0 F7200 X132.528 Y107.072
G1 F1200 X112.927 Y87.471 E238.4685
G0 F7200 X112.275 Y87.385
G1 F1200 X132.613 Y107.723 E239.23381
G0 F7200 X132.699 Y108.375
G1 F1200 X111.624 Y87.3 E240.02685
G0 F7200 X110.973 Y87.214
G1 F1200 X132.785 Y109.026 E240.84763
G0 F7200 X132.871 Y109.677
G1 F1200 X110.322 Y87.128 E241.69614
G0 F7200 X109.746 Y87.119
G1 F1200 X132.88 Y110.253 E242.56666
G0 F7200 X132.814 Y110.752
G1 F1200 X109.247 Y87.185 E243.45347
G0 F7200 X108.747 Y87.251
G1 F1200 X132.748 Y111.252 E244.35662
G0 F7200 X132.682 Y111.752
G1 F1200 X108.247 Y87.317 E245.2761
G0 F7200 X107.747 Y87.382
G1 F1200 X132.617 Y112.252 E246.21194
G0 F7200 X132.551 Y112.752
G1 F1200 X107.247 Y87.448 E247.16412
G0 F7200 X106.747 Y87.514
G1 F1200 X132.485 Y113.252 E248.13263
G0 F7200 X132.419 Y113.752
G1 F1200 X106.247 Y87.58 E249.11747
G0 F7200 X105.747 Y87.645
G1 F1200 X132.354 Y114.252 E250.11868
G0 F7200 X132.288 Y114.752
G1 F1200 X105.247 Y87.711 E251.13622
G0 F7200 X104.747 Y87.777
G1 F1200 X132.222 Y115.252 E252.17009
G0 F7200 X132.156 Y115.751
G1 F1200 X104.248 Y87.843 E253.22026
G0 F7200 X103.814 Y87.975
G1 F1200 X132.024 Y116.185 E254.28179
G0 F7200 X131.859 Y116.585
G1 F1200 X103.414 Y88.14 E255.35216
G0 F7200 X103.014 Y88.307
G1 F1200 X131.692 Y116.985 E256.4313
G0 F7200 X131.527 Y117.385
G1 F1200 X102.614 Y88.472 E257.51929
G0 F7200 X102.215 Y88.638
G1 F1200 X131.361 Y117.784 E258.61604
G0 F7200 X131.195 Y118.185
G1 F1200 X101.814 Y88.804 E259.72163
G0 F7200 X101.415 Y88.97
G1 F1200 X115.1 Y102.655 E260.23659
G1 X115.17 Y102.725
G0 F7200 X113.774 Y101.894
G1 F1200 X101.015 Y89.135 E260.71671
G0 F7200 X100.614 Y89.301
G1 F1200 X112.834 Y101.52 E261.17652
G1 X112.904 Y101.59
G0 F7200 X112.036 Y101.288
G1 F1200 X100.215 Y89.467 E261.62134
G0 F7200 X99.815 Y89.632
G1 F1200 X111.342 Y101.16 E262.05511
G0 F7200 X110.702 Y101.085
G1 F1200 X99.415 Y89.799 E262.47982
G0 F7200 X99.015 Y89.964
G1 F1200 X110.108 Y101.057 E262.89724
G0 F7200 X109.555 Y101.07
G1 F1200 X98.615 Y90.13 E263.30891
G0 F7200 X98.28 Y90.361
G1 F1200 X109.029 Y101.109 E263.71337
G0 F7200 X108.529 Y101.175
G1 F1200 X97.961 Y90.607 E264.11104
G0 F7200 X97.64 Y90.852
G1 F1200 X108.06 Y101.271 E264.50312
G0 F7200 X107.603 Y101.381
G1 F1200 X97.321 Y91.098 E264.89005
G0 F7200 X97 Y91.344
G1 F1200 X107.174 Y101.517 E265.27287
G0 F7200 X106.756 Y101.665
G1 F1200 X96.68 Y91.589 E265.65203
G0 F7200 X96.36 Y91.835
G1 F1200 X106.354 Y101.829 E266.0281
G0 F7200 X105.975 Y102.015
G1 F1200 X96.04 Y92.08 E266.40195
G0 F7200 X95.72 Y92.326
G1 F1200 X105.604 Y102.21 E266.77388
G0 F7200 X105.249 Y102.42
G1 F1200 X95.4 Y92.572 E267.14447
G0 F7200 X95.08 Y92.817
G1 F1200 X104.909 Y102.646 E267.51433
G0 F7200 X104.579 Y102.882
G1 F1200 X94.76 Y93.063 E267.88382
G0 F7200 X94.44 Y93.309
G1 F1200 X104.265 Y103.134 E268.25353
G0 F7200 X103.965 Y103.399
G1 F1200 X94.12 Y93.554 E268.62399
G0 F7200 X93.799 Y93.799
G1 F1200 X103.674 Y103.674 E268.99558
G0 F7200 X103.4 Y103.966
G1 F1200 X93.553 Y94.119 E269.36612
G0 F7200 X93.308 Y94.439
G1 F1200 X103.136 Y104.267 E269.73594
G0 F7200 X102.884 Y104.581
G1 F1200 X93.062 Y94.759 E270.10554
G0 F7200 X92.816 Y95.079
G1 F1200 X102.647 Y104.91 E270.47548
G0 F7200 X102.421 Y105.25
G1 F1200 X92.571 Y95.4 E270.84613
G0 F7200 X92.325 Y95.719
G1 F1200 X102.208 Y105.602 E271.21802
G0 F7200 X102.016 Y105.976
G1 F1200 X92.08 Y96.039 E271.59193
G0 F7200 X91.834 Y96.36
G1 F1200 X101.833 Y106.358 E271.96817
G0 F7200 X101.66 Y106.751
G1 F1200 X91.588 Y96.679 E272.34717
G0 F7200 X91.343 Y97
G1 F1200 X101.517 Y107.174 E272.73001
G0 F7200 X101.382 Y107.605
G1 F1200 X91.097 Y97.32 E273.11703
G0 F7200 X90.851 Y97.64
G1 F1200 X101.27 Y108.058 E273.50908
G0 F7200 X101.179 Y108.533
G1 F1200 X90.606 Y97.96 E273.90693
G0 F7200 X90.36 Y98.28
G1 F1200 X101.104 Y109.024 E274.31123
G0 F7200 X101.069 Y109.554
G1 F1200 X90.129 Y98.615 E274.72287
G0 F7200 X89.963 Y99.014
G1 F1200 X101.054 Y110.105 E275.14022
G0 F7200 X101.087 Y110.703
G1 F1200 X89.798 Y99.414 E275.56502
G0 F7200 X89.632 Y99.814
G1 F1200 X101.149 Y111.331 E275.9984
G0 F7200 X101.295 Y112.043
G1 F1200 X89.466 Y100.214 E276.44352
G0 F7200 X89.3 Y100.614
G1 F1200 X101.522 Y112.836 E276.90343
G1 X101.592 Y112.906
G0 F7200 X101.892 Y113.772
G1 F1200 X89.135 Y101.014 E277.38349
G0 F7200 X88.968 Y101.413
G1 F1200 X102.651 Y115.096 E277.89838
G1 X102.721 Y115.166
G0 F7200 X104.898 Y117.343
G1 F1200 X118.583 Y131.029 E278.41335
G0 F7200 X118.184 Y131.195
G1 F1200 X88.803 Y101.814 E279.51895
G0 F7200 X88.637 Y102.214
G1 F1200 X117.784 Y131.36 E280.61572
G0 F7200 X117.384 Y131.526
G1 F1200 X88.471 Y102.613 E281.7037
G0 F7200 X88.306 Y103.014
G1 F1200 X116.984 Y131.692 E282.78284
G0 F7200 X116.584 Y131.858
G1 F1200 X88.14 Y103.413 E283.85319
G0 F7200 X87.974 Y103.813
G1 F1200 X116.184 Y132.023 E284.91472
G0 F7200 X115.751 Y132.156
G1 F1200 X87.843 Y104.248 E285.96489
G0 F7200 X87.777 Y104.747
G1 F1200 X115.251 Y132.221 E286.99872
G0 F7200 X114.751 Y132.287
G1 F1200 X87.71 Y105.247 E288.01625
G0 F7200 X87.645 Y105.747
G1 F1200 X114.251 Y132.353 E289.01742
G0 F7200 X113.751 Y132.419
G1 F1200 X87.579 Y106.247 E290.00226
G0 F7200 X87.513 Y106.746
G1 F1200 X113.251 Y132.484 E290.97077
G0 F7200 X112.751 Y132.55
G1 F1200 X87.447 Y107.246 E291.92295
G0 F7200 X87.382 Y107.746
G1 F1200 X112.251 Y132.616 E292.85877
G0 F7200 X111.751 Y132.682
G1 F1200 X87.316 Y108.246 E293.77827
G0 F7200 X87.25 Y108.746
G1 F1200 X111.251 Y132.747 E294.68142
G0 F7200 X110.752 Y132.813
G1 F1200 X87.184 Y109.246 E295.56825
G0 F7200 X87.119 Y109.746
G1 F1200 X110.252 Y132.88 E296.43875
G0 F7200 X109.677 Y132.87
G1 F1200 X87.128 Y110.321 E297.28726
G0 F7200 X87.213 Y110.972
G1 F1200 X109.025 Y132.784 E298.10804
G0 F7200 X108.374 Y132.699
G1 F1200 X87.299 Y111.623 E298.9011
G0 F7200 X87.384 Y112.275
G1 F1200 X107.723 Y132.613 E299.66643
G0 F7200 X107.071 Y132.527
G1 F1200 X87.471 Y112.927 E300.40397
G0 F7200 X87.556 Y113.578
G1 F1200 X106.42 Y132.441 E301.11379
G0 F7200 X105.769 Y132.356
G1 F1200 X87.642 Y114.229 E301.7959
G0 F7200 X87.727 Y114.88
G1 F1200 X105.117 Y132.27 E302.45028
G0 F7200 X104.465 Y132.184
G1 F1200 X87.814 Y115.532 E303.07687
G1 X87.744 Y115.462
G0 F7200 X88.027 Y116.311
G1 F1200 X103.686 Y131.97 E303.66611
G1 X103.756 Y132.04
G0 F7200 X102.72 Y131.57
G1 F1200 X88.427 Y117.277 E304.20395
G1 X88.357 Y117.207
G0 F7200 X88.828 Y118.243
G1 F1200 X101.754 Y131.17 E304.69037
G1 X101.824 Y131.24
G0 F7200 X100.788 Y130.77
G1 F1200 X89.228 Y119.209 E305.12538
G1 X89.158 Y119.139
G0 F7200 X89.628 Y120.175
G1 F1200 X99.822 Y130.369 E305.50898
G1 X99.892 Y130.439
G0 F7200 X98.856 Y129.969
G1 F1200 X90.029 Y121.142 E305.84114
G1 X89.959 Y121.072
G0 F7200 X91.419 Y123.098
G1 F1200 X96.901 Y128.579 E306.0474
G1 X96.971 Y128.649
G0 F7200 X94.468 Y126.712
G1 F1200 X93.286 Y125.53 E306.09188
G1 X93.216 Y125.46
G0 F7200 X106.225 Y118.104
G1 F1200 X118.984 Y130.863 E306.572
G0 F7200 X119.384 Y130.698
G1 F1200 X107.164 Y118.478 E307.03183
G1 X107.094 Y118.408
G0 F7200 X107.961 Y118.709
G1 F1200 X119.783 Y130.531 E307.47669
G0 F7200 X120.184 Y130.366
G1 F1200 X108.656 Y118.839 E307.91046
G0 F7200 X109.296 Y118.913
G1 F1200 X120.583 Y130.2 E308.33519
G0 F7200 X120.983 Y130.034
G1 F1200 X109.89 Y118.941 E308.75261
G0 F7200 X110.443 Y118.928
G1 F1200 X121.383 Y129.868 E309.16428
G0 F7200 X121.718 Y129.638
G1 F1200 X110.969 Y118.889 E309.56876
G0 F7200 X111.469 Y118.823
G1 F1200 X122.038 Y129.392 E309.96646
G0 F7200 X122.358 Y129.146
G1 F1200 X111.939 Y118.727 E310.35853
G0 F7200 X112.395 Y118.617
G1 F1200 X122.678 Y128.9 E310.74547
G0 F7200 X122.998 Y128.655
G1 F1200 X112.824 Y118.481 E311.12831
G0 F7200 X113.242 Y118.333
G1 F1200 X123.318 Y128.409 E311.50747
G0 F7200 X123.638 Y128.163
G1 F1200 X113.644 Y118.17 E311.88352
G0 F7200 X114.023 Y117.983
G1 F1200 X123.958 Y127.918 E312.25737
G0 F7200 X124.278 Y127.673
G1 F1200 X114.394 Y117.788 E312.62932
G0 F7200 X114.749 Y117.578
G1 F1200 X124.598 Y127.427 E312.99993
G0 F7200 X124.918 Y127.181
G1 F1200 X115.09 Y117.352 E313.36977
G0 F7200 X115.419 Y117.116
G1 F1200 X125.239 Y126.936 E313.7393
G0 F7200 X125.558 Y126.69
G1 F1200 X115.733 Y116.864 E314.10903
G0 F7200 X116.034 Y116.599
G1 F1200 X125.879 Y126.444 E314.47949
G0 F7200 X126.199 Y126.199
G1 F1200 X116.324 Y116.324 E314.85108
G0 F7200 X116.598 Y116.032
G1 F1200 X126.445 Y125.879 E315.22162
G0 F7200 X126.69 Y125.559
G1 F1200 X116.862 Y115.731 E315.59144
G0 F7200 X117.115 Y115.418
G1 F1200 X126.936 Y125.239 E315.961
G0 F7200 X127.182 Y124.919
G1 F1200 X117.35 Y115.087 E316.33097
G0 F7200 X117.577 Y114.748
G1 F1200 X127.427 Y124.599 E316.70164
G0 F7200 X127.673 Y124.279
G1 F1200 X117.79 Y114.396 E317.07354
G0 F7200 X117.982 Y114.023
G1 F1200 X127.919 Y123.959 E317.44744
G0 F7200 X128.164 Y123.639
G1 F1200 X118.166 Y113.641 E317.82366
G0 F7200 X118.339 Y113.248
G1 F1200 X128.41 Y123.319 E318.20263
G0 F7200 X128.655 Y122.999
G1 F1200 X118.482 Y112.825 E318.58546
G0 F7200 X118.616 Y112.393
G1 F1200 X128.901 Y122.678 E318.97248
G0 F7200 X129.147 Y122.359
G1 F1200 X118.728 Y111.94 E319.36454
G0 F7200 X118.82 Y111.466
G1 F1200 X129.392 Y122.038 E319.76236
G0 F7200 X129.638 Y121.719
G1 F1200 X118.894 Y110.974 E320.16667
G0 F7200 X118.929 Y110.444
G1 F1200 X129.869 Y121.384 E320.57833
G0 F7200 X130.035 Y120.984
G1 F1200 X118.945 Y109.894 E320.99565
G0 F7200 X118.912 Y109.295
G1 F1200 X130.2 Y120.584 E321.42043
G0 F7200 X130.367 Y120.184
G1 F1200 X118.849 Y108.667 E321.85383
G0 F7200 X118.703 Y107.955
G1 F1200 X130.532 Y119.784 E322.29895
G0 F7200 X130.698 Y119.385
G1 F1200 X118.477 Y107.163 E322.75884
G1 X118.407 Y107.093
G0 F7200 X118.107 Y106.227
G1 F1200 X130.864 Y118.984 E323.23888
G0 F7200 X131.029 Y118.584
G1 F1200 X117.347 Y104.902 E323.75372
G1 X117.277 Y104.832
;MESH:NONMESH
G0 F600 X117.277 Y104.832 Z0.64
G0 F7200 X121.695 Y89.746
G0 X121.856 Y89.468
;TIME_ELAPSED:619.638817
;LAYER:3
;TYPE:WALL-INNER
;MESH:Sombrero1.stl
G1 F2400 X126.765 Y93.235 E323.91837
G1 X130.532 Y98.144 E324.08301
G1 X132.902 Y103.865 E324.24778
G1 X133.709 Y110 E324.41243
G1 X132.902 Y116.135 E324.57708
G1 X130.532 Y121.856 E324.74185
G1 X126.765 Y126.765 E324.90649
G1 X121.856 Y130.532 E325.07114
G1 X116.135 Y132.902 E325.23591
G1 X110 Y133.709 E325.40055
G1 X103.865 Y132.902 E325.5652
G1 X98.144 Y130.532 E325.72997
G1 X93.235 Y126.765 E325.89462
G1 X89.468 Y121.856 E326.05926
G1 X87.098 Y116.135 E326.22403
G1 X86.291 Y110 E326.38868
G1 X87.098 Y103.865 E326.55332
G1 X89.468 Y98.144 E326.71809
G1 X93.235 Y93.235 E326.88274
G1 X98.144 Y89.468 E327.04739
G1 X103.865 Y87.098 E327.21216
G1 X110 Y86.291 E327.3768
G1 X116.135 Y87.098 E327.54145
G1 X121.856 Y89.468 E327.70622
G0 F7200 X121.806 Y89.554
G0 X118.102 Y112.171
G0 X117.567 Y113.578
G0 X116.385 Y115.412
G0 X114.765 Y116.884
G0 X112.822 Y117.88
G0 X110 Y118.449
G0 X110 Y118.349
G1 F2400 X110.683 Y118.303 E327.72443
G1 X111.302 Y118.235 E327.741
G1 X112.161 Y118.064 E327.76431
G1 X112.809 Y117.843 E327.78253
G1 X113.388 Y117.617 E327.79906
G1 X114.174 Y117.23 E327.82237
G1 X114.743 Y116.852 E327.84055
G1 X115.245 Y116.481 E327.85716
G1 X115.904 Y115.903 E327.88048
G1 X116.355 Y115.387 E327.89872
G1 X116.743 Y114.903 E327.91522
G1 X117.23 Y114.174 E327.93855
G1 X117.531 Y113.562 E327.9567
G1 X117.782 Y112.992 E327.97327
G1 X118.064 Y112.161 E327.99662
G1 X118.197 Y111.488 E328.01487
G1 X118.291 Y110.876 E328.03135
G1 X118.349 Y110 E328.05471
G1 X118.303 Y109.315 E328.07298
G1 X118.235 Y108.698 E328.08949
G1 X118.064 Y107.839 E328.1128
G1 X117.843 Y107.191 E328.13102
G1 X117.617 Y106.612 E328.14755
G1 X117.23 Y105.826 E328.17087
G1 X116.852 Y105.257 E328.18904
G1 X116.481 Y104.755 E328.20565
G1 X115.903 Y104.096 E328.22897
G1 X115.389 Y103.646 E328.24715
G1 X114.903 Y103.257 E328.26372
G1 X114.174 Y102.77 E328.28704
G1 X113.562 Y102.469 E328.30519
G1 X112.991 Y102.218 E328.32179
G1 X112.16 Y101.936 E328.34514
G1 X111.491 Y101.804 E328.36328
G1 X110.875 Y101.709 E328.37986
G1 X110 Y101.651 E328.4032
G1 X109.317 Y101.697 E328.42141
G1 X108.698 Y101.765 E328.43798
G1 X107.839 Y101.936 E328.46129
G1 X107.191 Y102.157 E328.4795
G1 X106.612 Y102.383 E328.49604
G1 X105.826 Y102.77 E328.51935
G1 X105.257 Y103.148 E328.53753
G1 X104.755 Y103.519 E328.55414
G1 X104.096 Y104.097 E328.57746
G1 X103.646 Y104.611 E328.59564
G1 X103.257 Y105.097 E328.6122
G1 X102.77 Y105.826 E328.63553
G1 X102.467 Y106.441 E328.65377
G1 X102.218 Y107.009 E328.67028
G1 X101.936 Y107.838 E328.69358
G1 X101.803 Y108.512 E328.71185
G1 X101.709 Y109.124 E328.72833
G1 X101.651 Y110 E328.75169
G1 X101.697 Y110.685 E328.76996
G1 X101.764 Y111.301 E328.78644
G1 X101.936 Y112.162 E328.80981
G1 X102.158 Y112.811 E328.82806
G1 X102.382 Y113.388 E328.84453
G1 X102.77 Y114.174 E328.86785
G1 X103.148 Y114.743 E328.88603
G1 X103.519 Y115.245 E328.90264
G1 X104.097 Y115.904 E328.92596
G1 X104.611 Y116.354 E328.94414
G1 X105.097 Y116.743 E328.9607
G1 X105.826 Y117.23 E328.98403
G1 X106.438 Y117.531 E329.00218
G1 X107.009 Y117.782 E329.01877
G1 X107.84 Y118.064 E329.04212
G1 X108.509 Y118.196 E329.06027
G1 X109.125 Y118.291 E329.07685
G1 X110 Y118.349 E329.10018
G0 F7200 X110 Y117.948
;TYPE:WALL-OUTER
G1 F1200 X110.648 Y117.904 E329.11746
G1 X111.241 Y117.839 E329.13334
G1 X112.057 Y117.677 E329.15547
G1 X112.672 Y117.467 E329.17277
G1 X113.227 Y117.251 E329.18861
G1 X113.974 Y116.883 E329.21077
G1 X114.513 Y116.524 E329.228
G1 X114.994 Y116.169 E329.24391
G1 X115.62 Y115.62 E329.26606
G1 X116.048 Y115.13 E329.28337
G1 X116.42 Y114.666 E329.2992
G1 X116.883 Y113.974 E329.32135
G1 X117.168 Y113.393 E329.33857
G1 X117.409 Y112.847 E329.35445
G1 X117.677 Y112.058 E329.37662
G1 X117.803 Y111.419 E329.39395
G1 X117.893 Y110.832 E329.40975
G1 X117.948 Y110 E329.43194
G1 X117.904 Y109.35 E329.44928
G1 X117.839 Y108.759 E329.4651
G1 X117.677 Y107.943 E329.48723
G1 X117.467 Y107.328 E329.50452
G1 X117.251 Y106.773 E329.52037
G1 X116.883 Y106.026 E329.54253
G1 X116.524 Y105.487 E329.55976
G1 X116.169 Y105.006 E329.57567
G1 X115.62 Y104.38 E329.59782
G1 X115.132 Y103.953 E329.61507
G1 X114.666 Y103.58 E329.63096
G1 X113.974 Y103.117 E329.65311
G1 X113.393 Y102.832 E329.67033
G1 X112.846 Y102.591 E329.68623
G1 X112.057 Y102.323 E329.70841
G1 X111.422 Y102.198 E329.72563
G1 X110.831 Y102.107 E329.74154
G1 X110 Y102.052 E329.7637
G1 X109.352 Y102.096 E329.78098
G1 X108.759 Y102.161 E329.79685
G1 X107.943 Y102.323 E329.81899
G1 X107.328 Y102.533 E329.83628
G1 X106.773 Y102.749 E329.85213
G1 X106.026 Y103.117 E329.87428
G1 X105.487 Y103.476 E329.89152
G1 X105.006 Y103.831 E329.90742
G1 X104.38 Y104.38 E329.92958
G1 X103.953 Y104.868 E329.94683
G1 X103.58 Y105.334 E329.96271
G1 X103.117 Y106.026 E329.98487
G1 X102.83 Y106.61 E330.00218
G1 X102.591 Y107.154 E330.01799
G1 X102.323 Y107.942 E330.04014
G1 X102.197 Y108.581 E330.05747
G1 X102.107 Y109.168 E330.07327
G1 X102.052 Y110 E330.09546
G1 X102.096 Y110.65 E330.11279
G1 X102.16 Y111.24 E330.12858
G1 X102.323 Y112.058 E330.15077
G1 X102.534 Y112.674 E330.1681
G1 X102.749 Y113.227 E330.18389
G1 X103.117 Y113.974 E330.20604
G1 X103.476 Y114.513 E330.22328
G1 X103.831 Y114.994 E330.23918
G1 X104.38 Y115.62 E330.26134
G1 X104.868 Y116.047 E330.27859
G1 X105.334 Y116.42 E330.29447
G1 X106.026 Y116.883 E330.31663
G1 X106.607 Y117.168 E330.33385
G1 X107.154 Y117.409 E330.34975
G1 X107.943 Y117.677 E330.37192
G1 X108.578 Y117.802 E330.38914
G1 X109.169 Y117.893 E330.40506
G1 X110 Y117.948 E330.42721
G0 F7200 X110.199 Y117.935
G0 X110.231 Y118.433
G0 X112.171 Y118.102
G0 X113.404 Y117.653
G0 X114.193 Y117.264
G0 X115.27 Y116.512
G0 X115.932 Y115.931
G0 X116.775 Y114.926
G0 X117.264 Y114.193
G0 X117.819 Y113.006
G0 X121.806 Y89.554
G0 X122.057 Y89.118
G1 F1200 X127.05 Y92.95 E330.59469
G1 X130.882 Y97.943 E330.76216
G1 X133.292 Y103.761 E330.92972
G1 X134.113 Y110 E331.09716
G1 X133.292 Y116.239 E331.2646
G1 X130.882 Y122.057 E331.43216
G1 X127.05 Y127.05 E331.59963
G1 X122.057 Y130.882 E331.7671
G1 X116.239 Y133.292 E331.93466
G1 X110 Y134.113 E332.1021
G1 X103.761 Y133.292 E332.26954
G1 X97.943 Y130.882 E332.4371
G1 X92.95 Y127.05 E332.60457
G1 X89.118 Y122.057 E332.77205
G1 X86.708 Y116.239 E332.93961
G1 X85.887 Y110 E333.10705
G1 X86.708 Y103.761 E333.27449
G1 X89.118 Y97.943 E333.44205
G1 X92.95 Y92.95 E333.60952
G1 X97.943 Y89.118 E333.77699
G1 X103.761 Y86.708 E333.94455
G1 X110 Y85.887 E334.11199
G1 X116.239 Y86.708 E334.27943
G1 X122.057 Y89.118 E334.44699
G0 F7200 X122.215 Y89.239
G0 X121.659 Y89.81
;TYPE:SKIN
G1 F1200 X126.486 Y93.514 E334.60888
G1 X130.19 Y98.341 E334.77078
G1 X132.524 Y103.973 E334.93299
G1 X133.317 Y110 E335.09474
G1 X132.524 Y116.027 E335.25649
G1 X130.19 Y121.659 E335.41871
G1 X126.486 Y126.486 E335.5806
G1 X121.659 Y130.19 E335.7425
G1 X116.027 Y132.524 E335.90471
G1 X110 Y133.317 E336.06646
G1 X103.973 Y132.524 E336.22821
G1 X98.341 Y130.19 E336.39043
G1 X93.514 Y126.486 E336.55232
G1 X89.81 Y121.659 E336.71421
G1 X87.476 Y116.027 E336.87643
G1 X86.683 Y110 E337.03818
G1 X87.476 Y103.973 E337.19993
G1 X89.81 Y98.341 E337.36214
G1 X93.514 Y93.514 E337.52404
G1 X98.341 Y89.81 E337.68593
G1 X103.973 Y87.476 E337.84814
G1 X110 Y86.683 E338.00989
G1 X116.027 Y87.476 E338.17164
G1 X121.659 Y89.81 E338.33386
G0 F7200 X114.369 Y102.431
G1 F1200 X113.726 Y102.116 E338.35291
G1 X113.133 Y101.854 E338.37016
G1 X112.261 Y101.558 E338.39466
G1 X111.559 Y101.42 E338.4137
G1 X110.918 Y101.321 E338.43096
G1 X110 Y101.261 E338.45544
G1 X109.282 Y101.309 E338.47458
G1 X108.638 Y101.379 E338.49182
G1 X107.738 Y101.558 E338.51624
G1 X107.057 Y101.791 E338.53539
G1 X106.454 Y102.026 E338.55261
G1 X105.631 Y102.431 E338.57701
G1 X105.033 Y102.828 E338.59611
G1 X104.51 Y103.215 E338.61342
G1 X103.819 Y103.821 E338.63788
G1 X103.347 Y104.361 E338.65696
G1 X102.942 Y104.867 E338.67421
G1 X102.431 Y105.631 E338.69866
G1 X102.114 Y106.277 E338.71781
G1 X101.854 Y106.868 E338.73499
G1 X101.558 Y107.737 E338.75942
G1 X101.419 Y108.444 E338.77859
G1 X101.321 Y109.081 E338.79574
G1 X101.261 Y110 E338.82024
G1 X101.309 Y110.72 E338.83944
G1 X101.378 Y111.36 E338.85657
G1 X101.558 Y112.264 E338.8811
G1 X101.792 Y112.945 E338.90026
G1 X102.025 Y113.546 E338.91741
G1 X102.431 Y114.369 E338.94183
G1 X102.828 Y114.967 E338.96093
G1 X103.215 Y115.49 E338.97824
G1 X103.821 Y116.181 E339.00269
G1 X104.361 Y116.653 E339.02178
G1 X104.867 Y117.058 E339.03902
G1 X105.631 Y117.569 E339.06348
G1 X106.274 Y117.884 E339.08253
G1 X106.867 Y118.146 E339.09978
G1 X107.739 Y118.442 E339.12428
G1 X108.441 Y118.58 E339.14332
G1 X109.082 Y118.679 E339.16058
G1 X110 Y118.739 E339.18506
G1 X110.718 Y118.691 E339.2042
G1 X111.362 Y118.621 E339.22144
G1 X112.262 Y118.442 E339.24586
G1 X112.943 Y118.209 E339.26501
G1 X113.546 Y117.974 E339.28223
G1 X114.369 Y117.569 E339.30663
G1 X114.967 Y117.172 E339.32573
G1 X115.49 Y116.785 E339.34304
G1 X116.181 Y116.179 E339.3675
G1 X116.654 Y115.637 E339.38664
G1 X117.057 Y115.133 E339.40381
G1 X117.569 Y114.369 E339.42828
G1 X117.884 Y113.726 E339.44733
G1 X118.146 Y113.134 E339.46456
G1 X118.442 Y112.262 E339.48906
G1 X118.581 Y111.556 E339.50821
G1 X118.679 Y110.919 E339.52536
G1 X118.739 Y110 E339.54986
G1 X118.691 Y109.28 E339.56906
G1 X118.621 Y108.638 E339.58625
G1 X118.442 Y107.738 E339.61066
G1 X118.209 Y107.057 E339.62981
G1 X117.974 Y106.454 E339.64703
G1 X117.569 Y105.631 E339.67144
G1 X117.172 Y105.033 E339.69054
G1 X116.785 Y104.51 E339.70785
G1 X116.179 Y103.819 E339.73231
G1 X115.639 Y103.347 E339.75139
G1 X115.133 Y102.942 E339.76863
G1 X114.369 Y102.431 E339.79309
G0 F7200 X91.92 Y95.887
G1 F1200 X95.887 Y91.919 E339.94239
G1 X95.957 Y91.849
G0 F7200 X98.321 Y90.051
G1 F1200 X90.052 Y98.321 E340.25356
G1 X89.982 Y98.391
G0 F7200 X89.586 Y99.352
G1 F1200 X99.353 Y89.585 E340.62109
G1 X99.423 Y89.515
G0 F7200 X100.319 Y89.185
G1 F1200 X89.185 Y100.318 E341.04004
G1 X89.115 Y100.388
G0 F7200 X88.785 Y101.285
G1 F1200 X101.285 Y88.784 E341.51043
G1 X101.355 Y88.714
G0 F7200 X102.251 Y88.384
G1 F1200 X88.384 Y102.251 E342.03224
G1 X88.314 Y102.321
G0 F7200 X87.984 Y103.217
G1 F1200 X103.217 Y87.983 E342.60547
G1 X103.287 Y87.913
G0 F7200 X104.131 Y87.635
G1 F1200 X87.636 Y104.13 E343.22617
G0 F7200 X87.551 Y104.781
G1 F1200 X104.782 Y87.55 E343.87456
G0 F7200 X105.433 Y87.464
G1 F1200 X87.465 Y105.433 E344.55071
G0 F7200 X87.379 Y106.085
G1 F1200 X106.085 Y87.378 E345.25462
G0 F7200 X106.737 Y87.293
G1 F1200 X87.293 Y106.736 E345.98627
G0 F7200 X87.208 Y107.387
G1 F1200 X107.388 Y87.207 E346.74564
G0 F7200 X108.04 Y87.121
G1 F1200 X87.121 Y108.039 E347.53279
G0 F7200 X87.036 Y108.69
G1 F1200 X108.691 Y87.035 E348.34766
G0 F7200 X109.342 Y86.95
G1 F1200 X86.95 Y109.342 E349.19026
G0 F7200 X86.864 Y109.993
G1 F1200 X109.994 Y86.863 E350.06063
G0 F7200 X110.495 Y86.928
G1 F1200 X86.929 Y110.494 E350.94741
G0 F7200 X86.995 Y110.994
G1 F1200 X110.995 Y86.994 E351.85052
G0 F7200 X111.495 Y87.06
G1 F1200 X87.061 Y111.494 E352.76996
G0 F7200 X87.126 Y111.994
G1 F1200 X111.995 Y87.126 E353.70575
G0 F7200 X112.495 Y87.191
G1 F1200 X87.192 Y112.494 E354.65789
G0 F7200 X87.258 Y112.994
G1 F1200 X112.994 Y87.257 E355.62634
G0 F7200 X113.494 Y87.323
G1 F1200 X87.324 Y113.494 E356.61113
G0 F7200 X87.389 Y113.994
G1 F1200 X113.994 Y87.389 E357.61226
G0 F7200 X114.494 Y87.455
G1 F1200 X87.456 Y114.493 E358.62969
G0 F7200 X87.522 Y114.993
G1 F1200 X114.993 Y87.521 E359.66343
G0 F7200 X115.493 Y87.587
G1 F1200 X87.587 Y115.493 E360.71352
G0 F7200 X87.657 Y115.989
G1 F1200 X115.99 Y87.656 E361.77968
G0 F7200 X116.39 Y87.821
G1 F1200 X87.822 Y116.389 E362.85468
G0 F7200 X87.988 Y116.789
G1 F1200 X116.789 Y87.988 E363.93845
G0 F7200 X117.19 Y88.153
G1 F1200 X88.154 Y117.189 E365.03106
G0 F7200 X88.319 Y117.589
G1 F1200 X117.59 Y88.319 E366.13249
G0 F7200 X117.989 Y88.485
G1 F1200 X88.485 Y117.989 E367.24272
G0 F7200 X88.651 Y118.389
G1 F1200 X118.39 Y88.65 E368.36178
G0 F7200 X118.789 Y88.816
G1 F1200 X104.916 Y102.689 E368.88382
G1 X104.846 Y102.759
G0 F7200 X106.242 Y101.93
G1 F1200 X119.189 Y88.982 E369.37102
G0 F7200 X119.59 Y89.147
G1 F1200 X107.179 Y101.558 E369.83805
G1 X107.109 Y101.628
G0 F7200 X107.976 Y101.326
G1 F1200 X119.989 Y89.313 E370.29009
G0 F7200 X120.389 Y89.479
G1 F1200 X108.674 Y101.194 E370.73092
G0 F7200 X109.307 Y101.127
G1 F1200 X120.789 Y89.645 E371.16298
G0 F7200 X121.189 Y89.811
G1 F1200 X109.914 Y101.086 E371.58725
G0 F7200 X110.455 Y101.11
G1 F1200 X121.584 Y89.981 E372.00603
G0 F7200 X121.905 Y90.226
G1 F1200 X110.982 Y101.149 E372.41706
G0 F7200 X111.472 Y101.225
G1 F1200 X122.225 Y90.472 E372.82169
G0 F7200 X122.545 Y90.718
G1 F1200 X111.949 Y101.313 E373.2204
G0 F7200 X112.41 Y101.418
G1 F1200 X122.865 Y90.963 E373.61381
G0 F7200 X123.185 Y91.208
G1 F1200 X112.833 Y101.561 E374.00337
G0 F7200 X113.25 Y101.709
G1 F1200 X123.505 Y91.455 E374.38924
G0 F7200 X123.825 Y91.7
G1 F1200 X113.642 Y101.883 E374.77243
G0 F7200 X114.027 Y102.064
G1 F1200 X124.146 Y91.945 E375.1532
G0 F7200 X124.465 Y92.191
G1 F1200 X114.407 Y102.249 E375.53168
G0 F7200 X114.751 Y102.471
G1 F1200 X124.785 Y92.437 E375.90925
G0 F7200 X125.106 Y92.682
G1 F1200 X115.09 Y102.698 E376.28615
G0 F7200 X115.415 Y102.939
G1 F1200 X125.425 Y92.928 E376.66284
G0 F7200 X125.746 Y93.174
G1 F1200 X115.729 Y103.19 E377.03976
G0 F7200 X116.032 Y103.453
G1 F1200 X126.066 Y93.419 E377.41733
G0 F7200 X126.379 Y93.672
G1 F1200 X116.331 Y103.719 E377.79542
G0 F7200 X116.596 Y104.021
G1 F1200 X126.624 Y93.992 E378.17278
G0 F7200 X126.869 Y94.313
G1 F1200 X116.86 Y104.322 E378.54942
G0 F7200 X117.106 Y104.641
G1 F1200 X127.115 Y94.632 E378.92605
G0 F7200 X127.361 Y94.953
G1 F1200 X117.345 Y104.968 E379.30293
G0 F7200 X117.571 Y105.308
G1 F1200 X127.606 Y95.273 E379.68054
G0 F7200 X127.852 Y95.593
G1 F1200 X117.784 Y105.66 E380.05938
G0 F7200 X117.97 Y106.04
G1 F1200 X128.098 Y95.913 E380.44047
G0 F7200 X128.343 Y96.233
G1 F1200 X118.154 Y106.422 E380.82388
G0 F7200 X118.313 Y106.829
G1 F1200 X128.589 Y96.553 E381.21056
G0 F7200 X128.834 Y96.873
G1 F1200 X118.463 Y107.244 E381.60082
G0 F7200 X118.607 Y107.666
G1 F1200 X129.08 Y97.193 E381.99491
G0 F7200 X129.326 Y97.513
G1 F1200 X118.704 Y108.135 E382.39461
G0 F7200 X118.798 Y108.607
G1 F1200 X129.571 Y97.833 E382.80001
G0 F7200 X129.817 Y98.154
G1 F1200 X118.854 Y109.117 E383.21255
G0 F7200 X118.895 Y109.641
G1 F1200 X130.052 Y98.484 E383.63238
G0 F7200 X130.217 Y98.884
G1 F1200 X118.905 Y110.196 E384.05804
G0 F7200 X118.866 Y110.802
G1 F1200 X130.384 Y99.284 E384.49146
G0 F7200 X130.549 Y99.684
G1 F1200 X118.777 Y111.456 E384.93444
G0 F7200 X118.646 Y112.152
G1 F1200 X130.715 Y100.083 E385.38859
G0 F7200 X130.881 Y100.484
G1 F1200 X118.39 Y112.975 E385.85862
G1 X118.32 Y113.045
G0 F7200 X117.966 Y113.964
G1 F1200 X131.046 Y100.884 E386.35081
G0 F7200 X131.212 Y101.283
G1 F1200 X116.98 Y115.516 E386.88638
G1 X116.91 Y115.586
G0 F7200 X115.483 Y117.012
G1 F1200 X101.283 Y131.213 E387.42073
G0 F7200 X100.883 Y131.047
G1 F1200 X113.962 Y117.968 E387.91289
G1 X114.032 Y117.898
G0 F7200 X112.978 Y118.386
G1 F1200 X100.483 Y130.881 E388.38307
G0 F7200 X100.083 Y130.716
G1 F1200 X112.153 Y118.646 E388.83726
G0 F7200 X111.447 Y118.786
G1 F1200 X99.683 Y130.55 E389.27993
G0 F7200 X99.283 Y130.384
G1 F1200 X110.807 Y118.861 E389.71356
G0 F7200 X110.197 Y118.904
G1 F1200 X98.883 Y130.218 E390.1393
G0 F7200 X98.483 Y130.053
G1 F1200 X109.641 Y118.895 E390.55917
G0 F7200 X109.11 Y118.86
G1 F1200 X98.153 Y129.817 E390.97148
G0 F7200 X97.833 Y129.572
G1 F1200 X108.617 Y118.788 E391.37727
G0 F7200 X108.137 Y118.702
G1 F1200 X97.512 Y129.327 E391.77709
G0 F7200 X97.193 Y129.08
G1 F1200 X107.666 Y118.607 E392.17118
G0 F7200 X107.244 Y118.463
G1 F1200 X96.872 Y128.835 E392.56148
G0 F7200 X96.552 Y128.59
G1 F1200 X106.821 Y118.32 E392.94791
G0 F7200 X106.429 Y118.147
G1 F1200 X96.232 Y128.344 E393.33162
G0 F7200 X95.912 Y128.098
G1 F1200 X106.042 Y117.968 E393.71281
G0 F7200 X105.662 Y117.783
G1 F1200 X95.592 Y127.853 E394.09174
G0 F7200 X95.272 Y127.607
G1 F1200 X105.31 Y117.569 E394.46946
G0 F7200 X104.972 Y117.342
G1 F1200 X94.952 Y127.361 E394.84649
G0 F7200 X94.632 Y127.116
G1 F1200 X104.642 Y117.106 E395.22316
G0 F7200 X104.327 Y116.855
G1 F1200 X94.312 Y126.87 E395.60002
G0 F7200 X93.992 Y126.625
G1 F1200 X104.022 Y116.594 E395.97747
G0 F7200 X103.72 Y116.331
G1 F1200 X93.671 Y126.379 E396.35559
G0 F7200 X93.42 Y126.065
G1 F1200 X103.451 Y116.034 E396.73305
G0 F7200 X103.187 Y115.732
G1 F1200 X93.174 Y125.745 E397.10983
G0 F7200 X92.929 Y125.425
G1 F1200 X102.936 Y115.418 E397.48639
G0 F7200 X102.695 Y115.092
G1 F1200 X92.683 Y125.105 E397.86316
G0 F7200 X92.437 Y124.785
G1 F1200 X102.469 Y114.753 E398.24066
G0 F7200 X102.249 Y114.408
G1 F1200 X92.192 Y124.464 E398.61908
G0 F7200 X91.946 Y124.145
G1 F1200 X102.062 Y114.029 E398.99974
G0 F7200 X101.875 Y113.65
G1 F1200 X91.701 Y123.825 E399.3826
G0 F7200 X91.455 Y123.504
G1 F1200 X101.715 Y113.245 E399.76866
G0 F7200 X101.562 Y112.832
G1 F1200 X91.209 Y123.185 E400.15824
G0 F7200 X90.964 Y122.864
G1 F1200 X101.417 Y112.411 E400.55158
G0 F7200 X101.312 Y111.951
G1 F1200 X90.718 Y122.544 E400.95021
G0 F7200 X90.472 Y122.224
G1 F1200 X101.218 Y111.478 E401.35458
G0 F7200 X101.155 Y110.976
G1 F1200 X90.227 Y121.904 E401.76579
G0 F7200 X89.982 Y121.584
G1 F1200 X101.11 Y110.455 E402.18455
G0 F7200 X101.085 Y109.914
G1 F1200 X89.811 Y121.188 E402.60879
G0 F7200 X89.646 Y120.788
G1 F1200 X101.126 Y109.308 E403.04078
G0 F7200 X101.202 Y108.666
G1 F1200 X89.48 Y120.389 E403.48189
G0 F7200 X89.314 Y119.988
G1 F1200 X101.326 Y107.976 E403.9339
G1 X101.396 Y107.906
G0 F7200 X101.555 Y107.182
G1 F1200 X89.148 Y119.589 E404.40077
G0 F7200 X88.983 Y119.189
G1 F1200 X101.935 Y106.237 E404.88814
G1 X102.005 Y106.167
G0 F7200 X102.697 Y104.909
G1 F1200 X88.817 Y118.788 E405.41042
G1 X88.747 Y118.858
G0 F7200 X101.683 Y131.379
G1 F1200 X131.378 Y101.684 E406.52783
G0 F7200 X131.544 Y102.083
G1 F1200 X102.082 Y131.545 E407.63647
G0 F7200 X102.483 Y131.71
G1 F1200 X131.709 Y102.483 E408.73625
G0 F7200 X131.875 Y102.884
G1 F1200 X102.883 Y131.876 E409.82721
G0 F7200 X103.282 Y132.042
G1 F1200 X132.041 Y103.283 E410.9094
G0 F7200 X132.207 Y103.683
G1 F1200 X103.683 Y132.207 E411.98274
G0 F7200 X104.098 Y132.358
G1 F1200 X132.357 Y104.098 E413.04614
G0 F7200 X132.424 Y104.598
G1 F1200 X104.597 Y132.424 E414.09323
G0 F7200 X105.097 Y132.49
G1 F1200 X132.489 Y105.097 E415.124
G0 F7200 X132.555 Y105.597
G1 F1200 X105.597 Y132.556 E416.13844
G0 F7200 X106.097 Y132.622
G1 F1200 X132.621 Y106.097 E417.13654
G0 F7200 X132.687 Y106.597
G1 F1200 X106.597 Y132.687 E418.1183
G0 F7200 X107.096 Y132.753
G1 F1200 X132.752 Y107.097 E419.08372
G0 F7200 X132.818 Y107.597
G1 F1200 X107.596 Y132.819 E420.03281
G0 F7200 X108.096 Y132.885
G1 F1200 X132.884 Y108.097 E420.96557
G0 F7200 X132.95 Y108.597
G1 F1200 X108.596 Y132.95 E421.88199
G0 F7200 X109.096 Y133.016
G1 F1200 X133.015 Y109.097 E422.78205
G0 F7200 X133.081 Y109.597
G1 F1200 X109.596 Y133.082 E423.66578
G0 F7200 X110.125 Y133.119
G1 F1200 X133.118 Y110.126 E424.53099
G0 F7200 X133.032 Y110.777
G1 F1200 X110.776 Y133.033 E425.36848
G0 F7200 X111.428 Y132.947
G1 F1200 X132.946 Y111.429 E426.17819
G0 F7200 X132.861 Y112.08
G1 F1200 X112.079 Y132.861 E426.96019
G0 F7200 X112.731 Y132.775
G1 F1200 X132.774 Y112.732 E427.7144
G0 F7200 X132.689 Y113.383
G1 F1200 X113.383 Y132.69 E428.44089
G0 F7200 X114.035 Y132.603
G1 F1200 X132.603 Y114.035 E429.1396
G0 F7200 X132.517 Y114.687
G1 F1200 X114.686 Y132.518 E429.81057
G0 F7200 X115.337 Y132.432
G1 F1200 X132.431 Y115.338 E430.45381
G0 F7200 X132.339 Y115.996
G1 F1200 X115.995 Y132.339 E431.06881
G1 X115.925 Y132.409
G0 F7200 X116.961 Y131.939
G1 F1200 X131.939 Y116.962 E431.6324
G1 X132.009 Y116.892
G0 F7200 X131.539 Y117.927
G1 F1200 X117.927 Y131.54 E432.14464
G1 X117.857 Y131.61
G0 F7200 X118.892 Y131.14
G1 F1200 X131.139 Y118.893 E432.60548
G1 X131.209 Y118.823
G0 F7200 X130.739 Y119.859
G1 F1200 X119.858 Y130.739 E433.01491
G1 X119.788 Y130.809
G0 F7200 X120.824 Y130.339
G1 F1200 X130.338 Y120.825 E433.37292
G1 X130.408 Y120.755
G0 F7200 X129.601 Y122.128
G1 F1200 X122.127 Y129.602 E433.65416
G1 X122.057 Y129.672
G0 F7200 X124.561 Y127.734
G1 F1200 X127.733 Y124.561 E433.77354
G1 X127.803 Y124.491
;MESH:NONMESH
G0 F600 X127.803 Y124.491 Z0.8
G0 F7200 X127.358 Y94.17
G0 X127.549 Y94.025
;TIME_ELAPSED:826.381998
;LAYER:4
;TYPE:WALL-INNER
;MESH:Sombrero1.stl
G1 F2400 X130.655 Y98.071 E433.90926
G1 X133.041 Y103.829 E434.07511
G1 X133.852 Y109.999 E434.24069
G1 X133.704 Y111.113 E434.27059
G1 X133.041 Y116.172 E434.40635
G1 X130.656 Y121.927 E434.57211
G1 X129.972 Y122.817 E434.60198
G1 X126.866 Y126.868 E434.73781
G1 X125.975 Y127.549 E434.76765
G1 X121.929 Y130.655 E434.90337
G1 X116.171 Y133.041 E435.06921
G1 X110.001 Y133.852 E435.23479
G1 X108.887 Y133.704 E435.26469
G1 X103.828 Y133.041 E435.40046
G1 X98.073 Y130.656 E435.56621
G1 X97.183 Y129.972 E435.59608
G1 X93.132 Y126.866 E435.73191
G1 X92.451 Y125.975 E435.76175
G1 X89.345 Y121.929 E435.89747
G1 X86.959 Y116.171 E436.06331
G1 X86.148 Y110 E436.22892
G1 X86.296 Y108.887 E436.2588
G1 X86.959 Y103.828 E436.39456
G1 X89.344 Y98.073 E436.56032
G1 X90.028 Y97.183 E436.59018
G1 X93.134 Y93.132 E436.72601
G1 X94.025 Y92.451 E436.75585
G1 X98.071 Y89.345 E436.89157
G1 X103.829 Y86.959 E437.05741
G1 X109.999 Y86.148 E437.223
G1 X111.113 Y86.296 E437.2529
G1 X116.172 Y86.959 E437.38866
G1 X121.927 Y89.344 E437.55442
G1 X122.817 Y90.028 E437.58429
G1 X126.868 Y93.134 E437.72011
G1 X127.549 Y94.025 E437.74995
G0 F7200 X127.47 Y94.085
G0 X117.236 Y114.159
G0 X116.63 Y115.067
G0 X115.912 Y115.889
G0 X114.205 Y117.281
G0 X114.155 Y117.195
G1 F2400 X115.068 Y116.581 E437.77923
G1 X115.477 Y116.224 E437.79367
G1 X115.884 Y115.861 E437.80818
G1 X116.244 Y115.454 E437.82264
G1 X116.599 Y115.043 E437.83709
G1 X117.202 Y114.14 E437.86598
G1 X117.68 Y113.164 E437.8949
G1 X118.027 Y112.135 E437.92379
G1 X118.238 Y111.071 E437.95266
G1 X118.307 Y109.986 E437.98158
G1 X118.233 Y108.901 E438.01052
G1 X118.02 Y107.836 E438.03942
G1 X117.668 Y106.808 E438.06833
G1 X117.186 Y105.834 E438.09725
G1 X116.581 Y104.932 E438.12615
G1 X116.224 Y104.523 E438.14059
G1 X115.861 Y104.116 E438.1551
G1 X115.457 Y103.758 E438.16947
G1 X115.044 Y103.402 E438.18398
G1 X114.595 Y103.099 E438.19839
G1 X114.138 Y102.799 E438.21293
G1 X113.164 Y102.32 E438.24182
G1 X112.135 Y101.973 E438.27071
G1 X111.071 Y101.762 E438.29957
G1 X109.986 Y101.694 E438.3285
G1 X108.901 Y101.767 E438.35743
G1 X107.836 Y101.98 E438.38633
G1 X106.808 Y102.332 E438.41524
G1 X105.834 Y102.814 E438.44416
G1 X104.932 Y103.419 E438.47306
G1 X104.523 Y103.776 E438.48751
G1 X104.116 Y104.139 E438.50202
G1 X103.758 Y104.543 E438.51638
G1 X103.402 Y104.956 E438.53089
G1 X103.099 Y105.405 E438.5453
G1 X102.799 Y105.862 E438.55985
G1 X102.32 Y106.836 E438.58873
G1 X101.973 Y107.865 E438.61762
G1 X101.762 Y108.929 E438.64648
G1 X101.693 Y110.014 E438.67541
G1 X101.767 Y111.099 E438.70435
G1 X101.98 Y112.164 E438.73325
G1 X102.332 Y113.193 E438.76219
G1 X102.814 Y114.166 E438.79108
G1 X103.419 Y115.068 E438.81998
G1 X103.776 Y115.477 E438.83442
G1 X104.139 Y115.884 E438.84893
G1 X104.543 Y116.242 E438.8633
G1 X104.956 Y116.598 E438.8778
G1 X105.405 Y116.901 E438.89222
G1 X105.862 Y117.201 E438.90676
G1 X106.836 Y117.68 E438.93564
G1 X107.865 Y118.027 E438.96454
G1 X108.929 Y118.238 E438.9934
G1 X110.014 Y118.306 E439.02233
G1 X111.099 Y118.233 E439.05126
G1 X112.164 Y118.02 E439.08016
G1 X113.192 Y117.668 E439.10907
G1 X114.155 Y117.195 E439.13762
G0 F7200 X113.954 Y116.848
;TYPE:WALL-OUTER
G1 F1200 X114.824 Y116.263 E439.16552
G1 X115.212 Y115.924 E439.17923
G1 X115.6 Y115.578 E439.19306
G1 X115.943 Y115.191 E439.20682
G1 X116.28 Y114.8 E439.22055
G1 X116.854 Y113.94 E439.24806
G1 X117.309 Y113.011 E439.27559
G1 X117.64 Y112.032 E439.30309
G1 X117.84 Y111.019 E439.33056
G1 X117.906 Y109.987 E439.35808
G1 X117.836 Y108.954 E439.38563
G1 X117.633 Y107.941 E439.41312
G1 X117.298 Y106.962 E439.44065
G1 X116.839 Y106.035 E439.46817
G1 X116.263 Y105.176 E439.49569
G1 X115.924 Y104.788 E439.5094
G1 X115.578 Y104.4 E439.52323
G1 X115.194 Y104.059 E439.5369
G1 X114.801 Y103.72 E439.55071
G1 X114.374 Y103.432 E439.56441
G1 X113.939 Y103.147 E439.57825
G1 X113.011 Y102.691 E439.60576
G1 X112.032 Y102.36 E439.63326
G1 X111.019 Y102.16 E439.66073
G1 X109.987 Y102.095 E439.68825
G1 X108.954 Y102.164 E439.7158
G1 X107.941 Y102.367 E439.74329
G1 X106.962 Y102.702 E439.77082
G1 X106.035 Y103.161 E439.79834
G1 X105.176 Y103.737 E439.82586
G1 X104.788 Y104.076 E439.83957
G1 X104.4 Y104.422 E439.8534
G1 X104.059 Y104.806 E439.86707
G1 X103.72 Y105.199 E439.88088
G1 X103.432 Y105.626 E439.89458
G1 X103.147 Y106.061 E439.90842
G1 X102.691 Y106.989 E439.93593
G1 X102.36 Y107.968 E439.96343
G1 X102.16 Y108.981 E439.9909
G1 X102.094 Y110.013 E440.01842
G1 X102.164 Y111.046 E440.04597
G1 X102.367 Y112.06 E440.07348
G1 X102.702 Y113.039 E440.10102
G1 X103.161 Y113.965 E440.12852
G1 X103.737 Y114.824 E440.15604
G1 X104.076 Y115.212 E440.16975
G1 X104.422 Y115.6 E440.18358
G1 X104.806 Y115.941 E440.19724
G1 X105.199 Y116.28 E440.21105
G1 X105.626 Y116.568 E440.22476
G1 X106.061 Y116.853 E440.23859
G1 X106.989 Y117.309 E440.26611
G1 X107.968 Y117.64 E440.29361
G1 X108.981 Y117.84 E440.32108
G1 X110.013 Y117.905 E440.34859
G1 X111.046 Y117.836 E440.37614
G1 X112.059 Y117.633 E440.40363
G1 X113.038 Y117.298 E440.43116
G1 X113.954 Y116.848 E440.45832
G0 F7200 X114.12 Y116.737
G0 X114.397 Y117.152
G0 X115.912 Y115.889
G0 X116.63 Y115.067
G0 X117.12 Y114.332
G0 X127.47 Y94.085
G0 X127.867 Y93.782
G1 F1200 X131.005 Y97.87 E440.59544
G1 X133.431 Y103.724 E440.76405
G1 X134.256 Y110 E440.93248
G1 X134.101 Y111.166 E440.96378
G1 X133.431 Y116.276 E441.10091
G1 X131.006 Y122.128 E441.26946
G1 X130.289 Y123.061 E441.30077
G1 X127.151 Y127.154 E441.438
G1 X126.218 Y127.867 E441.46925
G1 X122.13 Y131.005 E441.60637
G1 X116.276 Y133.431 E441.77498
G1 X110 Y134.256 E441.94341
G1 X108.834 Y134.101 E441.97471
G1 X103.724 Y133.431 E442.11184
G1 X97.872 Y131.006 E442.28039
G1 X96.939 Y130.289 E442.3117
G1 X92.846 Y127.151 E442.44893
G1 X92.133 Y126.218 E442.48018
G1 X88.995 Y122.13 E442.6173
G1 X86.569 Y116.276 E442.78591
G1 X85.744 Y110 E442.95434
G1 X85.899 Y108.834 E442.98564
G1 X86.569 Y103.724 E443.12277
G1 X88.994 Y97.872 E443.29132
G1 X89.711 Y96.939 E443.32263
G1 X92.849 Y92.846 E443.45986
G1 X93.782 Y92.133 E443.4911
G1 X97.87 Y88.995 E443.62823
G1 X103.724 Y86.569 E443.79684
G1 X110 Y85.744 E443.96527
G1 X111.166 Y85.899 E443.99657
G1 X116.276 Y86.569 E444.1337
G1 X122.128 Y88.994 E444.30225
G1 X123.061 Y89.711 E444.33356
G1 X127.154 Y92.849 E444.47079
G1 X127.867 Y93.782 E444.50203
G0 F7200 X127.988 Y93.94
G0 X127.239 Y94.261
;TYPE:SKIN
G1 F1200 X130.311 Y98.263 E444.63627
G1 X132.663 Y103.937 E444.79971
G1 X133.46 Y109.999 E444.96239
G1 X133.318 Y111.062 E444.99093
G1 X132.663 Y116.064 E445.12516
G1 X130.314 Y121.73 E445.28836
G1 X126.585 Y126.593 E445.45142
G1 X125.739 Y127.239 E445.47974
G1 X121.737 Y130.311 E445.61398
G1 X116.063 Y132.663 E445.77742
G1 X110.001 Y133.46 E445.9401
G1 X108.938 Y133.318 E445.96864
G1 X103.936 Y132.663 E446.10287
G1 X98.27 Y130.314 E446.26607
G1 X93.407 Y126.585 E446.42913
G1 X92.761 Y125.739 E446.45745
G1 X89.689 Y121.737 E446.59169
G1 X87.337 Y116.063 E446.75512
G1 X86.54 Y109.999 E446.91786
G1 X86.682 Y108.938 E446.94635
G1 X87.337 Y103.936 E447.08058
G1 X89.686 Y98.27 E447.24378
G1 X93.415 Y93.407 E447.40684
G1 X94.261 Y92.761 E447.43516
G1 X98.263 Y89.689 E447.5694
G1 X103.937 Y87.337 E447.73283
G1 X109.999 Y86.54 E447.89552
G1 X111.062 Y86.682 E447.92406
G1 X116.064 Y87.337 E448.05829
G1 X121.73 Y89.686 E448.22149
G1 X126.593 Y93.415 E448.38455
G1 X127.239 Y94.261 E448.41287
G0 F7200 X116.516 Y104.265
G1 F1200 X116.136 Y103.839 E448.42806
G1 X115.714 Y103.464 E448.44308
G1 X115.281 Y103.092 E448.45827
G1 X114.811 Y102.775 E448.47336
G1 X114.331 Y102.46 E448.48863
G1 X113.313 Y101.959 E448.51882
G1 X112.236 Y101.595 E448.54907
G1 X111.121 Y101.374 E448.57932
G1 X109.986 Y101.304 E448.60958
G1 X108.85 Y101.379 E448.63987
G1 X107.734 Y101.602 E448.67015
G1 X106.658 Y101.971 E448.70042
G1 X105.639 Y102.476 E448.73068
G1 X104.694 Y103.109 E448.76094
G1 X104.265 Y103.484 E448.7761
G1 X103.839 Y103.864 E448.79129
G1 X103.464 Y104.286 E448.80631
